luts/AgX_Rec2100-HLG_p3_lim_4x.cube
TITLE "AgX_Formation Rec.2100 HLG P3 limited"
# AgX Rec.2100 HLG 1000 nits Formation P3 Limited LUT
# This LUT expects input to be E Gamut Log2 encoding from -10 stops to +15 stops
# But the end image formation will be from -10 to 10 encoded in Rec.2100-HLG
# Inset matrix can be generated in Rec.2020 with rotation [2.13976149, -1.22827335, -3.05174246],
# Inset: [0.32965205, 0.28051336, 0.12475368], outset = [0.32317438, 0.28325605, 0.0374326].
# HDR purity set to 0.5, HDR extra shoulder power multiplier is 1.517882369490865
# calculated from power(400 / 100, log10(2.0))
# The image formed has 40% per-channel shifts
# HDR max nits is 400, Reference White nits is 100
LUT_3D_SIZE 57
0.0001166 0.000102 0.0002287
0.0042002 0.0010486 0
0.0077046 0.001916 0
0.0114864 0.0028697 0
0.0156411 0.0039421 0
0.0202409 0.0051608 0
0.0253602 0.0065551 0
0.0310834 0.0081563 0
0.0374826 0.0100272 0
0.0446436 0.0123066 0
0.0528737 0.014881 0
0.0623214 0.0177943 0
0.0731715 0.0210994 0
0.0856513 0.0248598 0
0.1000379 0.0291524 0
0.1166656 0.0340698 0
0.1359319 0.0397232 0
0.1583003 0.0462449 0
0.184293 0.0537898 0
0.2144631 0.0625341 0
0.2493293 0.0726688 0
0.2892404 0.0843834 0
0.3341113 0.0978339 0
0.3832073 0.1131652 0
0.4400347 0.1316367 0
0.5062144 0.1541279 0
0.5716384 0.1811593 0
0.6242136 0.2261526 0.0863934
0.6686675 0.2816812 0.1533586
0.7057742 0.3462309 0.2255746
0.7362282 0.4175123 0.3030434
0.7608542 0.493041 0.3853629
0.7805974 0.5623436 0.4699057
0.7963806 0.6172418 0.5491907
0.8090265 0.6614493 0.6101388
0.819225 0.6973546 0.6577325
0.8275293 0.7266573 0.695589
0.8343702 0.7506532 0.7260124
0.8400749 0.7703655 0.7506328
0.8448892 0.7866156 0.7706722
0.8489967 0.8000659 0.7870741
0.852535 0.81125 0.8005759
0.8556083 0.8205971 0.8117572
0.8582964 0.8284512 0.8210738
0.8606618 0.8350876 0.8288853
0.8608693 0.8408214 0.8355707
0.8602937 0.8450038 0.8406672
0.8598013 0.8485516 0.844977
0.8593737 0.8516109 0.8486703
0.8590009 0.8542622 0.8518528
0.8586747 0.8565708 0.8546097
0.8584854 0.8578193 0.8571905
0.8583974 0.8583974 0.8583974
0.8583974 0.8583974 0.8583974
0.8583974 0.8583974 0.8583974
0.8583974 0.8583974 0.8583974
0.8583974 0.8583974 0.8583974
0.0018908 0.0040606 0.0015672
0.0043446 0.0042387 0.0005422
0.0078287 0.0049893 0.0005566
0.0115927 0.005797 0.0005242
0.0157293 0.0066828 0.0004174
0.0203122 0.0076867 0
0.0254163 0.0088505 0
0.0311265 0.0102162 0
0.0375114 0.0118751 0
0.0446954 0.0139322 0
0.0529269 0.0162978 0
0.0623673 0.0190205 0
0.073208 0.0221551 0
0.0856791 0.0257654 0
0.1000587 0.0299272 0
0.1166812 0.0347316 0
0.1359439 0.040288 0
0.15831 0.0467268 0
0.1843009 0.054201 0
0.2144696 0.062885 0
0.2493346 0.0729681 0
0.2892441 0.0846386 0
0.3341131 0.0980508 0
0.3832071 0.1133491 0
0.4400338 0.1317935 0
0.5062122 0.1542619 0
0.5716352 0.1812736 0
0.6242107 0.2262413 0.0864018
0.6686652 0.2817476 0.1533652
0.7057722 0.3462797 0.2255798
0.7362267 0.4175474 0.3030475
0.7608531 0.4930656 0.3853661
0.7805966 0.5623572 0.4699082
0.7963801 0.6172493 0.5491922
0.8090262 0.6614537 0.6101397
0.8192247 0.6973571 0.657733
0.8275292 0.7266588 0.6955893
0.8343701 0.750654 0.7260126
0.8400748 0.770366 0.7506329
0.8448891 0.7866159 0.7706723
0.8489967 0.800066 0.7870741
0.852535 0.8112501 0.800576
0.8556082 0.8205972 0.8117572
0.8582964 0.8284513 0.8210738
0.8606618 0.8350876 0.8288853
0.8608693 0.8408214 0.8355707
0.8602937 0.8450039 0.8406672
0.8598013 0.8485516 0.844977
0.8593737 0.8516109 0.8486703
0.8590009 0.8542622 0.8518528
0.8586747 0.8565708 0.8546097
0.8584854 0.8578193 0.8571905
0.8583974 0.8583974 0.8583974
0.8583974 0.8583974 0.8583974
0.8583974 0.8583974 0.8583974
0.8583974 0.8583974 0.8583974
0.8583974 0.8583974 0.8583974
0.0034734 0.0074584 0.0028891
0.0050896 0.0075583 0.0010146
0.0079817 0.0077934 0.000997
0.0117027 0.0085936 0.0010216
0.0158162 0.0094344 0.0010107
0.0203829 0.0103476 0.0009545
0.0254738 0.0113782 0.0008335
0.0311724 0.0125759 0.0005931
0.0375537 0.0140695 0
0.0447612 0.0159167 0
0.052994 0.0180686 0
0.0624258 0.0205832 0
0.073255 0.0235219 0
0.0857152 0.0269525 0
0.100086 0.0309527 0
0.116702 0.0356141 0
0.1359601 0.0410454 0
0.1583229 0.0473757 0
0.1843115 0.0547563 0
0.2144785 0.06336 0
0.2493416 0.0733741 0
0.2892492 0.084985 0
0.3341154 0.0983457 0
0.383207 0.1135993 0
0.4400326 0.1320068 0
0.5062091 0.1544443 0
0.5716309 0.1814292 0
0.6242069 0.226362 0.0864132
0.668662 0.2818379 0.1533743
0.7057696 0.3463462 0.225587
0.7362246 0.4175952 0.3030532
0.7608516 0.4930992 0.3853705
0.7805956 0.5623757 0.4699115
0.7963793 0.6172597 0.5491942
0.8090257 0.6614595 0.6101408
0.8192244 0.6973605 0.6577337
0.827529 0.7266607 0.6955897
0.8343699 0.7506552 0.7260128
0.8400747 0.7703667 0.750633
0.8448891 0.7866163 0.7706723
0.8489967 0.8000663 0.7870742
0.852535 0.8112503 0.800576
0.8556082 0.8205973 0.8117572
0.8582964 0.8284513 0.8210738
0.8606618 0.8350877 0.8288853
0.8608693 0.8408215 0.8355707
0.8602937 0.8450039 0.8406672
0.8598013 0.8485516 0.844977
0.8593737 0.8516109 0.8486703
0.8590009 0.8542622 0.8518528
0.8586747 0.8565708 0.8546097
0.8584854 0.8578193 0.8571905
0.8583974 0.8583974 0.8583974
0.8583974 0.8583974 0.8583974
0.8583974 0.8583974 0.8583974
0.8583974 0.8583974 0.8583974
0.8583974 0.8583974 0.8583974
0.0051877 0.0111397 0.004311
0.0060055 0.0111841 0.0015203
0.0087472 0.0113393 0.0015055
0.0118683 0.0115979 0.001484
0.0159273 0.0124245 0.0015073
0.0204633 0.0132898 0.0014975
0.0255353 0.014232 0.0014474
0.0312206 0.0153014 0.0013447
0.0376151 0.0166694 0.0011957
0.0448438 0.0183195 0.0009424
0.0530772 0.0202574 0.0003027
0.062499 0.0225516 0
0.0733146 0.025272 0
0.0857617 0.0284935 0
0.1001216 0.032299 0
0.1167292 0.036783 0
0.1359814 0.0420557 0
0.1583401 0.0482459 0
0.1843258 0.0555042 0
0.2144904 0.0640016 0
0.2493512 0.0739237 0
0.2892559 0.0854549 0
0.3341186 0.0987462 0
0.3832067 0.1139393 0
0.4400309 0.132297 0
0.506205 0.1546926 0
0.5716249 0.1816411 0
0.6242016 0.2265265 0.0864287
0.6686576 0.281961 0.1533866
0.7057661 0.3464367 0.2255967
0.7362219 0.4176604 0.3030608
0.7608495 0.4931449 0.3853764
0.7805941 0.5624008 0.469916
0.7963783 0.6172737 0.549197
0.809025 0.6614675 0.6101424
0.8192239 0.6973651 0.6577347
0.8275287 0.7266634 0.6955902
0.8343698 0.7506568 0.7260131
0.8400746 0.7703676 0.7506332
0.844889 0.7866169 0.7706725
0.8489966 0.8000666 0.7870743
0.852535 0.8112505 0.800576
0.8556082 0.8205974 0.8117572
0.8582963 0.8284514 0.8210738
0.8606618 0.8350877 0.8288854
0.8608693 0.8408215 0.8355707
0.8602937 0.8450039 0.8406672
0.8598013 0.8485516 0.844977
0.8593737 0.851611 0.8486703
0.8590009 0.8542622 0.8518528
0.8586747 0.8565708 0.8546097
0.8584854 0.8578193 0.8571905
0.8583974 0.8583974 0.8583974
0.8583974 0.8583974 0.8583974
0.8583974 0.8583974 0.8583974
0.8583974 0.8583974 0.8583974
0.8583974 0.8583974 0.8583974
0.0070759 0.0151958 0.0058629
0.0070613 0.0151922 0.0020763
0.0096725 0.0153132 0.0020642
0.0126468 0.0154703 0.002042
0.0161053 0.0157502 0.0020155
0.0205786 0.0165936 0.0020329
0.0256132 0.0174799 0.0020173
0.0312759 0.0184532 0.001962
0.0377061 0.0197375 0.0018878
0.0449478 0.0212049 0.0017495
0.0531786 0.0229338 0.0015133
0.0625887 0.0250012 0.0010849
0.0733888 0.0274863 0
0.0858204 0.0304724 0
0.1001672 0.0340499 0
0.1167646 0.0383194 0
0.1360094 0.0433949 0
0.1583629 0.0494074 0
0.1843449 0.0565076 0
0.2145063 0.0648658 0
0.249364 0.0746662 0
0.2892651 0.0860911 0
0.3341228 0.0992892 0
0.3832064 0.114401 0
0.4400286 0.1326913 0
0.5061994 0.1550302 0
0.5716169 0.1819294 0
0.6241944 0.2267503 0.08645
0.6686517 0.2821285 0.1534034
0.7057613 0.3465601 0.2256099
0.7362181 0.4177491 0.3030713
0.7608467 0.4932072 0.3853846
0.780592 0.5624351 0.4699221
0.7963769 0.6172928 0.5492007
0.809024 0.6614784 0.6101446
0.8192233 0.6973714 0.657736
0.8275283 0.7266671 0.695591
0.8343695 0.7506589 0.7260136
0.8400744 0.7703689 0.7506335
0.8448889 0.7866177 0.7706726
0.8489965 0.8000671 0.7870744
0.8525349 0.8112508 0.8005761
0.8556082 0.8205976 0.8117572
0.8582963 0.8284515 0.8210738
0.8606618 0.8350878 0.8288854
0.8608692 0.8408215 0.8355707
0.8602937 0.8450039 0.8406672
0.8598013 0.8485516 0.844977
0.8593737 0.851611 0.8486703
0.8590009 0.8542622 0.8518528
0.8586747 0.8565708 0.8546097
0.8584854 0.8578193 0.8571905
0.8583974 0.8583974 0.8583974
0.8583974 0.8583974 0.8583974
0.8583974 0.8583974 0.8583974
0.8583974 0.8583974 0.8583974
0.8583974 0.8583974 0.8583974
0.0091691 0.0196938 0.0075637
0.009079 0.0196813 0.0048489
0.0107392 0.0197435 0.0026823
0.013591 0.0198629 0.0026633
0.0168943 0.0200253 0.0026341
0.0207696 0.0203247 0.0026012
0.0257338 0.0211809 0.0026097
0.031417 0.0221801 0.002597
0.0378434 0.023339 0.0025546
0.0450812 0.0246419 0.0024628
0.0533022 0.0261722 0.0023064
0.0626969 0.0280138 0.0020539
0.073479 0.0302534 0.0016306
0.0858932 0.0329833 0.0007037
0.1002246 0.0363025 0
0.1168099 0.04032 0
0.1360457 0.0451564 0
0.1583929 0.0509477 0
0.1843701 0.057847 0
0.2145276 0.0660255 0
0.2493812 0.0756665 0
0.2892773 0.0869507 0
0.3341285 0.1000246 0
0.3832058 0.1150272 0
0.4400254 0.1332268 0
0.5061917 0.155489 0
0.5716058 0.1823214 0
0.6241845 0.2270549 0.0864788
0.6686436 0.2823567 0.1534264
0.7057547 0.346728 0.225628
0.7362129 0.41787 0.3030855
0.7608428 0.4932921 0.3853957
0.7805893 0.5624819 0.4699305
0.796375 0.6173189 0.5492059
0.8090228 0.6614933 0.6101476
0.8192225 0.69738 0.6577377
0.8275278 0.7266721 0.695592
0.8343692 0.7506619 0.7260142
0.8400742 0.7703707 0.7506339
0.8448888 0.7866187 0.7706729
0.8489965 0.8000677 0.7870745
0.8525349 0.8112511 0.8005762
0.8556082 0.8205978 0.8117573
0.8582963 0.8284516 0.8210739
0.8606617 0.8350879 0.8288854
0.8608692 0.8408216 0.8355707
0.8602937 0.8450039 0.8406672
0.8598013 0.8485517 0.844977
0.8593737 0.851611 0.8486703
0.8590009 0.8542622 0.8518528
0.8586747 0.8565708 0.8546097
0.8584854 0.8578193 0.8571905
0.8583974 0.8583974 0.8583974
0.8583974 0.8583974 0.8583974
0.8583974 0.8583974 0.8583974
0.8583974 0.8583974 0.8583974
0.8583974 0.8583974 0.8583974
0.011499 0.0247026 0.0094313
0.0114207 0.0246877 0.0072843
0.0119841 0.0246985 0.0033707
0.0146845 0.0247886 0.0033537
0.0178614 0.0249093 0.0033281
0.0215692 0.025079 0.0032915
0.0260122 0.0254708 0.0032602
0.0316812 0.026492 0.0032778
0.038053 0.0275438 0.0032568
0.0452584 0.028703 0.0031933
0.0534551 0.0300516 0.0030788
0.0628274 0.0316762 0.0028961
0.0735875 0.033669 0.0026122
0.0859812 0.0361296 0.0021553
0.1002953 0.0391663 0.0012855
0.1168668 0.0428972 0
0.1360921 0.0474522 0
0.1584316 0.0529749 0
0.1844032 0.0596241 0
0.2145557 0.0675739 0
0.2494041 0.0770088 0
0.2892937 0.0881086 0
0.334136 0.1010181 0
0.3832049 0.1158751 0
0.440021 0.133953 0
0.5061812 0.156112 0
0.5715908 0.1828542 0
0.6241712 0.2274693 0.0865182
0.6686326 0.2826672 0.1534576
0.7057457 0.3469567 0.2256526
0.7362059 0.4180346 0.3031048
0.7608376 0.4934077 0.3854108
0.7805855 0.5625455 0.4699419
0.7963724 0.6173544 0.5492129
0.809021 0.6615135 0.6101516
0.8192213 0.6973917 0.6577401
0.827527 0.7266789 0.6955935
0.8343687 0.7506659 0.7260151
0.8400739 0.7703731 0.7506344
0.8448886 0.7866201 0.7706732
0.8489964 0.8000686 0.7870747
0.8525348 0.8112517 0.8005763
0.8556081 0.8205981 0.8117574
0.8582963 0.8284518 0.8210739
0.8606617 0.835088 0.8288854
0.8608692 0.8408217 0.8355707
0.8602937 0.845004 0.8406672
0.8598013 0.8485517 0.844977
0.8593737 0.851611 0.8486703
0.8590009 0.8542622 0.8518528
0.8586747 0.8565708 0.8546097
0.8584854 0.8578193 0.8571905
0.8583974 0.8583974 0.8583974
0.8583974 0.8583974 0.8583974
0.8583974 0.8583974 0.8583974
0.8583974 0.8583974 0.8583974
0.8583974 0.8583974 0.8583974
0.0141016 0.0303003 0.0114862
0.0140329 0.0302847 0.0096931
0.0139257 0.0302687 0.0057295
0.0159746 0.0303229 0.0041252
0.0190122 0.0304277 0.0041043
0.022707 0.0306579 0.0040852
0.0270292 0.0309754 0.0040582
0.0321162 0.0314703 0.0040286
0.0383724 0.0324295 0.0040234
0.0455037 0.0334666 0.0039806
0.053651 0.0346553 0.003894
0.0629868 0.0360797 0.0037528
0.0737177 0.0378341 0.0035372
0.0860868 0.0400229 0.003211
0.1003806 0.0427617 0.0026988
0.1169365 0.0461782 0.0017763
0.1361503 0.0504127 0
0.1584811 0.0556188 0
0.184446 0.061964 0
0.2145925 0.0696289 0
0.2494343 0.0788014 0
0.2893153 0.0896627 0
0.3341459 0.1023565 0
0.3832035 0.1170207 0
0.4400149 0.1349364 0
0.5061668 0.1569569 0
0.5715704 0.1835775 0
0.624153 0.2280325 0.0865718
0.6686176 0.2830896 0.1535001
0.7057335 0.347268 0.2256861
0.7361964 0.4182588 0.3031312
0.7608305 0.4935651 0.3854314
0.7805804 0.5626322 0.4699575
0.7963689 0.6174027 0.5492225
0.8090187 0.6615411 0.6101571
0.8192198 0.6974076 0.6577433
0.827526 0.7266882 0.6955954
0.8343681 0.7506714 0.7260162
0.8400735 0.7703763 0.7506351
0.8448884 0.7866221 0.7706736
0.8489962 0.8000697 0.7870749
0.8525347 0.8112524 0.8005765
0.8556081 0.8205986 0.8117575
0.8582963 0.8284521 0.821074
0.8606617 0.8350882 0.8288854
0.8608692 0.8408218 0.8355708
0.8602937 0.8450041 0.8406673
0.8598013 0.8485517 0.844977
0.8593737 0.851611 0.8486703
0.8590009 0.8542622 0.8518528
0.8586747 0.8565708 0.8546097
0.8584854 0.8578193 0.8571906
0.8583974 0.8583974 0.8583974
0.8583974 0.8583974 0.8583974
0.8583974 0.8583974 0.8583974
0.8583974 0.8583974 0.8583974
0.8583974 0.8583974 0.8583974
0.0170471 0.0366444 0.0137019
0.0169959 0.0366531 0.0121125
0.0169182 0.0366693 0.0091408
0.0177705 0.0367282 0.0050129
0.0206635 0.0368558 0.0050001
0.0241358 0.0370284 0.0049815
0.0282593 0.0372644 0.0049552
0.033115 0.0375886 0.0049188
0.0388508 0.0380861 0.0048759
0.045855 0.03902 0.0048493
0.0539145 0.040073 0.0047843
0.0631895 0.041321 0.0046726
0.0738766 0.0428552 0.0045008
0.0862133 0.044781 0.0042461
0.1004827 0.0472187 0.0038676
0.1170204 0.0503035 0.0032824
0.1362213 0.0541859 0.0022579
0.1585431 0.059031 0
0.1845005 0.0650175 0
0.2146401 0.0723358 0
0.2494737 0.0811811 0
0.2893437 0.0917385 0
0.3341586 0.1041529 0
0.3832013 0.118564 0
0.4400064 0.1362649 0
0.5061472 0.1581008 0
0.5715425 0.1845583 0
0.6241282 0.2287974 0.0866448
0.6685973 0.2836639 0.153558
0.705717 0.3476915 0.2257317
0.7361834 0.4185639 0.3031672
0.7608207 0.4937794 0.3854595
0.7805735 0.5627501 0.4699787
0.796364 0.6174686 0.5492355
0.8090154 0.6615786 0.6101646
0.8192177 0.6974293 0.6577478
0.8275247 0.7267009 0.695598
0.8343672 0.7506788 0.7260178
0.840073 0.7703807 0.750636
0.844888 0.7866247 0.7706741
0.848996 0.8000713 0.7870753
0.8525346 0.8112533 0.8005767
0.855608 0.8205992 0.8117576
0.8582962 0.8284525 0.821074
0.8606617 0.8350884 0.8288855
0.8608692 0.8408219 0.8355708
0.8602937 0.8450041 0.8406673
0.8598013 0.8485518 0.844977
0.8593737 0.851611 0.8486703
0.8590009 0.8542623 0.8518528
0.8586747 0.8565708 0.8546097
0.8584854 0.8578193 0.8571906
0.8583974 0.8583974 0.8583974
0.8583974 0.8583974 0.8583974
0.8583974 0.8583974 0.8583974
0.8583974 0.8583974 0.8583974
0.8583974 0.8583974 0.8583974
0.020422 0.0439298 0.0160328
0.0203761 0.0439365 0.0146052
0.0203095 0.0439499 0.0121923
0.0202125 0.0439803 0.0070971
0.0225732 0.0440726 0.0060026
0.0258043 0.0442027 0.0059849
0.0297003 0.0443796 0.00596
0.0343496 0.044622 0.0059254
0.0398502 0.0449557 0.0058783
0.0463644 0.0454643 0.0058208
0.0542857 0.0464048 0.0057736
0.0634619 0.0475042 0.0056856
0.07408 0.0488448 0.0055464
0.086369 0.0505282 0.0053399
0.1006055 0.0526749 0.0050396
0.1171208 0.0554245 0.0045985
0.1363067 0.0589353 0.0039231
0.1586185 0.0633835 0.0027597
0.1845688 0.0689608 0
0.2147007 0.0758698 0
0.2495245 0.0843167 0
0.2893804 0.0944945 0
0.3341748 0.1065524 0
0.3831977 0.1206353 0
0.4399945 0.1380546 0
0.5061203 0.159646 0
0.5715045 0.1858859 0
0.6240945 0.2298348 0.0867441
0.6685695 0.2844441 0.153637
0.7056944 0.3482674 0.2257939
0.7361657 0.418979 0.3032162
0.7608075 0.4940712 0.3854977
0.780564 0.5629107 0.4700076
0.7963575 0.6175582 0.5492532
0.809011 0.6616297 0.6101749
0.8192148 0.6974588 0.6577538
0.8275228 0.7267181 0.6956016
0.834366 0.750689 0.7260199
0.8400723 0.7703867 0.7506373
0.8448876 0.7866283 0.7706749
0.8489957 0.8000735 0.7870757
0.8525344 0.8112546 0.8005769
0.8556079 0.8206 0.8117578
0.8582961 0.828453 0.8210741
0.8606616 0.8350887 0.8288856
0.8608692 0.8408221 0.8355708
0.8602937 0.8450043 0.8406673
0.8598013 0.8485518 0.844977
0.8593737 0.8516111 0.8486703
0.8590009 0.8542623 0.8518528
0.8586747 0.8565709 0.8546097
0.8584854 0.8578193 0.8571906
0.8583974 0.8583974 0.8583974
0.8583974 0.8583974 0.8583974
0.8583974 0.8583974 0.8583974
0.8583974 0.8583974 0.8583974
0.8583974 0.8583974 0.8583974
0.0242155 0.0521163 0.0186781
0.0241759 0.0521235 0.0174198
0.0241201 0.0521368 0.0154275
0.0240408 0.0521631 0.0119092
0.0248116 0.0522218 0.007132
0.0277869 0.0523204 0.0071155
0.0314294 0.0524542 0.0070923
0.0358375 0.0526371 0.0070604
0.041117 0.0528889 0.0070166
0.0473847 0.0532368 0.0069574
0.0548222 0.0537672 0.006884
0.0638482 0.0547455 0.0068164
0.0743577 0.0559245 0.0067043
0.0865716 0.0573961 0.006535
0.1007585 0.0592756 0.0062895
0.1172423 0.061702 0.0059365
0.1364091 0.0648377 0.0054219
0.1587093 0.0688673 0.0046386
0.1846518 0.0739944 0.0033036
0.2147763 0.0804359 0
0.2495887 0.0884115 0
0.289427 0.0981264 0
0.3341946 0.1097383 0
0.3831916 0.123402 0
0.4399776 0.1404565 0
0.5060834 0.1617273 0
0.5714528 0.1876789 0
0.6240487 0.2312398 0.0868793
0.6685318 0.2855029 0.1537444
0.7056636 0.3490499 0.2258786
0.7361417 0.4195435 0.303283
0.7607895 0.4944682 0.3855499
0.7805511 0.5631291 0.470047
0.7963486 0.6176803 0.5492774
0.8090051 0.6616993 0.6101888
0.8192109 0.6974991 0.657762
0.8275203 0.7267416 0.6956065
0.8343645 0.7507028 0.7260229
0.8400713 0.770395 0.750639
0.844887 0.7866332 0.770676
0.8489953 0.8000765 0.7870764
0.8525342 0.8112564 0.8005773
0.8556077 0.8206011 0.811758
0.858296 0.8284536 0.8210743
0.8606616 0.8350891 0.8288856
0.8608691 0.8408224 0.8355709
0.8602937 0.8450044 0.8406673
0.8598012 0.8485519 0.844977
0.8593737 0.8516111 0.8486703
0.8590009 0.8542623 0.8518528
0.8586747 0.8565709 0.8546097
0.8584854 0.8578193 0.8571906
0.8583974 0.8583974 0.8583974
0.8583974 0.8583974 0.8583974
0.8583974 0.8583974 0.8583974
0.8583974 0.8583974 0.8583974
0.8583974 0.8583974 0.8583974
0.0285081 0.0613766 0.0217059
0.028475 0.0613854 0.0206111
0.0284289 0.0614 0.0189522
0.0283645 0.0614253 0.016275
0.028274 0.0614714 0.0112523
0.0301663 0.0615474 0.0083965
0.0335342 0.0616498 0.0083755
0.0376689 0.0617895 0.0083466
0.0426868 0.0619815 0.0083069
0.0487134 0.062247 0.0082529
0.0558866 0.0626159 0.0081802
0.0644137 0.0631807 0.0080894
0.0747598 0.0642308 0.0080013
0.0868555 0.0655275 0.0078638
0.1009624 0.0671753 0.0076616
0.117396 0.0693064 0.0073721
0.1365337 0.0720816 0.0069587
0.1588183 0.075689 0.0063586
0.1847515 0.0803412 0.0054493
0.2148677 0.0862679 0.0039149
0.2496681 0.0937044 0
0.2894848 0.1028703 0
0.334218 0.1139368 0
0.3831816 0.1270753 0
0.4399535 0.1436645 0
0.5060327 0.16452 0
0.5713824 0.1900929 0
0.6239864 0.2331384 0.0870633
0.6684805 0.2869377 0.1538908
0.7056219 0.3501121 0.225994
0.736109 0.4203106 0.3033741
0.760765 0.495008 0.3856209
0.7805335 0.563426 0.4701006
0.7963364 0.6178463 0.5493104
0.8089969 0.661794 0.6102078
0.8192056 0.6975538 0.6577732
0.8275169 0.7267736 0.6956132
0.8343623 0.7507216 0.7260269
0.8400699 0.7704061 0.7506414
0.8448861 0.7866399 0.7706774
0.8489948 0.8000805 0.7870772
0.8525338 0.8112589 0.8005778
0.8556075 0.8206026 0.8117583
0.8582959 0.8284545 0.8210745
0.8606615 0.8350897 0.8288858
0.8608691 0.8408227 0.835571
0.8602936 0.8450046 0.8406674
0.8598012 0.8485521 0.8449771
0.8593737 0.8516112 0.8486703
0.8590009 0.8542624 0.8518529
0.8586747 0.8565709 0.8546097
0.8584854 0.8578193 0.8571906
0.8583974 0.8583974 0.8583974
0.8583974 0.8583974 0.8583974
0.8583974 0.8583974 0.8583974
0.8583974 0.8583974 0.8583974
0.8583974 0.8583974 0.8583974
0.0333943 0.0719143 0.0251923
0.0333672 0.0719249 0.0242484
0.0333298 0.0719411 0.0228609
0.033278 0.0719668 0.0207397
0.0332059 0.0720089 0.0172452
0.0331052 0.0720818 0.0101479
0.0361131 0.072162 0.0098371
0.0399477 0.0722705 0.0098113
0.0446657 0.0724192 0.0097759
0.0504042 0.0726245 0.0097277
0.0573115 0.0729097 0.0096625
0.0655505 0.0733082 0.0095748
0.0753616 0.073923 0.0094649
0.0872787 0.0750833 0.0093562
0.1012573 0.0765423 0.0091917
0.1176065 0.0784195 0.0089534
0.136694 0.0808669 0.0086143
0.1589517 0.0840697 0.0081318
0.1848712 0.0882431 0.0074333
0.2149772 0.0936261 0.0063808
0.249763 0.1004674 0.0046305
0.2895546 0.1090035 0
0.3342438 0.1194208 0
0.3831647 0.1319158 0
0.4399189 0.1479232 0
0.5059629 0.1682486 0
0.5712867 0.1933302 0
0.6239019 0.2356966 0.0873134
0.6684109 0.2888781 0.15409
0.7055651 0.351552 0.226151
0.7360645 0.4213521 0.3034981
0.7607317 0.4957416 0.3857178
0.7805096 0.5638292 0.4701738
0.7963199 0.618072 0.5493553
0.8089858 0.6619229 0.6102337
0.8191983 0.6976284 0.6577885
0.8275122 0.7268172 0.6956222
0.8343593 0.7507473 0.7260323
0.8400681 0.7704214 0.7506447
0.844885 0.786649 0.7706793
0.8489941 0.800086 0.7870784
0.8525334 0.8112622 0.8005786
0.8556072 0.8206046 0.8117587
0.8582957 0.8284558 0.8210747
0.8606614 0.8350904 0.8288859
0.860869 0.8408232 0.8355711
0.8602936 0.8450049 0.8406674
0.8598012 0.8485522 0.8449771
0.8593736 0.8516113 0.8486704
0.8590009 0.8542624 0.8518529
0.8586747 0.8565709 0.8546097
0.8584854 0.8578193 0.8571906
0.8583974 0.8583974 0.8583974
0.8583974 0.8583974 0.8583974
0.8583974 0.8583974 0.8583974
0.8583974 0.8583974 0.8583974
0.8583974 0.8583974 0.8583974
0.0389864 0.0839707 0.0292259
0.0389646 0.0839829 0.0284175
0.0389346 0.0840006 0.0272544
0.0388934 0.0840271 0.0255371
0.0388365 0.0840677 0.0228896
0.0387575 0.0841322 0.0184392
0.0392749 0.0842274 0.0115102
0.0427902 0.0843132 0.0114875
0.0471762 0.0844308 0.0114564
0.0525822 0.0845925 0.011414
0.0591695 0.0848167 0.0113564
0.0671131 0.0851294 0.0112787
0.0766056 0.0855684 0.0111744
0.0879289 0.0862521 0.0110435
0.1017114 0.0875671 0.0109138
0.1179212 0.0892403 0.0107207
0.136919 0.0914081 0.0104424
0.1591255 0.0942444 0.0100473
0.1850182 0.0979593 0.0094858
0.2151078 0.1027933 0.0086759
0.2498748 0.109004 0.0074672
0.2896344 0.1168419 0.0055087
0.3342692 0.1265104 0
0.3831366 0.1382378 0
0.4398687 0.1535341 0
0.5058667 0.1731961 0
0.5711566 0.1976494 0
0.6237875 0.2391305 0.0876534
0.6683165 0.2914956 0.1543611
0.7054882 0.3535003 0.2263649
0.7360042 0.4227641 0.3036671
0.7606865 0.4967375 0.3858497
0.7804771 0.5643763 0.4702735
0.7962974 0.6183787 0.5494165
0.8089707 0.6620982 0.610269
0.8191884 0.6977299 0.6578093
0.8275059 0.7268765 0.6956346
0.8343553 0.7507822 0.7260397
0.8400655 0.7704421 0.7506491
0.8448834 0.7866614 0.770682
0.8489931 0.8000934 0.78708
0.8525328 0.8112667 0.8005795
0.8556069 0.8206074 0.8117593
0.8582955 0.8284575 0.8210751
0.8606612 0.8350915 0.8288861
0.860869 0.8408239 0.8355712
0.8602935 0.8450053 0.8406675
0.8598012 0.8485525 0.8449771
0.8593736 0.8516115 0.8486704
0.8590009 0.8542625 0.8518529
0.8586747 0.856571 0.8546097
0.8584854 0.8578193 0.8571906
0.8583974 0.8583974 0.8583974
0.8583974 0.8583974 0.8583974
0.8583974 0.8583974 0.8583974
0.8583974 0.8583974 0.8583974
0.8583974 0.8583974 0.8583974
0.0454176 0.0978329 0.0339114
0.0454004 0.0978463 0.0332226
0.0453768 0.0978652 0.0322462
0.0453444 0.0978925 0.0308382
0.0452999 0.0979325 0.0287518
0.0452385 0.0979926 0.0255119
0.0451534 0.0980857 0.0199661
0.0463261 0.0982003 0.0134145
0.0503562 0.0982953 0.0133876
0.0553915 0.0984257 0.0133508
0.0616073 0.0986056 0.0133007
0.0691932 0.0988556 0.0132328
0.0783559 0.0992055 0.0131412
0.0893228 0.0996984 0.0130183
0.1024276 0.1004737 0.0128644
0.1184202 0.1019946 0.0127133
0.1372649 0.1039405 0.0124891
0.1593742 0.1064657 0.0121662
0.1852109 0.1097656 0.0117073
0.2152677 0.1140725 0.0110561
0.250006 0.1196437 0.0101231
0.2897237 0.1267369 0.008756
0.3342874 0.1355692 0.0066442
0.3830903 0.1464088 0.002428
0.4397955 0.1608599 0
0.5057339 0.1797103 0
0.5709801 0.2033744 0
0.6236328 0.2437168 0.0881153
0.6681887 0.2950143 0.1547298
0.705384 0.3561299 0.2266558
0.7359225 0.4246749 0.3038974
0.7606252 0.4980878 0.3860297
0.780433 0.5651174 0.4704094
0.7962669 0.6187949 0.5494999
0.8089502 0.6623364 0.6103171
