luts/AgX_Rec2100-HLG_p3_lim.cube
TITLE "AgX_Formation Rec.2100 HLG P3 limited"
# AgX Rec.2100 HLG 1000 nits Formation P3 Limited LUT
# This LUT expects input to be E Gamut Log2 encoding from -10 stops to +15 stops
# But the end image formation will be from -10 to 6.5 encoded in Rec.2100-HLG
# Inset matrix can be generated in Rec.2020 with rotation [2.13976149, -1.22827335, -3.05174246],
# Inset: [0.32965205, 0.28051336, 0.12475368], outset = [0.32317438, 0.28325605, 0.0374326].
# HDR purity set to 0.5, HDR extra shoulder power is 2.0
# calculated from power(1000 / 100, log10(2.0))
# The image formed has 40% per-channel shifts
# HDR max nits is 1000, Reference White nits is 100
LUT_3D_SIZE 9
0.0004711 0.0004327 0.0007854
0.0318383 0.0084351 0
0.1004009 0.0292794 0
0.2895946 0.0844809 0
0.7365053 0.2926797 0.109832
0.9939534 0.8414954 0.7874973
1 1 0.9930367
1 1 1
1 1 1
0.0144369 0.0310269 0.0116854
0.0327329 0.0320778 0.0041065
0.1006998 0.0429164 0.0027131
0.2896653 0.0897651 0
0.7365006 0.2944624 0.1099988
0.993948 0.8415654 0.7875098
1 1 0.9930371
1 1 1
1 1 1
0.045582 0.0981888 0.03401
0.0464532 0.0984288 0.0134456
0.1026133 0.1006561 0.0128878
0.2900481 0.1268721 0.0087639
0.7364593 0.3095204 0.1114455
0.993901 0.8421732 0.7876186
1 1 0.9930405
1 1 1
1 1 1
0.1303723 0.2808439 0.0971802
0.1302995 0.2810392 0.0923251
0.1363804 0.2827298 0.0385928
0.2933641 0.2878782 0.0368618
0.7361429 0.4155336 0.1234911
0.9935037 0.8472832 0.7885715
1 1 0.9930705
1 1 1
1 1 1
0.3812439 0.7183132 0.2596827
0.3812592 0.7183961 0.2576806
0.381393 0.7191278 0.239171
0.4260292 0.7229602 0.1134128
0.7405732 0.7341198 0.2061312
0.990763 0.8813784 0.7969647
1 1 0.9933321
1 1 1
1 1 1
0.8339323 0.9880668 0.7556603
0.8340088 0.9880631 0.7556817
0.8346734 0.9880307 0.7558681
0.8402553 0.9877562 0.7574944
0.877313 0.9858353 0.771396
0.9837504 0.9811964 0.8528866
1 1 0.9955769
1 1 1
1 1 1
0.9999186 1 0.9844856
0.9999205 1 0.9844864
0.9999375 1 0.9844927
1 1 0.9845482
1 1 0.9850293
1 1 0.9889701
1 1 1
1 1 1
1 1 1
1 1 1
1 1 1
1 1 1
1 1 1
1 1 1
1 1 1
1 1 1
1 1 1
1 1 1
1 1 1
1 1 1
1 1 1
1 1 1
1 1 1
1 1 1
1 1 1
1 1 1
1 1 1
0.0080103 0.0092313 0.0318212
0.0304174 0.0081478 0.0323918
0.0998928 0.0247659 0.0280866
0.2904951 0.0790493 0
0.7366669 0.2910632 0.1098695
0.9939628 0.8414374 0.7875005
1 1 0.9930367
1 1 1
1 1 1
0.0158752 0.0311579 0.0324547
0.0296535 0.0296533 0.0296566
0.1035392 0.0303157 0
0.2905008 0.0847484 0
0.7366607 0.2928595 0.1100349
0.9939574 0.8415075 0.7875129
1 1 0.9930371
1 1 1
1 1 1
0.0454915 0.0969692 0.0455021
0.0449251 0.0967825 0.0334044
0.0997893 0.0978862 0.0125331
0.2904233 0.1237487 0.0078174
0.7366074 0.308026 0.1114698
0.9939104 0.8421157 0.7876216
1 1 0.9930405
1 1 1
1 1 1
0.1301904 0.280107 0.1015234
0.1301156 0.2802908 0.0969919
0.1331343 0.2820779 0.0385323
0.2925107 0.2870385 0.0367542
0.7362077 0.4145674 0.1234378
0.9935125 0.8472297 0.7885733
1 1 0.9930705
1 1 1
1 1 1
0.381132 0.7181288 0.2616095
0.3811472 0.7182115 0.2596278
0.3812803 0.7189415 0.2413211
0.4249265 0.7228411 0.1133891
0.7404293 0.7339742 0.2059103
0.9907676 0.8813458 0.7969596
1 1 0.9933321
1 1 1
1 1 1
0.8338481 0.9880677 0.7556281
0.8339247 0.988064 0.7556495
0.8345899 0.9880316 0.7558359
0.8401778 0.9877569 0.7574625
0.8772671 0.9858344 0.7713668
0.9837464 0.9811923 0.8528747
1 1 0.9955768
1 1 1
1 1 1
0.9999164 1 0.9844846
0.9999183 1 0.9844853
0.9999353 1 0.9844917
1 1 0.9845471
1 1 0.9850283
1 1 0.9889692
1 1 1
1 1 1
1 1 1
1 1 1
1 1 1
1 1 1
1 1 1
1 1 1
1 1 1
1 1 1
1 1 1
1 1 1
1 1 1
1 1 1
1 1 1
1 1 1
1 1 1
1 1 1
1 1 1
1 1 1
1 1 1
0.0225987 0.027335 0.0879922
0.0293092 0.0208254 0.0993188
0.0967787 0.0259116 0.1027457
0.2872458 0.0712777 0.08622
0.7381948 0.2762788 0.1103243
0.9940462 0.8409291 0.7875291
1 1 0.9930368
1 1 1
1 1 1
0.0273306 0.040207 0.0944304
0.0268547 0.0325678 0.1044422
0.0983538 0.0263334 0.1044189
0.2884885 0.0715235 0.0811161
0.7381754 0.2782079 0.1104765
0.9940407 0.8409997 0.7875414
1 1 0.9930372
1 1 1
1 1 1
0.0500461 0.0982791 0.1020689
0.049113 0.0964467 0.1001664
0.0929215 0.0929209 0.092929
0.2996406 0.0877119 0
0.7380098 0.2944271 0.1118001
0.993993 0.8416122 0.7876488
1 1 0.9930407
1 1 1
1 1 1
0.1296799 0.2761362 0.1324977
0.1294397 0.2759121 0.1294699
0.1284038 0.276622 0.095466
0.2848955 0.2795477 0.0357946
0.7368394 0.4059506 0.1230387
0.9935893 0.8467611 0.7885903
1 1 0.9930706
1 1 1
1 1 1
0.3801616 0.7165255 0.2776988
0.3801761 0.7166065 0.2758772
0.3803027 0.7173216 0.2591481
0.4151096 0.7218042 0.1131842
0.7391671 0.7326977 0.2039808
0.9908082 0.881061 0.7969155
1 1 0.9933319
1 1 1
1 1 1
0.8331092 0.9880761 0.7553472
0.8331865 0.9880723 0.7553686
0.8338582 0.9880397 0.7555552
0.8394982 0.9877628 0.7571835
0.8768648 0.9858267 0.7711119
0.9837114 0.9811564 0.8527714
1 1 0.9955752
1 1 1
1 1 1
0.9998974 1 0.9844757
0.9998994 1 0.9844764
0.9999164 1 0.9844828
1 1 0.9845382
1 1 0.9850195
1 1 0.9889617
1 1 1
1 1 1
1 1 1
1 1 1
1 1 1
1 1 1
1 1 1
1 1 1
1 1 1
1 1 1
1 1 1
1 1 1
1 1 1
1 1 1
1 1 1
1 1 1
1 1 1
1 1 1
1 1 1
1 1 1
1 1 1
0.0650954 0.0791082 0.2529303
0.0654394 0.0766306 0.2583216
0.0951624 0.0717901 0.2784739
0.2777359 0.0810022 0.2945003
0.7419753 0.2240047 0.2771906
0.9948182 0.8363157 0.7878762
1 1 0.9930383
1 1 1
1 1 1
0.0662956 0.0831803 0.2537465
0.0666029 0.0809375 0.2587919
0.0931117 0.0727183 0.2822068
0.2782362 0.0811632 0.2950282
0.7422431 0.2240036 0.275282
0.994812 0.8363909 0.7878872
1 1 0.9930387
1 1 1
1 1 1
0.0795826 0.1189797 0.2711859
0.0793333 0.117115 0.2733102
0.0783801 0.0952439 0.3045612
0.2825506 0.0825603 0.2995788
0.7445961 0.2239687 0.2574276
0.9947579 0.8370439 0.7879828
1 1 0.9930421
1 1 1
1 1 1
0.1424631 0.279785 0.2904652
0.142174 0.2792168 0.2898775
0.1396163 0.2741902 0.2846781
0.2669169 0.2669154 0.2669376
0.7441415 0.3377005 0.200666
0.9943008 0.8425204 0.7888268
1 1 0.9930717
1 1 1
1 1 1
0.3763727 0.7075137 0.3872459
0.376231 0.7074189 0.3860234
0.3755999 0.7072466 0.3757055
0.3753383 0.7120245 0.2567728
0.7276521 0.7210523 0.1869892
0.9911844 0.8785176 0.7965751
1 1 0.9933308
1 1 1
1 1 1
0.8263228 0.9881624 0.7528782
0.8264072 0.9881584 0.7528997
0.82714 0.9881233 0.7530875
0.8332758 0.9878264 0.754729
0.8732382 0.9857654 0.7688634
0.9834045 0.9808408 0.8518647
1 1 0.9955618
1 1 1
1 1 1
0.9997313 1 0.9843976
0.9997333 1 0.9843983
0.9997504 1 0.9844047
0.9998994 1 0.9844603
1 1 0.9849427
1 1 0.988896
1 1 1
1 1 1
1 1 1
1 1 1
1 1 1
1 1 1
1 1 1
1 1 1
1 1 1
1 1 1
1 1 1
1 1 1
1 1 1
1 1 1
1 1 1
1 1 1
1 1 1
1 1 1
1 1 1
1 1 1
1 1 1
0.1888479 0.2330118 0.6688764
0.1890608 0.2323278 0.6701259
0.1910102 0.2256322 0.6811869
0.3079045 0.245734 0.6986624
0.7126476 0.3439995 0.7320395
0.9956734 0.8276429 0.844273
1 1 0.9930727
1 1 1
1 1 1
0.1892372 0.234449 0.6689281
0.1894486 0.2337758 0.6701685
0.1912957 0.2271254 0.6812046
0.3075097 0.2462046 0.6993264
0.7127396 0.344114 0.7321288
0.9956822 0.8276514 0.8442116
1 1 0.9930731
1 1 1
1 1 1
0.1927139 0.2467839 0.669618
0.1929124 0.2461945 0.6707804
0.1946454 0.2403939 0.6811247
0.3037836 0.2503897 0.7051591
0.7135403 0.3451122 0.7329063
0.9957587 0.8277257 0.8436716
1 1 0.9930762
1 1 1
1 1 1
0.2355095 0.3611039 0.6987377
0.235438 0.3605204 0.6991318
0.2348687 0.3553265 0.7027827
0.2368478 0.2947334 0.7581038
0.7203572 0.3537891 0.7395249
0.9964319 0.8283699 0.8386434
1 1 0.9931031
1 1 1
1 1 1
0.4159292 0.7155633 0.7291127
0.4158215 0.7154594 0.7290104
0.4148803 0.7145507 0.7281157
0.4065467 0.7063915 0.720082
0.7017499 0.7017482 0.7017733
0.9940066 0.8623288 0.8214833
1 1 0.9933406
1 1 1
1 1 1
0.7790029 0.988352 0.7909569
0.7789876 0.9883509 0.7908155
0.7788542 0.988341 0.7895711
0.7855706 0.9879511 0.785683
0.8450716 0.9850721 0.7829233
0.9805745 0.9779322 0.8435129
1 1 0.9954537
1 1 1
1 1 1
0.9982124 1 0.9837075
0.9982146 1 0.9837083
0.9982331 1 0.9837148
0.9983944 1 0.9837714
0.9997503 1 0.9842635
1 1 0.9883145
1 1 1
1 1 1
1 1 1
1 1 1
1 1 1
1 1 1
1 1 1
1 1 1
1 1 1
1 1 1
1 1 1
1 1 1
1 1 1
1 1 1
1 1 1
1 1 1
1 1 1
1 1 1
1 1 1
1 1 1
1 1 1
0.7048329 0.7471101 0.9960078
0.7051102 0.7471957 0.9960013
0.7075056 0.7479376 0.9959444
0.7267737 0.7541072 0.995473
0.8196238 0.7835122 0.9947139
0.9803071 0.8723522 0.9881413
1 1 1
1 1 1
1 1 1
0.7046855 0.7471397 0.9960544
0.7049632 0.7472253 0.9960478
0.7073625 0.7479675 0.9959906
0.7266587 0.754139 0.9955163
0.8196087 0.7835592 0.9947381
0.9803097 0.8723584 0.9881437
1 1 1
1 1 1
1 1 1
0.7033799 0.7473942 0.9964621
0.7036616 0.74748 0.9964551
0.7060946 0.7482247 0.9963947
0.725641 0.7544139 0.995895
0.8194753 0.78397 0.9949496
0.9803322 0.8724131 0.9881645
1 1 1
1 1 1
1 1 1
0.6903048 0.7493415 1
0.6906282 0.7494306 1
0.6934174 0.7502036 1
0.7155664 0.7565977 0.9992691
0.8181763 0.7875608 0.9967996
0.9805286 0.8728883 0.9883451
1 1 1
1 1 1
1 1 1
0.6822106 0.8198209 1
0.6822223 0.819776 1
0.6823263 0.8193829 1
0.683386 0.8158662 1
0.7766594 0.8107567 1
0.9821866 0.8769106 0.989869
1 1 1
1 1 1
1 1 1
0.8216403 0.9827464 0.9902977
0.8216314 0.9827435 0.9902949
0.8215543 0.9827178 0.9902709
0.8208791 0.9824923 0.9900602
0.814778 0.9804477 0.9881484
0.972768 0.9727676 0.9727735
1 1 1
1 1 1
1 1 1
0.9897045 1 0.9921332
0.9897041 1 0.9921299
0.9897003 1 0.9921005
0.9896672 1 0.9918424
0.9913597 1 0.9913824
1 1 0.9912188
1 1 1
1 1 1
1 1 1
1 1 1
1 1 1
1 1 1
1 1 1
1 1 1
1 1 1
1 1 1
1 1 1
1 1 1
1 1 1
1 1 1
1 1 1
1 1 1
1 1 1
1 1 1
1 1 1
1 1 1
1 1 1
0.9639472 0.9750099 1
0.9639574 0.9750141 1
0.9640465 0.9750507 1
0.9648151 0.9753669 1
0.9709393 0.9779532 1
0.9966024 0.9882787 1
1 1 1
1 1 1
1 1 1
0.9639413 0.9750095 1
0.9639515 0.9750137 1
0.9640406 0.9750502 1
0.9648094 0.9753665 1
0.9709348 0.9779531 1
0.9966021 0.98828 1
1 1 1
1 1 1
1 1 1
0.9638899 0.9750058 1
0.9639002 0.97501 1
0.9639894 0.9750465 1
0.9647595 0.9753631 1
0.9708949 0.9779518 1
0.9965992 0.9882913 1
1 1 1
1 1 1
1 1 1
0.9634352 0.9749715 1
0.9634456 0.9749757 1
0.9635362 0.9750126 1
0.9643183 0.9753316 1
0.9705427 0.9779392 1
0.9965738 0.9883896 1
1 1 1
1 1 1
1 1 1
0.9588989 0.974516 1
0.958911 0.9745206 1
0.9590162 0.9745606 1
0.9599229 0.9749067 1
0.9670663 0.9777138 1
0.9963205 0.9892494 1
1 1 1
1 1 1
1 1 1
0.9565857 0.9910452 1
0.9565857 0.9910438 1
0.9565858 0.9910317 1
0.9565867 0.9909263 1
0.9566338 0.9899882 1
0.9844802 0.9928272 1
1 1 1
1 1 1
1 1 1
1 1 1
1 1 1
1 1 1
1 1 1
1 1 1
0.9986639 1 1
1 1 1
1 1 1
1 1 1
1 1 1
1 1 1
1 1 1
1 1 1
1 1 1
1 1 1
1 1 1
1 1 1
1 1 1
1 1 1
1 1 1
1 1 1
1 1 1
1 1 1
1 1 1
1 1 1
1 1 1
1 1 1
1 1 1
1 1 1
1 1 1
1 1 1
1 1 1
1 1 1
1 1 1
1 1 1
1 1 1
1 1 1
1 1 1
1 1 1
1 1 1
1 1 1
1 1 1
1 1 1
1 1 1
1 1 1
1 1 1
1 1 1
1 1 1
1 1 1
1 1 1
1 1 1
1 1 1
1 1 1
1 1 1
1 1 1
1 1 1
1 1 1
1 1 1
1 1 1
1 1 1
1 1 1
1 1 1
1 1 1
1 1 1
1 1 1
1 1 1
1 1 1
1 1 1
1 1 1
1 1 1
1 1 1
1 1 1
1 1 1
1 1 1
1 1 1
1 1 1
1 1 1
1 1 1
1 1 1
1 1 1
1 1 1
1 1 1
1 1 1
1 1 1
1 1 1
1 1 1
1 1 1
1 1 1
1 1 1
1 1 1
1 1 1
1 1 1
1 1 1
1 1 1
1 1 1
1 1 1
1 1 1
1 1 1
1 1 1
1 1 1
1 1 1
1 1 1
1 1 1
1 1 1
1 1 1
1 1 1
1 1 1
1 1 1
1 1 1
1 1 1
1 1 1
1 1 1
1 1 1
1 1 1
1 1 1
1 1 1
1 1 1
1 1 1
1 1 1
1 1 1
1 1 1
1 1 1
1 1 1
1 1 1
1 1 1
1 1 1
1 1 1
1 1 1
1 1 1
1 1 1
1 1 1
1 1 1
1 1 1
1 1 1
1 1 1
1 1 1
1 1 1
1 1 1
1 1 1
1 1 1
1 1 1
1 1 1
1 1 1
1 1 1
1 1 1
1 1 1
1 1 1
1 1 1
1 1 1
1 1 1
1 1 1
1 1 1
1 1 1
1 1 1
1 1 1
1 1 1
1 1 1
1 1 1
1 1 1
1 1 1
1 1 1
1 1 1
1 1 1
1 1 1
1 1 1
1 1 1
1 1 1
1 1 1
1 1 1
1 1 1
1 1 1
1 1 1
1 1 1
1 1 1
1 1 1
1 1 1
1 1 1
1 1 1
1 1 1
1 1 1
1 1 1
1 1 1
1 1 1
1 1 1
1 1 1
1 1 1
1 1 1
1 1 1
1 1 1
