luts/AgX_Rec2100-HLG_p3_lim_2x.cube
TITLE "AgX_Formation Rec.2100 HLG P3 limited"
# AgX Rec.2100 HLG 1000 nits Formation P3 Limited LUT
# This LUT expects input to be E Gamut Log2 encoding from -10 stops to +15 stops
# But the end image formation will be from -10 to 10 encoded in Rec.2100-HLG
# Inset matrix can be generated in Rec.2020 with rotation [2.13976149, -1.22827335, -3.05174246],
# Inset: [0.32965205, 0.28051336, 0.12475368], outset = [0.32317438, 0.28325605, 0.0374326].
# HDR purity set to 0.5, HDR extra shoulder power multiplier is 1.2320236886890061
# calculated from power(200 / 100, log10(2.0))
# The image formed has 40% per-channel shifts
# HDR max nits is 200, Reference White nits is 100
LUT_3D_SIZE 57
0.0000181 0.0000132 0.0000503
0.0036129 0.0008901 0
0.0070968 0.0017483 0
0.0108976 0.0026893 0
0.0150817 0.0037631 0
0.0197158 0.0049849 0
0.0248706 0.0063834 0
0.0306282 0.0079898 0
0.037058 0.0098673 0
0.0442442 0.0121576 0
0.0525037 0.0147447 0
0.0619832 0.0176714 0
0.0728656 0.0209899 0
0.0853764 0.0247633 0
0.0997908 0.0290677 0
0.1164409 0.0339952 0
0.1357224 0.0396562 0
0.1580967 0.0461824 0
0.184084 0.0537282 0
0.2142363 0.0624693 0
0.2490723 0.0725965 0
0.288944 0.0843003 0
0.3337759 0.0977392 0
0.3826698 0.1130263 0
0.436139 0.1308357 0
0.4934381 0.1515942 0
0.5455519 0.1812241 0.0493777
0.5844217 0.2247366 0.1119173
0.6155176 0.2749743 0.1724142
0.6402776 0.3298589 0.2362665
0.6600085 0.3865956 0.3017131
0.6758113 0.4427141 0.3665541
0.688588 0.496273 0.4286878
0.699045 0.5426108 0.4866079
0.7077211 0.5791323 0.5368942
0.715019 0.6084096 0.5757402
0.7212372 0.6321776 0.6063446
0.7265962 0.6516711 0.6308916
0.7312604 0.6678022 0.6508513
0.7353537 0.6812606 0.6672657
0.7389712 0.6925755 0.6808985
0.742187 0.7021575 0.6923222
0.7450602 0.710328 0.701973
0.7476385 0.7173404 0.7101876
0.7499612 0.723396 0.7172288
0.7500558 0.7287574 0.7234054
0.749475 0.7330076 0.7284999
0.748965 0.7367047 0.7329176
0.7485124 0.7399587 0.736784
0.7481094 0.7428363 0.7401857
0.7477493 0.7453922 0.743193
0.7475383 0.7467843 0.7460722
0.7474387 0.7474387 0.7474387
0.7474387 0.7474387 0.7474387
0.7474387 0.7474387 0.7474387
0.7474387 0.7474387 0.7474387
0.7474387 0.7474387 0.7474387
0.0016234 0.0034849 0.001362
0.0037911 0.003696 0.0004727
0.0072457 0.0045816 0.0005089
0.0110201 0.0054653 0.0004886
0.0151822 0.0064015 0.0003876
0.0197968 0.0074413 0
0.0249345 0.0086317 0
0.0306778 0.010018 0
0.0370917 0.0116944 0
0.0443013 0.0137697 0
0.0525616 0.0161527 0
0.0620329 0.018892 0
0.072905 0.0220422 0
0.0854063 0.0256667 0
0.0998131 0.0298411 0
0.1164576 0.0346561 0
0.1357352 0.0402204 0
0.1581069 0.0466639 0
0.1840923 0.054139 0
0.2142431 0.0628198 0
0.2490777 0.0728956 0
0.2889478 0.0845553 0
0.3337777 0.097956 0
0.3826693 0.1132099 0
0.4361364 0.1309912 0
0.4934329 0.1517253 0
0.5455461 0.1813295 0.0493898
0.584417 0.2248145 0.1119248
0.6155139 0.2750301 0.1724203
0.6402749 0.3298977 0.2362714
0.6600066 0.386622 0.3017168
0.67581 0.4427316 0.3665568
0.6885871 0.4962844 0.4286897
0.6990445 0.5426172 0.4866091
0.7077207 0.5791359 0.536895
0.7150188 0.6084117 0.5757406
0.7212371 0.6321788 0.6063448
0.7265961 0.6516718 0.6308918
0.7312604 0.6678026 0.6508514
0.7353537 0.6812608 0.6672657
0.7389712 0.6925757 0.6808985
0.742187 0.7021576 0.6923222
0.7450602 0.7103281 0.701973
0.7476385 0.7173404 0.7101876
0.7499612 0.7233961 0.7172288
0.7500558 0.7287574 0.7234054
0.749475 0.7330077 0.7284999
0.748965 0.7367047 0.7329176
0.7485124 0.7399587 0.736784
0.7481094 0.7428363 0.7401857
0.7477493 0.7453923 0.743193
0.7475383 0.7467843 0.7460722
0.7474387 0.7474387 0.7474387
0.7474387 0.7474387 0.7474387
0.7474387 0.7474387 0.7474387
0.7474387 0.7474387 0.7474387
0.7474387 0.7474387 0.7474387
0.0031954 0.0068596 0.0026786
0.004666 0.0069799 0.0009374
0.0074171 0.0072389 0.000926
0.0111464 0.0081526 0.0009677
0.0152828 0.0090714 0.0009686
0.0198789 0.0100417 0.0009204
0.0250015 0.0111153 0.0008043
0.0307316 0.012346 0.0005631
0.0371405 0.013867 0
0.0443738 0.0157394 0
0.0526347 0.0179135 0
0.0620964 0.0204481 0
0.0729559 0.0234046 0
0.0854454 0.026851 0
0.0998425 0.0308648 0
0.1164798 0.0355373 0
0.1357523 0.0409769 0
0.1581204 0.0473122 0
0.1841034 0.0546939 0
0.2142522 0.0632944 0
0.249085 0.0733012 0
0.288953 0.0849014 0
0.3337802 0.0982506 0
0.3826686 0.1134597 0
0.4361328 0.1312027 0
0.493426 0.1519038 0
0.5455382 0.1814731 0.0494062
0.5844105 0.2249207 0.111935
0.6155088 0.2751061 0.1724286
0.6402712 0.3299506 0.2362781
0.660004 0.3866578 0.3017218
0.6758082 0.4427555 0.3665605
0.688586 0.4963 0.4286923
0.6990437 0.5426259 0.4866109
0.7077202 0.5791408 0.536896
0.7150185 0.6084145 0.5757412
0.7212369 0.6321805 0.6063452
0.726596 0.6516728 0.630892
0.7312603 0.6678032 0.6508515
0.7353537 0.6812612 0.6672658
0.7389711 0.6925759 0.6808986
0.7421869 0.7021578 0.6923222
0.7450601 0.7103282 0.701973
0.7476385 0.7173405 0.7101876
0.7499612 0.7233961 0.7172288
0.7500558 0.7287574 0.7234054
0.749475 0.7330077 0.7284999
0.748965 0.7367047 0.7329176
0.7485124 0.7399587 0.736784
0.7481094 0.7428363 0.7401857
0.7477493 0.7453923 0.743193
0.7475383 0.7467843 0.7460722
0.7474387 0.7474387 0.7474387
0.7474387 0.7474387 0.7474387
0.7474387 0.7474387 0.7474387
0.7474387 0.7474387 0.7474387
0.7474387 0.7474387 0.7474387
0.004917 0.0105563 0.0041108
0.0056574 0.010619 0.001444
0.0082906 0.0107852 0.0014324
0.0113269 0.0110656 0.0014158
0.0154076 0.0119905 0.0014535
0.0199714 0.012929 0.0014545
0.0250737 0.0139274 0.0014122
0.0307891 0.0150403 0.0013152
0.0372104 0.0164448 0.0011706
0.0444651 0.0181263 0.00092
0.0527257 0.0200912 0.0002561
0.062176 0.0224088 0
0.0730206 0.0251495 0
0.0854957 0.0283885 0
0.0998808 0.0322088 0
0.116509 0.0367047 0
0.135775 0.0419861 0
0.1581385 0.0481816 0
0.1841183 0.0554412 0
0.2142645 0.0639356 0
0.2490948 0.0738504 0
0.28896 0.0853709 0
0.3337835 0.0986507 0
0.3826677 0.1137991 0
0.4361279 0.1314904 0
0.4934165 0.1521468 0
0.5455274 0.1816684 0.0494285
0.5844016 0.2250652 0.111949
0.615502 0.2752096 0.17244
0.6402661 0.3300227 0.2362872
0.6600004 0.3867067 0.3017287
0.6758058 0.442788 0.3665655
0.6885844 0.4963213 0.4286958
0.6990427 0.5426377 0.4866133
0.7077196 0.5791474 0.5368974
0.7150181 0.6084184 0.575742
0.7212366 0.6321828 0.6063457
0.7265959 0.6516741 0.6308923
0.7312602 0.667804 0.6508517
0.7353536 0.6812617 0.6672659
0.7389711 0.6925762 0.6808986
0.7421869 0.702158 0.6923223
0.7450601 0.7103283 0.701973
0.7476385 0.7173406 0.7101876
0.7499612 0.7233961 0.7172288
0.7500558 0.7287575 0.7234054
0.749475 0.7330077 0.7284999
0.748965 0.7367048 0.7329176
0.7485124 0.7399587 0.736784
0.7481094 0.7428363 0.7401857
0.7477493 0.7453923 0.743193
0.7475383 0.7467843 0.7460722
0.7474387 0.7474387 0.7474387
0.7474387 0.7474387 0.7474387
0.7474387 0.7474387 0.7474387
0.7474387 0.7474387 0.7474387
0.7474387 0.7474387 0.7474387
0.0068192 0.0146421 0.005679
0.0067636 0.0146568 0.0020036
0.0092958 0.0147856 0.0019936
0.0121982 0.0149517 0.001974
0.0155989 0.0152518 0.0019517
0.020099 0.0161819 0.0019816
0.0251629 0.0171353 0.0019756
0.0308547 0.0181613 0.0019277
0.0373119 0.0194907 0.0018599
0.0445796 0.0209954 0.0017268
0.0528367 0.0227557 0.0014946
0.0622738 0.0248499 0.001068
0.0731013 0.0273578 0
0.0855593 0.0303632 0
0.0999299 0.0339569 0
0.1165469 0.0382392 0
0.1358047 0.0433239 0
0.1581626 0.049342 0
0.1841381 0.0564437 0
0.214281 0.0647991 0
0.2491081 0.0745923 0
0.2889694 0.0860066 0
0.333788 0.0991933 0
0.3826665 0.1142601 0
0.4361213 0.1318814 0
0.4934035 0.1524771 0
0.5455127 0.1819343 0.049459
0.5843896 0.225262 0.111968
0.6154926 0.2753505 0.1724555
0.6402592 0.3301208 0.2362997
0.6599956 0.3867733 0.3017381
0.6758025 0.4428322 0.3665723
0.6885822 0.4963502 0.4287006
0.6990413 0.5426538 0.4866165
0.7077187 0.5791566 0.5368993
0.7150175 0.6084236 0.5757431
0.7212362 0.6321859 0.6063463
0.7265956 0.651676 0.6308926
0.7312601 0.6678051 0.6508519
0.7353535 0.6812624 0.667266
0.738971 0.6925766 0.6808987
0.7421869 0.7021582 0.6923223
0.7450601 0.7103285 0.701973
0.7476385 0.7173407 0.7101876
0.7499611 0.7233962 0.7172288
0.7500558 0.7287575 0.7234054
0.749475 0.7330077 0.7284999
0.748965 0.7367048 0.7329176
0.7485124 0.7399588 0.736784
0.7481094 0.7428363 0.7401857
0.7477493 0.7453923 0.743193
0.7475383 0.7467843 0.7460722
0.7474387 0.7474387 0.7474387
0.7474387 0.7474387 0.7474387
0.7474387 0.7474387 0.7474387
0.7474387 0.7474387 0.7474387
0.7474387 0.7474387 0.7474387
0.0089292 0.0191759 0.0073987
0.0088504 0.0191802 0.0048296
0.0104212 0.019251 0.0026159
0.0132188 0.0193767 0.0025987
0.0164695 0.0195468 0.0025716
0.0203025 0.0198647 0.0025423
0.0252951 0.0207978 0.0025618
0.0310078 0.02186 0.002558
0.037462 0.0230708 0.0025231
0.0447257 0.0244161 0.0024373
0.052972 0.0259819 0.0022859
0.0623921 0.0278534 0.0020375
0.0731996 0.0301183 0.0016172
0.0856384 0.0328694 0.000687
0.099992 0.0362061 0
0.1165955 0.0402373 0
0.1358434 0.0450837 0
0.1581941 0.050881 0
0.1841644 0.057782 0
0.214303 0.0659578 0
0.2491258 0.0755917 0
0.2889821 0.0868654 0
0.333794 0.099928 0
0.3826647 0.1148853 0
0.4361122 0.1324124 0
0.4933859 0.1529261 0
0.5454927 0.1822959 0.0495004
0.5843731 0.2255298 0.1119939
0.6154799 0.2755425 0.1724766
0.6402498 0.3302545 0.2363166
0.659989 0.386864 0.301751
0.675798 0.4428925 0.3665816
0.6885792 0.4963897 0.4287071
0.6990393 0.5426757 0.486621
0.7077174 0.579169 0.5369019
0.7150167 0.6084308 0.5757446
0.7212357 0.6321901 0.6063472
0.7265953 0.6516785 0.6308932
0.7312599 0.6678066 0.6508522
0.7353534 0.6812633 0.6672662
0.738971 0.6925772 0.6808988
0.7421868 0.7021586 0.6923224
0.7450601 0.7103287 0.7019731
0.7476384 0.7173408 0.7101876
0.7499611 0.7233963 0.7172288
0.7500558 0.7287576 0.7234054
0.749475 0.7330077 0.7284999
0.748965 0.7367048 0.7329176
0.7485124 0.7399588 0.736784
0.7481094 0.7428363 0.7401857
0.7477493 0.7453923 0.743193
0.7475383 0.7467843 0.7460722
0.7474387 0.7474387 0.7474387
0.7474387 0.7474387 0.7474387
0.7474387 0.7474387 0.7474387
0.7474387 0.7474387 0.7474387
0.7474387 0.7474387 0.7474387
0.0112768 0.0242224 0.0092861
0.0112073 0.0242214 0.0072265
0.0117108 0.0242452 0.0033093
0.014371 0.0243396 0.0032936
0.0175078 0.0244655 0.0032693
0.021175 0.0246417 0.0032344
0.0255875 0.0250523 0.0032066
0.0312874 0.0261457 0.0032344
0.0376869 0.0272553 0.0032216
0.0449177 0.0284616 0.0031649
0.0531387 0.0298491 0.0030559
0.0625346 0.0315064 0.0028779
0.073318 0.0335268 0.0025979
0.0857342 0.0360105 0.0021442
0.1000686 0.039066 0.0012756
0.1166567 0.0428116 0
0.1358928 0.0473773 0
0.1582349 0.0529065 0
0.1841989 0.0595577 0
0.2143321 0.067505 0
0.2491494 0.0769329 0
0.2889989 0.0880223 0
0.3338019 0.1009207 0
0.3826621 0.1157318 0
0.4360997 0.1331325 0
0.4933618 0.1535358 0
0.5454654 0.1827874 0.0495568
0.5843508 0.2258942 0.1120292
0.6154625 0.2758037 0.1725054
0.640237 0.3304364 0.2363397
0.65998 0.3869875 0.3017684
0.6757919 0.4429746 0.3665943
0.6885752 0.4964434 0.428716
0.6990367 0.5427056 0.486627
0.7077158 0.5791859 0.5369054
0.7150157 0.6084406 0.5757466
0.7212351 0.6321958 0.6063483
0.7265949 0.6516819 0.6308939
0.7312596 0.6678087 0.6508526
0.7353532 0.6812646 0.6672665
0.7389709 0.692578 0.680899
0.7421868 0.7021591 0.6923225
0.74506 0.710329 0.7019731
0.7476384 0.717341 0.7101877
0.7499611 0.7233964 0.7172288
0.7500558 0.7287576 0.7234054
0.749475 0.7330078 0.7284999
0.748965 0.7367048 0.7329176
0.7485124 0.7399588 0.736784
0.7481094 0.7428363 0.7401857
0.7477493 0.7453923 0.743193
0.7475383 0.7467843 0.7460722
0.7474387 0.7474387 0.7474387
0.7474387 0.7474387 0.7474387
0.7474387 0.7474387 0.7474387
0.7474387 0.7474387 0.7474387
0.7474387 0.7474387 0.7474387
0.0138969 0.0298572 0.0113602
0.0138352 0.0298534 0.0096248
0.0137379 0.0298538 0.0058124
0.0157072 0.029913 0.00407
0.0187152 0.0300215 0.0040501
0.0223819 0.0302585 0.0040324
0.0266755 0.0305856 0.0040074
0.0317415 0.0311013 0.0039814
0.0380243 0.0321226 0.0039849
0.04518 0.0332106 0.0039493
0.0533502 0.0344413 0.0038688
0.062708 0.0359009 0.0037327
0.07346 0.0376848 0.0035213
0.0858493 0.0398982 0.0031987
0.1001613 0.0426571 0.0026895
0.1167318 0.0460894 0.0017692
0.1359548 0.0503353 0
0.1582871 0.0555482 0
0.1842436 0.0618958 0
0.2143703 0.0695584 0
0.2491805 0.0787241 0
0.2890213 0.0895751 0
0.3338124 0.102258 0
0.3826584 0.1168755 0
0.4360827 0.1341074 0
0.493329 0.1543625 0
0.5454283 0.1834548 0.0496334
0.5843203 0.2263895 0.1120772
0.6154389 0.2761591 0.1725446
0.6402196 0.3306841 0.2363711
0.6599677 0.3871557 0.3017922
0.6757836 0.4430865 0.3666116
0.6885697 0.4965166 0.4287281
0.6990332 0.5427462 0.4866353
0.7077135 0.5792089 0.5369103
0.7150142 0.6084539 0.5757493
0.7212342 0.6322037 0.6063499
0.7265943 0.6516866 0.6308948
0.7312593 0.6678115 0.6508532
0.735353 0.6812663 0.6672668
0.7389707 0.692579 0.6808992
0.7421867 0.7021597 0.6923226
0.74506 0.7103294 0.7019732
0.7476384 0.7173413 0.7101877
0.7499611 0.7233966 0.7172289
0.7500558 0.7287577 0.7234054
0.749475 0.7330079 0.7284999
0.748965 0.7367049 0.7329177
0.7485124 0.7399588 0.7367841
0.7481094 0.7428363 0.7401857
0.7477493 0.7453923 0.743193
0.7475383 0.7467843 0.7460722
0.7474387 0.7474387 0.7474387
0.7474387 0.7474387 0.7474387
0.7474387 0.7474387 0.7474387
0.7474387 0.7474387 0.7474387
0.7474387 0.7474387 0.7474387
0.0168596 0.0362378 0.0135942
0.0168145 0.0362573 0.012044
0.0167452 0.0362887 0.0091486
0.0175452 0.0363607 0.0049632
0.0204183 0.036492 0.0049513
0.0238695 0.0366698 0.0049337
0.027971 0.0369128 0.0049088
0.0328038 0.0372468 0.0048743
0.0385232 0.0377635 0.0048346
0.0455503 0.038751 0.0048156
0.0536312 0.0398486 0.004757
0.0629264 0.0411339 0.0046506
0.0736326 0.0426991 0.0044833
0.0859872 0.0446508 0.0042323
0.1002724 0.0471096 0.0038571
0.1168225 0.050211 0.0032746
0.1360308 0.0541054 0.0022526
0.1583526 0.0589578 0
0.1843006 0.064947 0
0.2144196 0.0722632 0
0.2492212 0.0811019 0
0.2890506 0.0916492 0
0.3338259 0.1040529 0
0.3826531 0.1184162 0
0.4360593 0.1354245 0
0.4932843 0.1554817 0
0.5453778 0.1843599 0.0497376
0.5842789 0.2270623 0.1121426
0.6154068 0.2766422 0.172598
0.6401959 0.331021 0.236414
0.6599511 0.3873845 0.3018247
0.6757723 0.4432387 0.3666351
0.6885622 0.4966162 0.4287446
0.6990283 0.5428016 0.4866465
0.7077104 0.5792402 0.5369168
0.7150123 0.608472 0.5757531
0.7212329 0.6322143 0.6063521
0.7265936 0.6516929 0.6308961
0.7312588 0.6678154 0.650854
0.7353527 0.6812686 0.6672673
0.7389705 0.6925805 0.6808995
0.7421866 0.7021606 0.6923228
0.7450599 0.7103299 0.7019733
0.7476383 0.7173416 0.7101878
0.7499611 0.7233968 0.7172289
0.7500558 0.7287579 0.7234055
0.749475 0.7330079 0.7284999
0.748965 0.7367049 0.7329177
0.7485124 0.7399588 0.7367841
0.7481094 0.7428364 0.7401857
0.7477493 0.7453923 0.743193
0.7475383 0.7467843 0.7460722
0.7474387 0.7474387 0.7474387
0.7474387 0.7474387 0.7474387
0.7474387 0.7474387 0.7474387
0.7474387 0.7474387 0.7474387
0.7474387 0.7474387 0.7474387
0.020252 0.0435609 0.0159386
0.0202111 0.0435772 0.0145373
0.0201517 0.043604 0.0121686
0.0200646 0.0436531 0.007191
0.022371 0.0437503 0.0059591
0.0255866 0.0438841 0.0059422
0.0294658 0.0440661 0.0059182
0.0340973 0.0443156 0.005885
0.0395794 0.0446586 0.0058396
0.0460806 0.0451849 0.005785
0.0540215 0.0461716 0.0057444
0.0632161 0.0473097 0.0056619
0.0738513 0.0486826 0.0055273
0.0861558 0.0503928 0.0053248
0.1004057 0.0525614 0.0050277
0.1169312 0.055328 0.0045895
0.1361223 0.0588513 0.0039166
0.1584325 0.0633072 0.0027556
0.184372 0.0688874 0
0.2144824 0.0757944 0
0.2492736 0.0842349 0
0.2890886 0.0944028 0
0.3338431 0.1064503 0
0.3826451 0.120484 0
0.4360271 0.1371987 0
0.4932233 0.1569934 0
0.545309 0.1855855 0.0498792
0.5842225 0.2279752 0.1122317
0.6153631 0.2772987 0.1726708
0.6401637 0.3314792 0.2364724
0.6599283 0.3876959 0.3018688
0.6757568 0.443446 0.3666672
0.688552 0.4967519 0.4287671
0.6990217 0.5428771 0.4866618
0.7077061 0.5792829 0.5369258
0.7150096 0.6084967 0.5757582
0.7212312 0.6322289 0.6063551
0.7265925 0.6517016 0.6308979
0.7312581 0.6678206 0.650855
0.7353523 0.6812718 0.6672679
0.7389703 0.6925824 0.6808998
0.7421864 0.7021618 0.692323
0.7450598 0.7103307 0.7019735
0.7476383 0.7173421 0.7101879
0.749961 0.7233971 0.717229
0.7500557 0.7287581 0.7234055
0.749475 0.7330081 0.7285
0.7489649 0.736705 0.7329177
0.7485124 0.7399589 0.7367841
0.7481094 0.7428364 0.7401857
0.7477493 0.7453923 0.743193
0.7475383 0.7467843 0.7460722
0.7474387 0.7474387 0.7474387
0.7474387 0.7474387 0.7474387
0.7474387 0.7474387 0.7474387
0.7474387 0.7474387 0.7474387
0.7474387 0.7474387 0.7474387
0.0240609 0.0517809 0.0185929
0.0240258 0.0517968 0.0173523
0.023976 0.051822 0.0153874
0.0239051 0.0518648 0.0119196
0.0246452 0.051939 0.0070937
0.0276092 0.0520403 0.0070777
0.0312393 0.0521778 0.0070553
0.0356337 0.0523657 0.0070242
0.0408987 0.0526241 0.0069817
0.0471513 0.0529809 0.0069241
0.0545784 0.0535272 0.0068533
0.0636209 0.0545451 0.0067913
0.0741455 0.0557572 0.0066839
0.0863728 0.0572561 0.0065186
0.1005707 0.0591578 0.0062764
0.1170623 0.0616016 0.0059263
0.1362321 0.0647499 0.0054141
0.1585287 0.0687874 0.0046329
0.1844589 0.0739175 0.0033003
0.2145609 0.0803572 0
0.2493399 0.0883265 0
0.2891369 0.0980317 0
0.3338643 0.1096335 0
0.3826331 0.1232459 0
0.4359827 0.1395796 0
0.4931401 0.1590293 0
0.5452155 0.1872412 0.0500711
0.5841459 0.2292119 0.112353
0.6153037 0.2781896 0.17277
0.6401199 0.3321016 0.2365519
0.6598975 0.3881194 0.3019291
0.6757358 0.4437279 0.366711
0.6885381 0.4969365 0.4287977
0.6990127 0.5429797 0.4866827
0.7077004 0.5793411 0.536938
0.7150059 0.6085303 0.5757652
0.721229 0.6322486 0.6063592
0.7265911 0.6517134 0.6309003
0.7312572 0.6678277 0.6508565
0.7353517 0.6812762 0.6672688
0.7389699 0.6925851 0.6809004
0.7421862 0.7021635 0.6923233
0.7450596 0.7103317 0.7019737
0.7476382 0.7173427 0.710188
0.749961 0.7233975 0.7172291
0.7500557 0.7287583 0.7234055
0.749475 0.7330082 0.7285
0.7489649 0.7367051 0.7329177
0.7485124 0.739959 0.7367841
0.7481094 0.7428364 0.7401857
0.7477493 0.7453923 0.743193
0.7475383 0.7467843 0.7460722
0.7474387 0.7474387 0.7474387
0.7474387 0.7474387 0.7474387
0.7474387 0.7474387 0.7474387
0.7474387 0.7474387 0.7474387
0.7474387 0.7474387 0.7474387
0.0283665 0.0610696 0.0216269
0.0283373 0.0610862 0.0205441
0.0282965 0.0611114 0.0189029
0.0282393 0.0611514 0.0162538
0.0281589 0.0612179 0.0112894
0.0300217 0.0613034 0.0083635
0.0333805 0.0614085 0.008343
0.0375051 0.0615517 0.0083147
0.0425117 0.0617484 0.0082758
0.0485263 0.0620201 0.008223
0.0556871 0.0623971 0.0081517
0.0642058 0.0629762 0.0080632
0.074565 0.0640595 0.0079799
0.086672 0.0653837 0.0078463
0.1007878 0.0670536 0.0076475
0.1172268 0.0692021 0.0073607
0.1363653 0.0719898 0.0069496
0.1586443 0.0756051 0.0063514
0.1845636 0.0802602 0.005444
0.2146559 0.0861851 0.003912
0.2494221 0.0936153 0
0.2891969 0.1027717 0
0.3338895 0.1138285 0
0.3826146 0.1269126 0
0.4359212 0.1427592 0
0.4930267 0.1617604 0
0.5450885 0.1894717 0.0503311
0.5840419 0.2308841 0.1125181
0.615223 0.2793968 0.1729052
0.6400603 0.3329465 0.2366604
0.6598555 0.3886947 0.3020112
0.6757073 0.4441113 0.3667706
0.6885192 0.4971878 0.4288395
0.6990004 0.5431194 0.4867111
0.7076925 0.5794202 0.5369546
0.715001 0.6085762 0.5757747
0.7212258 0.6322756 0.6063647
0.7265891 0.6517295 0.6309036
0.731256 0.6678374 0.6508584
0.7353509 0.6812821 0.66727
0.7389694 0.6925887 0.6809011
0.7421859 0.7021658 0.6923238
0.7450595 0.7103332 0.701974
0.747638 0.7173436 0.7101882
0.7499609 0.7233981 0.7172292
0.7500557 0.7287587 0.7234056
0.7494749 0.7330085 0.7285
0.7489649 0.7367052 0.7329177
0.7485124 0.739959 0.7367841
0.7481094 0.7428365 0.7401857
0.7477493 0.7453924 0.743193
0.7475383 0.7467843 0.7460722
0.7474387 0.7474387 0.7474387
0.7474387 0.7474387 0.7474387
0.7474387 0.7474387 0.7474387
0.7474387 0.7474387 0.7474387
0.7474387 0.7474387 0.7474387
0.0332628 0.0716293 0.0251167
0.0332391 0.0716469 0.0241812
0.0332063 0.0716727 0.0228057
0.0331609 0.0717114 0.0207019
0.0330976 0.0717716 0.0172356
0.033009 0.0718695 0.0102073
0.035989 0.0719527 0.0098088
0.0398162 0.0720636 0.0097834
0.0445258 0.0722156 0.0097486
0.050255 0.0724252 0.0097012
0.0571523 0.0727161 0.0096369
0.0653809 0.0731219 0.0095505
0.0751847 0.0737491 0.0094426
0.0871112 0.0749365 0.0093378
0.1010967 0.0764174 0.0091766
0.1174492 0.0783115 0.0089409
0.1365352 0.0807711 0.008604
0.1587853 0.0839812 0.0081232
0.1846891 0.0881573 0.0074262
0.2147698 0.0935382 0.0063753
0.2495204 0.1003733 0.0046275
0.2892694 0.1089 0
0.3339177 0.119308 0
0.3825862 0.1317443 0
0.4358359 0.1469792 0
0.492872 0.165406 0
0.544916 0.1924648 0.0506824
0.5839007 0.2331387 0.1127426
0.6151135 0.2810297 0.1730893
0.6399795 0.3340915 0.2368081
0.6597985 0.3894755 0.3021231
0.6756685 0.4446322 0.3668518
0.6884935 0.4975294 0.4288964
0.6989837 0.5433093 0.4867499
0.7076819 0.5795279 0.5369772
0.7149942 0.6086385 0.5757877
0.7212216 0.6323123 0.6063723
0.7265864 0.6517514 0.630908
0.7312543 0.6678506 0.6508611
0.7353499 0.6812901 0.6672716
0.7389688 0.6925937 0.6809021
0.7421854 0.7021688 0.6923244
0.7450592 0.7103351 0.7019743
0.7476379 0.7173449 0.7101884
0.7499608 0.7233989 0.7172293
0.7500556 0.7287592 0.7234057
0.7494749 0.7330088 0.7285001
0.7489649 0.7367054 0.7329178
0.7485124 0.7399592 0.7367841
0.7481094 0.7428365 0.7401857
0.7477493 0.7453924 0.743193
0.7475383 0.7467843 0.7460722
0.7474387 0.7474387 0.7474387
0.7474387 0.7474387 0.7474387
0.7474387 0.7474387 0.7474387
0.7474387 0.7474387 0.7474387
0.7474387 0.7474387 0.7474387
0.0388613 0.0837 0.0291509
0.0388426 0.0837185 0.0283486
0.0388167 0.0837448 0.0271938
0.0387811 0.0837829 0.0254883
0.0387319 0.0838396 0.022858
0.0386636 0.0839263 0.0184353
0.0391745 0.0840461 0.0114855
0.0426845 0.0841336 0.0114631
0.0470643 0.0842534 0.0114325
0.0524632 0.084418 0.0113906
0.0590426 0.084646 0.0113337
0.0669776 0.0849638 0.0112568
0.076461 0.0854092 0.0111536
0.0877774 0.0861032 0.0110245
0.1015649 0.0874394 0.0108979
0.1177762 0.0891288 0.0107072
0.1367707 0.091308 0.0104309
0.1589676 0.094151 0.0100374
0.1848428 0.0978679 0.0094771
0.2149057 0.1026994 0.0086684
0.2496365 0.1089036 0.0074611
0.2893527 0.1167321 0.005505
0.3339461 0.1263918 0
0.3825419 0.138054 0
0.4357171 0.1525378 0
0.4926612 0.1702414 0
0.5446822 0.1964614 0.0511561
0.5837094 0.2361678 0.1130479
0.6149652 0.2832324 0.1733401
0.63987 0.3356405 0.2370095
0.6597212 0.3905339 0.3022756
0.6756158 0.4453393 0.3669626
0.6884586 0.4979935 0.428974
0.698961 0.5435674 0.4868027
0.7076673 0.5796744 0.537008
0.714985 0.6087233 0.5758053
0.7212158 0.6323622 0.6063826
0.7265828 0.6517812 0.6309141
0.731252 0.6678686 0.6508647
0.7353484 0.6813011 0.6672738
0.7389679 0.6926005 0.6809034
0.7421849 0.702173 0.6923252
0.7450588 0.7103377 0.7019748
0.7476376 0.7173465 0.7101887
0.7499606 0.7233999 0.7172295
0.7500555 0.7287599 0.7234058
0.7494749 0.7330092 0.7285002
0.7489649 0.7367057 0.7329178
0.7485123 0.7399593 0.7367842
0.7481094 0.7428366 0.7401857
0.7477492 0.7453925 0.7431931
0.7475383 0.7467843 0.7460723
0.7474387 0.7474387 0.7474387
0.7474387 0.7474387 0.7474387
0.7474387 0.7474387 0.7474387
0.7474387 0.7474387 0.7474387
0.7474387 0.7474387 0.7474387
0.0452947 0.0975671 0.033834
0.0452802 0.0975861 0.0331497
0.0452602 0.0976127 0.0321794
0.0452329 0.0976504 0.0307799
0.0451952 0.0977048 0.0287052
0.0451431 0.0977846 0.0254821
0.0450709 0.097905 0.0199628
0.0462403 0.098043 0.0133932
0.0502659 0.0981395 0.0133665
0.0552959 0.0982718 0.0133301
0.0615055 0.0984542 0.0132804
0.0690844 0.0987075 0.0132131
0.0782392 0.0990617 0.0131222
0.0891976 0.09956 0.0130003
0.102295 0.1003434 0.0128477
0.1182873 0.1018796 0.0126989
0.1371271 0.1038358 0.0124765
0.1592251 0.1063667 0.012155
0.1850428 0.1096678 0.011697
0.2150716 0.1139714 0.0110466
0.2497727 0.1195356 0.0101144
0.2894463 0.1266194 0.0087487
0.3339681 0.1354434 0.0066393
0.3824728 0.1462082 0.002465
0.4355512 0.1597927 0
0.4923742 0.1766049 0
0.544366 0.2017641 0.0517926
0.583451 0.240218 0.1134627
0.6147649 0.2861934 0.1736819
0.6397219 0.3377304 0.2372838
0.6596165 0.3919658 0.3024835
0.6755444 0.4462977 0.3671136
