luts/AgX_Rec2100-HLG_p3_lim_1.5x.cube
TITLE "AgX_Formation Rec.2100 HLG P3 limited"
# AgX Rec.2100 HLG 1000 nits Formation P3 Limited LUT
# This LUT expects input to be E Gamut Log2 encoding from -10 stops to +15 stops
# But the end image formation will be from -10 to 10 encoded in Rec.2100-HLG
# Inset matrix can be generated in Rec.2020 with rotation [2.13976149, -1.22827335, -3.05174246],
# Inset: [0.32965205, 0.28051336, 0.12475368], outset = [0.32317438, 0.28325605, 0.0374326].
# HDR purity set to 0.5, HDR extra shoulder power multiplier is 1.1298186800717998
# calculated from power(150 / 100, log10(2.0))
# The image formed has 40% per-channel shifts
# HDR max nits is 150, Reference White nits is 100
LUT_3D_SIZE 9
0.0000049 0.0000022 0.0000187
0.0304615 0.0079293 0
0.0996921 0.0290344 0
0.2888112 0.0842628 0
0.591684 0.2725036 0.1787395
0.6716851 0.5713897 0.5413065
0.6978634 0.6637528 0.6556821
0.7003503 0.6949744 0.6922832
0.6996669 0.6996669 0.6996669
0.0138216 0.0296941 0.0113128
0.0316041 0.0309658 0.003964
0.1000736 0.0426157 0.0026859
0.2888895 0.0895355 0
0.5915933 0.2736037 0.1788664
0.6716804 0.5714306 0.5413149
0.6978633 0.6637542 0.6556823
0.7003503 0.6949745 0.6922832
0.6996669 0.6996669 0.6996669
0.0452431 0.0974555 0.0338007
0.0462065 0.0979801 0.0133846
0.1022407 0.1002901 0.0128409
0.2893215 0.1265663 0.0087453
0.590817 0.2829153 0.1799747
0.6716398 0.5717859 0.5413886
0.6978616 0.6637657 0.6556844
0.7003502 0.6949749 0.6922833
0.6996669 0.6996669 0.6996669
0.1295287 0.2790275 0.0965407
0.1295286 0.2793775 0.0917664
0.1361031 0.2821309 0.038511
0.2927287 0.287255 0.036782
0.5850818 0.3478935 0.1898419
0.6712962 0.574781 0.5420326
0.6978476 0.6638657 0.6557029
0.7003497 0.6949789 0.6922842
0.6996669 0.6996669 0.6996669
0.2708298 0.5757977 0.1492198
0.2708333 0.575904 0.1468386
0.2796198 0.5756158 0.14679
0.3458545 0.5727284 0.160166
0.566828 0.5615468 0.2699371
0.6689001 0.5951751 0.5475711
0.6977288 0.6647141 0.6558643
0.7003453 0.6950131 0.6922924
0.6996669 0.6996669 0.6996669
0.5623451 0.668131 0.5166076
0.5623938 0.6681272 0.5166249
0.5628171 0.6680943 0.5167759
0.5663788 0.6678158 0.5180844
0.5903252 0.6658569 0.5287376
0.6614933 0.6596666 0.5802377
0.696895 0.6707614 0.6572705
0.7003075 0.6953033 0.6923638
0.6996669 0.6996669 0.6996669
0.6607306 0.69683 0.6488892
0.6607322 0.6968299 0.6488897
0.6607459 0.6968283 0.648894
0.6608648 0.6968149 0.6489316
0.6618723 0.696701 0.6492577
0.668995 0.6959075 0.6519493
0.6942125 0.6934842 0.6660969
0.7000858 0.6969759 0.6930778
0.6996669 0.6996669 0.6996669
0.6940746 0.7000203 0.6900867
0.6940746 0.7000203 0.6900867
0.6940752 0.7000203 0.6900869
0.6940799 0.70002 0.6900886
0.6941206 0.700018 0.6901032
0.6944653 0.7000012 0.6902312
0.6963454 0.6999041 0.6914004
0.6996819 0.6996715 0.6982749
0.6996669 0.6996669 0.6996669
0.6996669 0.6996669 0.6996669
0.6996669 0.6996669 0.6996669
0.6996669 0.6996669 0.6996669
0.6996669 0.6996669 0.6996669
0.6996669 0.6996669 0.6996669
0.6996669 0.6996669 0.6996669
0.6996669 0.6996669 0.6996669
0.6996669 0.6996669 0.6996669
0.6996669 0.6996669 0.6996669
0.0076276 0.0087903 0.0303009
0.0290862 0.0077919 0.0309921
0.0989888 0.0245417 0.0278245
0.2897011 0.0788433 0
0.5918312 0.2715194 0.1787598
0.6716914 0.5713555 0.5413068
0.6978637 0.6637518 0.6556821
0.7003503 0.6949744 0.6922832
0.6996669 0.6996669 0.6996669
0.015187 0.029804 0.0310613
0.0285777 0.0285775 0.0285808
0.1029493 0.0301134 0
0.2897152 0.0845296 0
0.5917395 0.2726267 0.1788855
0.6716867 0.5713964 0.5413152
0.6978635 0.6637531 0.6556824
0.7003503 0.6949744 0.6922832
0.6996669 0.6996669 0.6996669
0.04503 0.0959854 0.0450404
0.044611 0.0961032 0.0332068
0.099407 0.0975106 0.012485
0.289692 0.1234491 0.0078013
0.5909549 0.2819975 0.1799841
0.671646 0.5717519 0.5413888
0.6978619 0.6637646 0.6556845
0.7003502 0.6949749 0.6922833
0.6996669 0.6996669 0.6996669
0.129276 0.2781402 0.1008012
0.1292743 0.2784792 0.0963541
0.132864 0.2814808 0.0384506
0.2918772 0.2864172 0.0366746
0.5851617 0.3473084 0.1897849
0.671302 0.5747492 0.5420321
0.6978479 0.6638646 0.6557029
0.7003497 0.6949788 0.6922842
0.6996669 0.6996669 0.6996669
0.2707998 0.5756462 0.1515744
0.2708034 0.5757523 0.1492371
0.2785056 0.5756182 0.1465387
0.3451363 0.5727163 0.1599072
0.5667714 0.5614882 0.2697893
0.6689035 0.595155 0.5475672
0.697729 0.6647131 0.6558643
0.7003453 0.6950131 0.6922924
0.6996669 0.6996669 0.6996669
0.5622918 0.6681336 0.5165837
0.5623406 0.6681298 0.5166011
0.5627643 0.6680969 0.516752
0.5663296 0.6678182 0.518061
0.5902957 0.6658578 0.5287179
0.6614914 0.6596646 0.5802318
0.6968951 0.6707607 0.6572704
0.7003075 0.6953032 0.6923638
0.6996669 0.6996669 0.6996669
0.6607289 0.6968302 0.6488885
0.6607305 0.69683 0.648889
0.6607441 0.6968284 0.6488933
0.6608631 0.696815 0.6489309
0.6618707 0.6967011 0.649257
0.6689939 0.6959075 0.6519487
0.6942124 0.6934841 0.6660967
0.7000858 0.6969759 0.6930778
0.6996669 0.6996669 0.6996669
0.6940745 0.7000203 0.6900866
0.6940746 0.7000203 0.6900866
0.6940751 0.7000203 0.6900868
0.6940798 0.70002 0.6900885
0.6941205 0.7000181 0.6901032
0.6944652 0.7000012 0.6902311
0.6963454 0.6999041 0.6914004
0.6996819 0.6996715 0.6982749
0.6996669 0.6996669 0.6996669
0.6996669 0.6996669 0.6996669
0.6996669 0.6996669 0.6996669
0.6996669 0.6996669 0.6996669
0.6996669 0.6996669 0.6996669
0.6996669 0.6996669 0.6996669
0.6996669 0.6996669 0.6996669
0.6996669 0.6996669 0.6996669
0.6996669 0.6996669 0.6996669
0.6996669 0.6996669 0.6996669
0.0223183 0.026963 0.0869469
0.0287154 0.0200472 0.0990781
0.0963846 0.0258062 0.1023295
0.2857775 0.0709134 0.0857826
0.5931828 0.2625975 0.179032
0.6717462 0.5710554 0.5413098
0.697866 0.6637422 0.6556823
0.7003503 0.694974 0.6922832
0.6996669 0.6996669 0.6996669
0.0270043 0.0396811 0.0933928
0.0265994 0.0322324 0.103486
0.0979729 0.0262314 0.1040166
0.2869819 0.07115 0.0806948
0.593082 0.2637724 0.179147
0.6717415 0.5710966 0.5413182
0.6978658 0.6637435 0.6556825
0.7003503 0.6949741 0.6922832
0.6996669 0.6996669 0.6996669
0.0495751 0.0973539 0.1011101
0.0486446 0.0955264 0.0992128
0.0926718 0.0926713 0.0926794
0.2993255 0.0876297 0
0.5922204 0.2736972 0.1801547
0.6717004 0.5714545 0.5413911
0.6978642 0.663755 0.6556847
0.7003503 0.6949745 0.6922833
0.6996669 0.6996669 0.6996669
0.1282982 0.2731942 0.1310868
0.1280907 0.2730365 0.1281206
0.1276888 0.2750824 0.0949243
0.2842794 0.2789435 0.0357173
0.585897 0.3420779 0.1893378
0.6713529 0.5744708 0.5420289
0.6978502 0.6638551 0.6557031
0.7003498 0.6949785 0.6922842
0.6996669 0.6996669 0.6996669
0.2705379 0.5743259 0.1705921
0.2705416 0.5744307 0.1685686
0.2705721 0.5753552 0.1493876
0.3386927 0.5726186 0.1576432
0.5662741 0.5609744 0.2684947
0.6689326 0.5949792 0.5475334
0.6977312 0.6647041 0.6558643
0.7003453 0.6950127 0.6922924
0.6996669 0.6996669 0.6996669
0.5618242 0.6681569 0.5163751
0.5618735 0.6681531 0.5163924
0.5623012 0.66812 0.5165438
0.5658987 0.667839 0.5178563
0.5900375 0.6658658 0.5285455
0.6614745 0.6596471 0.5801801
0.6968964 0.6707545 0.6572694
0.7003075 0.6953029 0.6923638
0.6996669 0.6996669 0.6996669
0.6607139 0.6968313 0.6488826
0.6607155 0.6968311 0.6488831
0.6607291 0.6968295 0.6488874
0.6608482 0.6968161 0.648925
0.6618566 0.6967021 0.6492512
0.6689847 0.6959079 0.6519437
0.6942116 0.6934832 0.6660949
0.7000858 0.6969758 0.6930777
0.6996669 0.6996669 0.6996669
0.6940739 0.7000203 0.6900864
0.694074 0.7000203 0.6900864
0.6940745 0.7000203 0.6900866
0.6940792 0.7000201 0.6900883
0.6941199 0.7000181 0.6901029
0.6944647 0.7000012 0.6902309
0.6963452 0.6999041 0.6914002
0.6996819 0.6996715 0.6982748
0.6996669 0.6996669 0.6996669
0.6996669 0.6996669 0.6996669
0.6996669 0.6996669 0.6996669
0.6996669 0.6996669 0.6996669
0.6996669 0.6996669 0.6996669
0.6996669 0.6996669 0.6996669
0.6996669 0.6996669 0.6996669
0.6996669 0.6996669 0.6996669
0.6996669 0.6996669 0.6996669
0.6996669 0.6996669 0.6996669
0.0648568 0.0788185 0.2520031
0.0652626 0.0764241 0.2576229
0.0950409 0.0715999 0.2785363
0.2777436 0.0809083 0.2945107
0.5951339 0.2431787 0.2721413
0.6722504 0.5683403 0.5413904
0.6978863 0.6636586 0.6556841
0.7003507 0.6949708 0.6922831
0.6996669 0.6996669 0.6996669
0.0659914 0.0827988 0.2525823
0.0663604 0.0806434 0.2578487
0.0929858 0.0725323 0.2822698
0.2782439 0.0810698 0.2950385
0.5952542 0.2432106 0.2710712
0.6722452 0.568384 0.541398
0.6978861 0.6636599 0.6556843
0.7003507 0.6949709 0.6922831
0.6996669 0.6996669 0.6996669
0.0789982 0.1181095 0.2691878
0.0787535 0.1162623 0.2713062
0.0781022 0.0949092 0.3034772
0.282558 0.082472 0.2995888
0.5963123 0.2434749 0.2612552
0.6722002 0.5687638 0.5414644
0.6978845 0.6636715 0.6556864
0.7003507 0.6949714 0.6922833
0.6996669 0.6996669 0.6996669
0.1410116 0.2769347 0.2875051
0.1407267 0.2763747 0.2869259
0.1382059 0.2714206 0.2818014
0.2669164 0.2669149 0.2669371
0.591646 0.30536 0.2306713
0.6718198 0.5719581 0.5420491
0.6978703 0.6637721 0.6557047
0.7003502 0.6949753 0.6922842
0.6996669 0.6996669 0.6996669
0.2705439 0.5670976 0.2802071
0.2704729 0.5670578 0.2791792
0.2702035 0.5673107 0.2702979
0.2866619 0.5717965 0.1855836
0.5617003 0.556249 0.256782
0.6691995 0.5934104 0.5472611
0.69775 0.6646254 0.6558644
0.7003457 0.6950096 0.6922923
0.6996669 0.6996669 0.6996669
0.5575335 0.6683744 0.5145274
0.5575872 0.6683703 0.5145452
0.5580527 0.6683347 0.5146998
0.5619566 0.6680336 0.5160422
0.5877107 0.6659413 0.5270163
0.6613261 0.6594932 0.5797264
0.6969071 0.6707005 0.6572611
0.7003079 0.6952999 0.6923637
0.6996669 0.6996669 0.6996669
0.6605824 0.6968408 0.6488307
0.6605839 0.6968406 0.6488311
0.6605977 0.696839 0.6488355
0.6607177 0.6968254 0.6488731
0.6617336 0.6967105 0.6492001
0.6689043 0.695911 0.6518995
0.6942046 0.6934761 0.6660795
0.7000859 0.696975 0.6930769
0.6996669 0.6996669 0.6996669
0.6940687 0.7000206 0.690084
0.6940688 0.7000206 0.6900841
0.6940693 0.7000206 0.6900842
0.694074 0.7000203 0.6900859
0.6941148 0.7000183 0.6901006
0.6944598 0.7000015 0.6902286
0.6963436 0.6999042 0.6913978
0.6996819 0.6996716 0.6982739
0.6996669 0.6996669 0.6996669
0.6996669 0.6996669 0.6996669
0.6996669 0.6996669 0.6996669
0.6996669 0.6996669 0.6996669
0.6996669 0.6996669 0.6996669
0.6996669 0.6996669 0.6996669
0.6996669 0.6996669 0.6996669
0.6996669 0.6996669 0.6996669
0.6996669 0.6996669 0.6996669
0.6996669 0.6996669 0.6996669
0.1651066 0.2052023 0.5989621
0.1667884 0.2055343 0.5989947
0.181026 0.2085 0.5991992
0.2751291 0.2277869 0.5998945
0.5659049 0.3256713 0.5816715
0.6721157 0.5670173 0.5760765
0.6980732 0.6629064 0.6557143
0.7003543 0.6949431 0.692283
0.6996669 0.6996669 0.6996669
0.1639602 0.2054531 0.599472
0.1656566 0.2057837 0.5995025
0.18001 0.2087375 0.5996897
0.2747401 0.2281109 0.6002163
0.5659399 0.3257474 0.5817032
0.6721201 0.5670202 0.5760409
0.698073 0.6629078 0.6557146
0.7003543 0.6949431 0.692283
0.6996669 0.6996669 0.6996669
0.1636407 0.2133668 0.595846
0.1637928 0.2128302 0.5970945
0.1704011 0.2107886 0.6039918
0.2711645 0.2309711 0.6030299
0.566244 0.3264097 0.5819782
0.6721587 0.5670455 0.5757288
0.6980712 0.66292 0.6557164
0.7003542 0.6949436 0.6922831
0.6996669 0.6996669 0.6996669
0.1871771 0.294895 0.5900415
0.1870479 0.2943235 0.590337
0.1859202 0.2891995 0.593055
0.2082029 0.2501216 0.6312045
0.5688156 0.332077 0.5843034
0.6724998 0.5672625 0.5728399
0.6980555 0.6630256 0.6557329
0.7003537 0.6949475 0.692284
0.6996669 0.6996669 0.6996669
0.2902515 0.5633564 0.5763019
0.2902235 0.5633123 0.576259
0.2899792 0.5629257 0.5758836
0.2877855 0.5594332 0.572492
0.548265 0.5482641 0.548278
0.6706791 0.5852612 0.5627557
0.6979229 0.6639199 0.6558784
0.7003492 0.694982 0.6922921
0.6996669 0.6996669 0.6996669
0.53281 0.6690357 0.5396833
0.5328 0.6690361 0.5396006
0.5327123 0.6690389 0.538873
0.5375343 0.6686451 0.5375983
0.5721809 0.6660391 0.5366673
0.6599693 0.6580862 0.57555
0.6970052 0.6702201 0.6571948
0.7003112 0.6952739 0.6923629
0.6996669 0.6996669 0.6996669
0.6593854 0.6969298 0.6483718
0.6593871 0.6969296 0.6483723
0.6594019 0.6969279 0.6483767
0.6595305 0.6969133 0.648415
0.6606172 0.6967898 0.648748
0.6681824 0.6959403 0.6515084
0.6941434 0.6934131 0.6659441
0.7000869 0.6969679 0.6930703
0.6996669 0.6996669 0.6996669
0.694023 0.7000229 0.6900637
0.6940231 0.7000228 0.6900637
0.6940236 0.7000228 0.6900639
0.6940283 0.7000226 0.6900656
0.6940694 0.7000206 0.6900803
0.6944172 0.7000036 0.6902085
0.6963298 0.699905 0.6913776
0.699682 0.6996716 0.6982667
0.6996669 0.6996669 0.6996669
0.6996669 0.6996669 0.6996669
0.6996669 0.6996669 0.6996669
0.6996669 0.6996669 0.6996669
0.6996669 0.6996669 0.6996669
0.6996669 0.6996669 0.6996669
0.6996669 0.6996669 0.6996669
0.6996669 0.6996669 0.6996669
0.6996669 0.6996669 0.6996669
0.6996669 0.6996669 0.6996669
0.474221 0.5044386 0.6870712
0.474455 0.5045354 0.6870459
0.4764785 0.5053731 0.6868271
0.4928564 0.5122048 0.6850455
0.5604929 0.5380696 0.6787564
0.6610796 0.5951315 0.66652
0.6980029 0.6626474 0.6652082
0.7003861 0.6946931 0.692287
0.6996669 0.6996669 0.6996669
0.4740745 0.5044206 0.6871042
0.4743089 0.5045175 0.6870788
0.4763356 0.505356 0.6868596
0.4927378 0.5121935 0.6850749
0.5604793 0.5380949 0.6787667
0.6610808 0.5951346 0.666521
0.6980031 0.6626475 0.665207
0.7003861 0.6946932 0.692287
0.6996669 0.6996669 0.6996669
0.4727805 0.5042595 0.6873938
0.4730182 0.5043571 0.6873681
0.4750731 0.5052024 0.6871453
0.4916904 0.5120908 0.6853325
0.5603598 0.5383158 0.6788572
0.6610909 0.5951612 0.66653
0.6980049 0.6626484 0.6651969
0.700386 0.6946937 0.6922871
0.6996669 0.6996669 0.6996669
0.4600922 0.5024709 0.6900742
0.4603637 0.5025768 0.6900444
0.4627085 0.5034923 0.6897867
0.4815136 0.5109068 0.6876999
0.5592366 0.5402458 0.6796554
0.6611786 0.595393 0.666608
0.6980208 0.6626561 0.6651083
0.7003855 0.6946978 0.692288
0.6996669 0.6996669 0.6996669
0.4480683 0.546561 0.6931229
0.4480675 0.5465241 0.6931345
0.448062 0.5462012 0.6932367
0.4481062 0.5433042 0.6941588
0.523787 0.5464568 0.6912144
0.6619237 0.5973551 0.6672708
0.6981613 0.6627226 0.6642915
0.7003808 0.6947341 0.6922954
0.6996669 0.6996669 0.6996669
0.5608126 0.6628016 0.6683954
0.5608078 0.6628003 0.6683943
0.5607657 0.6627889 0.6683842
0.560397 0.6626896 0.6682959
0.557059 0.6617948 0.6675005
0.6556942 0.6556939 0.6556978
0.6975444 0.6678499 0.66143
0.700341 0.6950404 0.6923605
0.6996669 0.6996669 0.6996669
0.6529706 0.6971816 0.65475
0.6529703 0.6971816 0.6547475
0.6529677 0.6971818 0.6547259
0.6529451 0.697183 0.6545362
0.6542035 0.6970146 0.6542202
0.6636294 0.6959531 0.6539679
0.6935863 0.6928399 0.6647071
0.7000955 0.6969059 0.6930145
0.6996669 0.6996669 0.6996669
0.6936068 0.7000434 0.6898849
0.6936068 0.7000434 0.6898849
0.6936074 0.7000434 0.6898851
0.6936125 0.7000431 0.6898868
0.6936567 0.700041 0.6899017
0.6940297 0.7000229 0.6900315
0.6962061 0.6999124 0.6911981
0.6996827 0.6996718 0.6982032
0.6996669 0.6996669 0.6996669
0.6996669 0.6996669 0.6996669
0.6996669 0.6996669 0.6996669
0.6996669 0.6996669 0.6996669
0.6996669 0.6996669 0.6996669
0.6996669 0.6996669 0.6996669
0.6996669 0.6996669 0.6996669
0.6996669 0.6996669 0.6996669
0.6996669 0.6996669 0.6996669
0.6996669 0.6996669 0.6996669
0.6382998 0.6454177 0.7033339
0.6383066 0.6454207 0.7033327
0.6383653 0.6454465 0.703322
0.6388726 0.6456706 0.7032293
0.6429271 0.6474925 0.7024885
0.6603622 0.6544111 0.7001051
0.6937962 0.6708605 0.695945
0.7003126 0.6949637 0.6958056
0.6996669 0.6996669 0.6996669
0.6382957 0.645417 0.7033356
0.6383024 0.64542 0.7033343
0.6383612 0.6454459 0.7033236
0.6388686 0.6456699 0.7032309
0.6429238 0.6474921 0.7024899
0.6603618 0.6544119 0.7001056
0.6937962 0.6708606 0.6959451
0.7003126 0.6949637 0.6958056
0.6996669 0.6996669 0.6996669
0.6382594 0.6454113 0.7033497
0.6382662 0.6454142 0.7033484
0.6383251 0.6454402 0.7033377
0.6388333 0.6456645 0.7032448
0.6428953 0.6474885 0.7025023
0.6603585 0.6544187 0.7001099
0.6937967 0.6708615 0.6959455
0.7003126 0.6949637 0.6958052
0.6996669 0.6996669 0.6996669
0.6379388 0.6453597 0.7034738
0.6379457 0.6453627 0.7034725
0.6380055 0.6453889 0.7034616
0.6385217 0.6456154 0.7033668
0.6426426 0.6474559 0.7026105
0.660329 0.6544782 0.7001477
0.6938009 0.6708699 0.6959494
0.7003126 0.6949641 0.695802
0.6996669 0.6996669 0.6996669
0.6347624 0.6447879 0.7046355
0.6347704 0.6447912 0.704634
0.6348399 0.6448201 0.7046209
0.635439 0.6450703 0.7045079
0.640169 0.6470839 0.7036133
0.6600502 0.655 0.7004814
0.6938375 0.6709426 0.6959828
0.7003125 0.6949672 0.6957737
0.6996669 0.6996669 0.6996669
0.6321269 0.6556551 0.7064689
0.6321268 0.655654 0.7064694
0.6321266 0.6556443 0.7064739
0.6321243 0.6555592 0.7065132
0.6321286 0.6548019 0.706868
0.650846 0.6566372 0.7053113
0.6941487 0.6715601 0.6962678
0.7003121 0.6949938 0.6955117
0.6996669 0.6996669 0.6996669
0.6605485 0.6946578 0.6969171
0.6605483 0.6946578 0.696917
0.660547 0.6946572 0.6969166
0.660535 0.6946526 0.6969123
0.6604306 0.6946117 0.6968753
0.6594898 0.694245 0.6965428
0.6918757 0.6918756 0.6918771
0.7001135 0.6966327 0.694554
0.6996669 0.6996669 0.6996669
0.6916029 0.7001099 0.6922113
0.6916029 0.7001099 0.6922112
0.6916027 0.70011 0.6922104
0.6916017 0.7001101 0.6922029
0.6915929 0.7001111 0.6921371
0.6920752 0.7000902 0.6920809
0.6952299 0.6999486 0.6920182
0.6996889 0.6996737 0.6976245
0.6996669 0.6996669 0.6996669
0.6996669 0.6996669 0.6996669
0.6996669 0.6996669 0.6996669
0.6996669 0.6996669 0.6996669
0.6996669 0.6996669 0.6996669
0.6996669 0.6996669 0.6996669
0.6996669 0.6996669 0.6996669
0.6996669 0.6996669 0.6996669
0.6996669 0.6996669 0.6996669
0.6996669 0.6996669 0.6996669
0.685005 0.6874575 0.7020453
0.6850053 0.6874576 0.7020453
0.6850077 0.6874587 0.702045
0.6850285 0.6874684 0.7020427
0.6852079 0.6875522 0.7020225
0.686655 0.6882393 0.7018581
0.6929538 0.6908787 0.7011853
0.6998281 0.6983991 0.6998281
0.6996669 0.6996669 0.6996669
0.6850049 0.6874575 0.7020453
0.6850051 0.6874576 0.7020453
0.6850075 0.6874587 0.702045
0.6850283 0.6874684 0.7020427
0.6852077 0.6875522 0.7020225
0.6866548 0.6882393 0.7018581
0.6929538 0.6908787 0.7011853
0.6998281 0.6983991 0.6998281
0.6996669 0.6996669 0.6996669
0.6850034 0.6874572 0.7020454
0.6850036 0.6874573 0.7020454
0.685006 0.6874584 0.7020451
0.6850268 0.6874681 0.7020428
0.6852063 0.6875519 0.7020226
0.6866536 0.688239 0.7018582
0.6929537 0.690879 0.7011852
0.6998281 0.6983991 0.6998281
0.6996669 0.6996669 0.6996669
0.6849902 0.6874543 0.7020465
0.6849905 0.6874545 0.7020464
0.6849929 0.6874556 0.7020462
0.6850137 0.6874653 0.7020438
0.6851934 0.6875492 0.7020236
0.686643 0.688237 0.701859
0.6929525 0.6908813 0.701185
0.699828 0.6983995 0.699828
0.6996669 0.6996669 0.6996669
0.684874 0.6874293 0.7020557
0.6848743 0.6874295 0.7020556
0.6848767 0.6874306 0.7020554
0.6848978 0.6874404 0.702053
0.6850802 0.6875251 0.7020325
0.6865493 0.688219 0.7018661
0.692942 0.6909019 0.7011828
0.6998276 0.6984031 0.6998276
0.6996669 0.6996669 0.6996669
0.6837331 0.6871656 0.7021482
0.6837335 0.6871657 0.7021482
0.6837362 0.687167 0.7021479
0.6837605 0.6871778 0.7021452
0.6839697 0.6872711 0.7021223
0.6856392 0.6880282 0.7019376
0.6928432 0.6910824 0.701164
0.6998236 0.6984344 0.6998236
0.6996669 0.6996669 0.6996669
0.682698 0.6907608 0.701721
0.6826979 0.6907608 0.701721
0.6826979 0.6907604 0.7017211
0.6826977 0.6907568 0.7017216
0.6826959 0.6907262 0.7017258
0.6826878 0.6904535 0.7017626
0.6893548 0.6913795 0.7013038
0.6997898 0.6987005 0.6997898
0.6996669 0.6996669 0.6996669
0.6946166 0.6998954 0.6998954
0.6946166 0.6998954 0.6998954
0.6946166 0.6998954 0.6998954
0.694616 0.6998954 0.6998954
0.694611 0.6998956 0.6998956
0.6945674 0.6998976 0.6998976
0.6941755 0.6999151 0.6999151
0.6996669 0.6996669 0.6996669
0.6996669 0.6996669 0.6996669
0.6996669 0.6996669 0.6996669
0.6996669 0.6996669 0.6996669
0.6996669 0.6996669 0.6996669
0.6996669 0.6996669 0.6996669
0.6996669 0.6996669 0.6996669
0.6996669 0.6996669 0.6996669
0.6996669 0.6996669 0.6996669
0.6996669 0.6996669 0.6996669
0.6996669 0.6996669 0.6996669
0.6996669 0.6996669 0.6996669
0.6996669 0.6996669 0.6996669
0.6996669 0.6996669 0.6996669
0.6996669 0.6996669 0.6996669
0.6996669 0.6996669 0.6996669
0.6996669 0.6996669 0.6996669
0.6996669 0.6996669 0.6996669
0.6996669 0.6996669 0.6996669
0.6996669 0.6996669 0.6996669
0.6996669 0.6996669 0.6996669
0.6996669 0.6996669 0.6996669
0.6996669 0.6996669 0.6996669
0.6996669 0.6996669 0.6996669
0.6996669 0.6996669 0.6996669
0.6996669 0.6996669 0.6996669
0.6996669 0.6996669 0.6996669
0.6996669 0.6996669 0.6996669
0.6996669 0.6996669 0.6996669
0.6996669 0.6996669 0.6996669
0.6996669 0.6996669 0.6996669
0.6996669 0.6996669 0.6996669
0.6996669 0.6996669 0.6996669
0.6996669 0.6996669 0.6996669
0.6996669 0.6996669 0.6996669
0.6996669 0.6996669 0.6996669
0.6996669 0.6996669 0.6996669
0.6996669 0.6996669 0.6996669
0.6996669 0.6996669 0.6996669
0.6996669 0.6996669 0.6996669
0.6996669 0.6996669 0.6996669
0.6996669 0.6996669 0.6996669
0.6996669 0.6996669 0.6996669
0.6996669 0.6996669 0.6996669
0.6996669 0.6996669 0.6996669
0.6996669 0.6996669 0.6996669
0.6996669 0.6996669 0.6996669
0.6996669 0.6996669 0.6996669
0.6996669 0.6996669 0.6996669
0.6996669 0.6996669 0.6996669
0.6996669 0.6996669 0.6996669
0.6996669 0.6996669 0.6996669
0.6996669 0.6996669 0.6996669
0.6996669 0.6996669 0.6996669
0.6996669 0.6996669 0.6996669
0.6996669 0.6996669 0.6996669
0.6996669 0.6996669 0.6996669
0.6996669 0.6996669 0.6996669
0.6996669 0.6996669 0.6996669
0.6996669 0.6996669 0.6996669
0.6996669 0.6996669 0.6996669
0.6996669 0.6996669 0.6996669
0.6996669 0.6996669 0.6996669
0.6996669 0.6996669 0.6996669
0.6996669 0.6996669 0.6996669
0.6996669 0.6996669 0.6996669
0.6996669 0.6996669 0.6996669
0.6996669 0.6996669 0.6996669
0.6996669 0.6996669 0.6996669
0.6996669 0.6996669 0.6996669
0.6996669 0.6996669 0.6996669
0.6996669 0.6996669 0.6996669
0.6996669 0.6996669 0.6996669
0.6996669 0.6996669 0.6996669
0.6996669 0.6996669 0.6996669
0.6996669 0.6996669 0.6996669
0.6996669 0.6996669 0.6996669
0.6996669 0.6996669 0.6996669
0.6996669 0.6996669 0.6996669
0.6996669 0.6996669 0.6996669
0.6996669 0.6996669 0.6996669
0.6996669 0.6996669 0.6996669
0.6996669 0.6996669 0.6996669
0.6996669 0.6996669 0.6996669
0.6996669 0.6996669 0.6996669
0.6996669 0.6996669 0.6996669
0.6996669 0.6996669 0.6996669
0.6996669 0.6996669 0.6996669
0.6996669 0.6996669 0.6996669
0.6996669 0.6996669 0.6996669
0.6996669 0.6996669 0.6996669
0.6996669 0.6996669 0.6996669
