luts/AgX_Rec2100-HLG_p3_lim_3x.cube
TITLE "AgX_Formation Rec.2100 HLG P3 limited"
# AgX Rec.2100 HLG 1000 nits Formation P3 Limited LUT
# This LUT expects input to be E Gamut Log2 encoding from -10 stops to +15 stops
# But the end image formation will be from -10 to 10 encoded in Rec.2100-HLG
# Inset matrix can be generated in Rec.2020 with rotation [2.13976149, -1.22827335, -3.05174246],
# Inset: [0.32965205, 0.28051336, 0.12475368], outset = [0.32317438, 0.28325605, 0.0374326].
# HDR purity set to 0.5, HDR extra shoulder power multiplier is 1.3919633777718028
# calculated from power(300 / 100, log10(2.0))
# The image formed has 40% per-channel shifts
# HDR max nits is 300, Reference White nits is 100
LUT_3D_SIZE 9
0.0000618 0.000052 0.0001343
0.0308844 0.0080833 0
0.0999333 0.0291163 0
0.2891212 0.0843501 0
0.6472252 0.2787496 0.162014
0.7757972 0.6602302 0.6236088
0.8101234 0.774981 0.7662967
0.8135455 0.8085314 0.8059948
0.8129073 0.8129073 0.8129073
0.0140123 0.030107 0.0114317
0.0319526 0.0313091 0.004008
0.1002879 0.0427173 0.0026948
0.2891971 0.0896276 0
0.6471634 0.2800614 0.1621505
0.7757922 0.6602795 0.623619
0.8101232 0.7749824 0.766297
0.8135455 0.8085315 0.8059948
0.8129073 0.8129073 0.8129073
0.0453667 0.0977228 0.0338798
0.0462896 0.0981339 0.0134055
0.1023721 0.1004192 0.0128574
0.2896123 0.1266899 0.0087531
0.6466321 0.2911727 0.1633376
0.7757487 0.6607079 0.6237076
0.8101216 0.7749948 0.7662995
0.8135454 0.8085319 0.8059949
0.8129073 0.8129073 0.8129073
0.1298713 0.2797651 0.0967992
0.1298415 0.2800521 0.0919918
0.1362168 0.2823737 0.0385442
0.2929871 0.2875084 0.0368144
0.642601 0.369626 0.1735634
0.7753812 0.6643156 0.6244822
0.8101071 0.7751024 0.7663215
0.8135449 0.8085356 0.8059958
0.8129073 0.8129073 0.8129073
0.3064853 0.6292059 0.1888778
0.3064894 0.6292955 0.1867622
0.3065233 0.6300876 0.1667815
0.3700078 0.6298199 0.1427361
0.6306205 0.6249863 0.2555876
0.7728405 0.6886813 0.6311682
0.8099847 0.776014 0.7665142
0.8135407 0.8085677 0.8060038
0.8129073 0.8129073 0.8129073
0.6510885 0.7715949 0.5959268
0.6511458 0.7715911 0.5959464
0.6516438 0.7715574 0.5961172
0.6558299 0.7712722 0.5975998
0.6837915 0.7692763 0.6098135
0.7655747 0.7635396 0.6714184
0.8091412 0.782451 0.768179
0.8135054 0.8088387 0.8060735
0.8129073 0.8129073 0.8129073
0.771875 0.8091039 0.7590898
0.7718767 0.8091037 0.7590904
0.7718913 0.8091021 0.7590953
0.7720182 0.8090881 0.7591378
0.7730927 0.8089699 0.7595066
0.7806255 0.8081576 0.7625438
0.8066674 0.8059435 0.7783574
0.8132985 0.8103957 0.8067619
0.8129073 0.8129073 0.8129073
0.8076679 0.8132392 0.8038949
0.8076679 0.8132392 0.8038949
0.8076684 0.8132391 0.8038951
0.8076728 0.8132389 0.8038967
0.807711 0.813237 0.8039111
0.8080337 0.8132212 0.804036
0.8097943 0.8131297 0.8051666
0.8129211 0.8129116 0.8116288
0.8129073 0.8129073 0.8129073
0.8129073 0.8129073 0.8129073
0.8129073 0.8129073 0.8129073
0.8129073 0.8129073 0.8129073
0.8129073 0.8129073 0.8129073
0.8129073 0.8129073 0.8129073
0.8129073 0.8129073 0.8129073
0.8129073 0.8129073 0.8129073
0.8129073 0.8129073 0.8129073
0.8129073 0.8129073 0.8129073
0.0077454 0.0089261 0.0307691
0.0294964 0.0079016 0.0314235
0.0993073 0.0246207 0.0279164
0.2900147 0.0789256 0
0.6473741 0.2775684 0.1620405
0.7758045 0.6601892 0.6236096
0.8101237 0.7749798 0.7662967
0.8135455 0.8085314 0.8059948
0.8129073 0.8129073 0.8129073
0.0154024 0.0302276 0.0314974
0.0289007 0.0289005 0.0289037
0.1031441 0.0301793 0
0.2900261 0.0846172 0
0.6473112 0.278889 0.1621758
0.7757995 0.6602385 0.6236197
0.8101235 0.7749812 0.766297
0.8135455 0.8085315 0.8059948
0.8129073 0.8129073 0.8129073
0.0452021 0.0963522 0.0452125
0.0447244 0.0963483 0.0332803
0.0995408 0.0976421 0.0125019
0.2899846 0.1235702 0.0078081
0.6467708 0.2900715 0.1633531
0.775756 0.6606673 0.6237082
0.8101219 0.7749936 0.7662995
0.8135454 0.8085319 0.8059949
0.8129073 0.8129073 0.8129073
0.1296474 0.2789391 0.1010935
0.1296159 0.2792148 0.0966119
0.1329748 0.2817229 0.0384837
0.2921348 0.2866699 0.036707
0.6426764 0.3689108 0.1735109
0.7753879 0.6642777 0.6244821
0.8101074 0.7751012 0.7663216
0.8135449 0.8085356 0.8059958
0.8129073 0.8129073 0.8129073
0.3064379 0.6290551 0.1909591
0.3064419 0.6291445 0.1888729
0.3064758 0.629935 0.169202
0.3691397 0.6297767 0.1424666
0.6305394 0.6249034 0.2554144
0.7728442 0.6886576 0.6311636
0.8099849 0.7760129 0.7665142
0.8135408 0.8085676 0.8060038
0.8129073 0.8129073 0.8129073
0.6510255 0.7715972 0.5958992
0.6510829 0.7715933 0.5959188
0.6515815 0.7715596 0.5960896
0.6557719 0.7712741 0.5975727
0.683757 0.7692767 0.6097901
0.7655721 0.7635369 0.6714108
0.8091413 0.7824503 0.7681788
0.8135054 0.8088386 0.8060735
0.8129073 0.8129073 0.8129073
0.7718731 0.8091041 0.7590891
0.7718748 0.8091039 0.7590896
0.7718894 0.8091023 0.7590945
0.7720164 0.8090883 0.759137
0.7730909 0.80897 0.7595058
0.7806244 0.8081576 0.7625432
0.8066673 0.8059434 0.7783572
0.8132985 0.8103957 0.8067619
0.8129073 0.8129073 0.8129073
0.8076678 0.8132392 0.8038948
0.8076679 0.8132392 0.8038948
0.8076684 0.8132391 0.803895
0.8076728 0.8132389 0.8038967
0.8077109 0.813237 0.803911
0.8080337 0.8132212 0.804036
0.8097943 0.8131297 0.8051665
0.8129211 0.8129116 0.8116288
0.8129073 0.8129073 0.8129073
0.8129073 0.8129073 0.8129073
0.8129073 0.8129073 0.8129073
0.8129073 0.8129073 0.8129073
0.8129073 0.8129073 0.8129073
0.8129073 0.8129073 0.8129073
0.8129073 0.8129073 0.8129073
0.8129073 0.8129073 0.8129073
0.8129073 0.8129073 0.8129073
0.8129073 0.8129073 0.8129073
0.0224113 0.0270855 0.0872949
0.0288923 0.0202797 0.0991503
0.0965076 0.0258391 0.1024594
0.2863662 0.0710595 0.0859583
0.6487536 0.2668444 0.1623733
0.7758686 0.6598302 0.6236172
0.8101262 0.7749697 0.7662969
0.8135455 0.8085311 0.8059948
0.8129073 0.8129073 0.8129073
0.0271181 0.0398624 0.0937587
0.026686 0.0323452 0.1038117
0.0980916 0.0262632 0.104142
0.287586 0.0712998 0.080864
0.6486808 0.268248 0.1624977
0.7758636 0.6598799 0.6236273
0.810126 0.7749711 0.7662972
0.8135455 0.8085311 0.8059948
0.8129073 0.8129073 0.8129073
0.0497522 0.0977018 0.1014708
0.0488201 0.0958712 0.0995702
0.0927463 0.0927457 0.0927538
0.2994473 0.0876623 0
0.6480564 0.2801029 0.1635829
0.7758195 0.6603115 0.623715
0.8101243 0.7749835 0.7662997
0.8135455 0.8085315 0.8059949
0.8129073 0.8129073 0.8129073
0.1288605 0.2743915 0.1316611
0.1286396 0.2742066 0.1286696
0.1279789 0.2757072 0.095143
0.2845299 0.2791892 0.0357487
0.6433799 0.3625245 0.1731072
0.7754472 0.6639454 0.6244819
0.8101098 0.7750912 0.7663217
0.813545 0.8085352 0.8059958
0.8129073 0.8129073 0.8129073
0.3060258 0.6277443 0.208075
0.3060297 0.627832 0.2062106
0.3060623 0.6286077 0.188829
0.3613713 0.6294051 0.140108
0.6298278 0.6241762 0.2538993
0.772877 0.6884505 0.6311242
0.8099872 0.7760035 0.7665142
0.8135408 0.8085673 0.8060038
0.8129073 0.8129073 0.8129073
0.6504733 0.771617 0.5956579
0.6505313 0.7716131 0.5956776
0.6510346 0.7715792 0.5958487
0.6552636 0.7712914 0.5973352
0.6834545 0.7692804 0.6095859
0.7655494 0.7635135 0.6713443
0.8091426 0.7824438 0.7681777
0.8135054 0.8088383 0.8060735
0.8129073 0.8129073 0.8129073
0.771857 0.8091051 0.7590822
0.7718586 0.8091049 0.7590828
0.7718733 0.8091033 0.7590877
0.7720004 0.8090893 0.7591302
0.7730758 0.8089709 0.7594991
0.7806146 0.8081579 0.7625374
0.8066664 0.8059425 0.7783551
0.8132985 0.8103956 0.8067618
0.8129073 0.8129073 0.8129073
0.8076672 0.8132392 0.8038946
0.8076673 0.8132392 0.8038946
0.8076678 0.8132392 0.8038948
0.8076722 0.8132389 0.8038964
0.8077104 0.8132371 0.8039108
0.8080331 0.8132212 0.8040357
0.8097941 0.8131297 0.8051663
0.8129211 0.8129116 0.8116287
0.8129073 0.8129073 0.8129073
0.8129073 0.8129073 0.8129073
0.8129073 0.8129073 0.8129073
0.8129073 0.8129073 0.8129073
0.8129073 0.8129073 0.8129073
0.8129073 0.8129073 0.8129073
0.8129073 0.8129073 0.8129073
0.8129073 0.8129073 0.8129073
0.8129073 0.8129073 0.8129073
0.8129073 0.8129073 0.8129073
0.0649496 0.0789311 0.2523635
0.0653305 0.0765036 0.2578914
0.0950771 0.0716566 0.2785176
0.2777413 0.0809362 0.2945076
0.6513786 0.2381448 0.2739275
0.7764601 0.6565794 0.6237515
0.810148 0.7748815 0.7662989
0.8135459 0.8085281 0.8059948
0.8129073 0.8129073 0.8129073
0.0661107 0.0829484 0.2530388
0.0664549 0.0807581 0.2582162
0.0930233 0.0725877 0.282251
0.2782416 0.0810976 0.2950354
0.6515426 0.238172 0.2726126
0.7764545 0.6566322 0.6237607
0.8101478 0.7748829 0.7662992
0.8135459 0.8085282 0.8059948
0.8129073 0.8129073 0.8129073
0.0792321 0.1184581 0.2699867
0.0789854 0.1166038 0.2721072
0.078212 0.0950417 0.3039048
0.2825558 0.0824983 0.2995858
0.652983 0.2383927 0.2604977
0.7764056 0.6570909 0.6238403
0.8101461 0.7748953 0.7663017
0.8135458 0.8085286 0.8059949
0.8129073 0.8129073 0.8129073
0.1416031 0.2780962 0.2887112
0.1413164 0.2775329 0.2881286
0.1387804 0.2725489 0.2829732
0.2669165 0.266915 0.2669372
0.6496696 0.315405 0.2228899
0.7759935 0.6609443 0.6245406
0.8101314 0.7750036 0.7663235
0.8135454 0.8085323 0.8059958
0.8129073 0.8129073 0.8129073
0.3052141 0.6204766 0.3151386
0.3051254 0.62042 0.3140657
0.3047425 0.6204864 0.3048392
0.3042739 0.626049 0.1890465
0.6232956 0.6175015 0.2403328
0.7731791 0.6866027 0.6308088
0.8100073 0.7759207 0.7665142
0.8135412 0.8085643 0.8060037
0.8129073 0.8129073 0.8129073
0.6454026 0.7718047 0.5935257
0.6454658 0.7718005 0.5935457
0.6460144 0.7717639 0.5937199
0.6506112 0.7714552 0.5952347
0.680728 0.7693187 0.6077768
0.7653506 0.7633081 0.670761
0.8091537 0.7823874 0.768168
0.8135058 0.8088356 0.8060734
0.8129073 0.8129073 0.8129073
0.7717152 0.8091145 0.7590227
0.7717169 0.8091143 0.7590232
0.7717316 0.8091127 0.7590281
0.7718598 0.8090986 0.7590707
0.7729435 0.8089792 0.7594404
0.7805288 0.8081603 0.7624867
0.8066583 0.8059342 0.7783372
0.8132986 0.8103948 0.8067611
0.8129073 0.8129073 0.8129073
0.8076623 0.8132394 0.8038923
0.8076624 0.8132394 0.8038923
0.8076629 0.8132394 0.8038925
0.8076673 0.8132392 0.8038942
0.8077055 0.8132373 0.8039085
0.8080286 0.8132214 0.8040335
0.8097926 0.8131298 0.8051641
0.8129211 0.8129116 0.8116279
0.8129073 0.8129073 0.8129073
0.8129073 0.8129073 0.8129073
0.8129073 0.8129073 0.8129073
0.8129073 0.8129073 0.8129073
0.8129073 0.8129073 0.8129073
0.8129073 0.8129073 0.8129073
0.8129073 0.8129073 0.8129073
0.8129073 0.8129073 0.8129073
0.8129073 0.8129073 0.8129073
0.8129073 0.8129073 0.8129073
0.1725477 0.2147343 0.6292864
0.1727221 0.2140679 0.6305588
0.1847706 0.2149583 0.633826
0.2869734 0.2342532 0.6405893
0.6224262 0.3319267 0.639373
0.7765152 0.6539809 0.6650121
0.810349 0.7740877 0.7663334
0.8135492 0.8085022 0.8059944
0.8129073 0.8129073 0.8129073
0.1727678 0.2159195 0.6289549
0.1729408 0.2152643 0.6302183
0.1837207 0.2152923 0.6344446
0.286569 0.2346233 0.6410265
0.6224784 0.3320158 0.639422
0.7765209 0.6539854 0.6649699
0.8103488 0.7740892 0.7663337
0.8135492 0.8085022 0.8059945
0.8129073 0.8129073 0.8129073
0.174714 0.2259404 0.6262347
0.1748754 0.2253731 0.6274213
0.1763041 0.2198127 0.6380634
0.2828235 0.2378969 0.644852
0.6229318 0.3327921 0.6398481
0.7765711 0.6540247 0.6645992
0.8103469 0.7741023 0.766336
0.8135492 0.8085026 0.8059946
0.8129073 0.8129073 0.8129073
0.2040542 0.3177008 0.6329779
0.2039381 0.3171148 0.6332978
0.2029391 0.3118699 0.6362477
0.2157671 0.2635752 0.6815537
0.6267722 0.3394759 0.643456
0.7770139 0.6543638 0.6611611
0.8103306 0.774216 0.7663557
0.8135487 0.8085064 0.8059955
0.8129073 0.8129073 0.8129073
0.3303553 0.6205595 0.6334255
0.3303084 0.6204983 0.6333658
0.3298983 0.6199624 0.6328428
0.3262296 0.6151265 0.6281239
0.6062608 0.6062597 0.6062767
0.7750175 0.6765249 0.6492114
0.8101927 0.7751779 0.7665298
0.8135445 0.8085386 0.8060033
0.8129073 0.8129073 0.8129073
0.6145486 0.7723438 0.6228562
0.6145366 0.7723437 0.6227565
0.6144322 0.7723433 0.6218788
0.6199782 0.7719333 0.6200556
0.6617157 0.7691784 0.6188159
0.7635282 0.7614263 0.6653885
0.8092557 0.7818863 0.7680905
0.8135089 0.8088113 0.8060724
0.8129073 0.8129073 0.8129073
0.7704238 0.8092031 0.7584964
0.7704256 0.8092029 0.758497
0.7704414 0.8092011 0.758502
0.7705792 0.8091858 0.7585453
0.7717414 0.809057 0.758922
0.7797587 0.8081839 0.7620387
0.8065878 0.8058617 0.7781798
0.8132995 0.8103882 0.8067548
0.8129073 0.8129073 0.8129073
0.8076195 0.8132416 0.8038725
0.8076195 0.8132416 0.8038725
0.80762 0.8132415 0.8038727
0.8076245 0.8132413 0.8038744
0.807663 0.8132394 0.8038888
0.8079886 0.8132234 0.804014
0.8097795 0.8131306 0.8051447
0.8129211 0.8129116 0.8116212
0.8129073 0.8129073 0.8129073
0.8129073 0.8129073 0.8129073
0.8129073 0.8129073 0.8129073
0.8129073 0.8129073 0.8129073
0.8129073 0.8129073 0.8129073
0.8129073 0.8129073 0.8129073
0.8129073 0.8129073 0.8129073
0.8129073 0.8129073 0.8129073
0.8129073 0.8129073 0.8129073
0.8129073 0.8129073 0.8129073
0.5467137 0.5824503 0.7882493
0.5469875 0.5825474 0.7882285
0.5493477 0.583389 0.7880483
0.5679808 0.5903331 0.7865647
0.6454089 0.6187038 0.7813821
0.7640804 0.6871716 0.7701994
0.8102724 0.7738518 0.7765934
0.813579 0.8082687 0.805997
0.8129073 0.8129073 0.8129073
0.5465488 0.5824446 0.7882863
0.5468232 0.5825418 0.7882655
0.549188 0.583384 0.7880849
0.5678548 0.5903322 0.7865984
0.6453947 0.618736 0.7813963
0.764082 0.6871756 0.7702009
0.8102726 0.773852 0.7765922
0.813579 0.8082687 0.8059971
0.8129073 0.8129073 0.8129073
0.5450884 0.5823911 0.7886111
0.5453676 0.5824889 0.7885899
0.5477735 0.583336 0.7884062
0.5667395 0.5903212 0.7868937
0.6452699 0.6190166 0.7815204
0.7640959 0.6872103 0.7702134
0.8102747 0.7738533 0.7765817
0.8135789 0.8082692 0.8059971
0.8129073 0.8129073 0.8129073
0.5304191 0.5815973 0.7915742
0.5307496 0.581701 0.7915495
0.5335924 0.5825989 0.7913348
0.5556986 0.5899701 0.7895747
0.6440852 0.6214695 0.7826117
0.7642165 0.687512 0.7703224
0.8102926 0.7738644 0.7764902
0.8135784 0.8082731 0.805998
0.8129073 0.8129073 0.8129073
0.5168835 0.6348271 0.7965425
0.5168861 0.6347867 0.7965564
0.5169106 0.6344334 0.7966783
0.517255 0.6312633 0.797783
0.6055169 0.6320807 0.7967094
0.7652393 0.6900664 0.7712468
0.8104506 0.7739608 0.7756436
0.813574 0.8083071 0.8060052
0.8129073 0.8129073 0.8129073
0.6477089 0.7661762 0.772373
0.6477028 0.7661744 0.7723713
0.6476497 0.7661588 0.7723571
0.6471845 0.7660214 0.7722322
0.6429747 0.764782 0.7711051
0.758171 0.7581707 0.7581751
0.8098191 0.7794772 0.7726579
0.8135367 0.8085937 0.8060689
0.8129073 0.8129073 0.8129073
0.7634147 0.8094393 0.7653614
0.7634144 0.8094393 0.7653587
0.7634114 0.8094394 0.765335
0.7633856 0.8094404 0.7651271
0.7647559 0.8092577 0.7647741
0.7749137 0.8081381 0.7645616
0.8059445 0.8051996 0.7767381
0.8133076 0.8103298 0.8067016
0.8129073 0.8129073 0.8129073
0.8072283 0.813261 0.8036981
0.8072283 0.813261 0.8036982
0.8072289 0.813261 0.8036984
0.8072336 0.8132607 0.8037
0.8072752 0.8132587 0.8037146
0.8076253 0.8132416 0.8038415
0.8096619 0.8131377 0.8049727
0.8129218 0.8129118 0.8115626
0.8129073 0.8129073 0.8129073
0.8129073 0.8129073 0.8129073
0.8129073 0.8129073 0.8129073
0.8129073 0.8129073 0.8129073
0.8129073 0.8129073 0.8129073
0.8129073 0.8129073 0.8129073
0.8129073 0.8129073 0.8129073
0.8129073 0.8129073 0.8129073
0.8129073 0.8129073 0.8129073
0.8129073 0.8129073 0.8129073
0.7452329 0.7533486 0.8156181
0.7452406 0.753352 0.8156167
0.7453078 0.7533813 0.815605
0.7458879 0.7536351 0.8155035
0.7505174 0.7557006 0.8146932
0.7702604 0.7636949 0.8121359
0.8059333 0.7826147 0.8080879
0.8135079 0.8085361 0.8093267
0.8129073 0.8129073 0.8129073
0.7452283 0.7533481 0.8156199
0.745236 0.7533514 0.8156186
0.7453032 0.7533808 0.8156068
0.7458835 0.7536345 0.8155053
0.7505139 0.7557003 0.8146948
0.77026 0.7636958 0.8121365
0.8059334 0.7826148 0.808088
0.8135079 0.8085361 0.8093267
0.8129073 0.8129073 0.8129073
0.7451885 0.7533431 0.8156358
0.7451962 0.7533465 0.8156344
0.7452636 0.7533758 0.8156227
0.7458449 0.7536299 0.8155209
0.7504828 0.7556977 0.8147086
0.7702572 0.7637042 0.8121414
0.805934 0.7826159 0.8080885
0.8135079 0.8085361 0.8093263
0.8129073 0.8129073 0.8129073
0.7448361 0.7532984 0.8157754
0.7448439 0.7533018 0.815774
0.7449123 0.7533315 0.815762
0.7455027 0.7535879 0.8156582
0.7502079 0.7556733 0.8148305
0.7702322 0.7637772 0.8121845
0.8059389 0.7826258 0.808093
0.8135079 0.8085364 0.8093233
0.8129073 0.8129073 0.8129073
0.7413286 0.7527752 0.8170795
0.7413377 0.752779 0.8170778
0.7414172 0.7528116 0.8170634
0.7421024 0.7530933 0.8169394
0.7475041 0.7553636 0.8159573
0.7699899 0.7644171 0.8125647
0.8059816 0.7827112 0.808132
0.8135078 0.8085393 0.8092969
0.8129073 0.8129073 0.8129073
0.7390662 0.7654367 0.8192105
0.7390662 0.7654355 0.8192111
0.7390661 0.7654252 0.8192161
0.7390661 0.7653358 0.8192597
0.7390939 0.7645408 0.8196531
0.7603766 0.7668214 0.8179621
0.8063444 0.7834361 0.8084642
0.8135073 0.8085644 0.8090515
0.8129073 0.8129073 0.8129073
0.7718799 0.8069475 0.8092318
0.7718797 0.8069475 0.8092317
0.7718781 0.8069468 0.8092312
0.7718641 0.8069414 0.8092263
0.771741 0.806894 0.8091833
0.7706311 0.8064675 0.8087967
0.8040645 0.8040644 0.8040659
0.8133219 0.810093 0.8081537
0.8129073 0.8129073 0.8129073
0.8053436 0.8133233 0.8059257
0.8053435 0.8133233 0.8059256
0.8053434 0.8133233 0.8059248
0.8053425 0.8133234 0.8059176
0.805334 0.8133245 0.8058548
0.8057961 0.8133043 0.8058016
0.8087684 0.8131706 0.8057495
0.8129275 0.8129136 0.8110281
0.8129073 0.8129073 0.8129073
0.8129073 0.8129073 0.8129073
0.8129073 0.8129073 0.8129073
0.8129073 0.8129073 0.8129073
0.8129073 0.8129073 0.8129073
0.8129073 0.8129073 0.8129073
0.8129073 0.8129073 0.8129073
0.8129073 0.8129073 0.8129073
0.8129073 0.8129073 0.8129073
0.8129073 0.8129073 0.8129073
0.798791 0.8012269 0.8151924
0.7987913 0.801227 0.8151924
0.7987937 0.8012281 0.8151921
0.7988145 0.8012378 0.8151898
0.7989944 0.8013215 0.8151695
0.8004395 0.8020054 0.8150049
0.8065976 0.8046015 0.8143426
0.8130555 0.8117423 0.8130555
0.8129073 0.8129073 0.8129073
0.7987909 0.8012268 0.8151924
0.7987911 0.801227 0.8151924
0.7987935 0.8012281 0.8151921
0.7988144 0.8012377 0.8151898
0.7989942 0.8013214 0.8151695
0.8004393 0.8020054 0.8150049
0.8065976 0.8046016 0.8143426
0.8130555 0.8117423 0.8130555
0.8129073 0.8129073 0.8129073
0.7987894 0.8012265 0.8151926
0.7987896 0.8012266 0.8151925
0.798792 0.8012277 0.8151923
0.7988128 0.8012374 0.8151899
0.7989928 0.8013211 0.8151696
0.8004381 0.8020051 0.815005
0.8065975 0.8046018 0.8143426
0.8130554 0.8117424 0.8130554
0.8129073 0.8129073 0.8129073
0.7987762 0.8012237 0.8151936
0.7987765 0.8012238 0.8151936
0.7987788 0.8012249 0.8151933
0.7987997 0.8012346 0.815191
0.7989799 0.8013184 0.8151706
0.8004275 0.8020031 0.8150058
0.8065964 0.8046041 0.8143424
0.8130554 0.8117427 0.8130554
0.8129073 0.8129073 0.8129073
0.7986597 0.8011983 0.8152029
0.79866 0.8011984 0.8152029
0.7986624 0.8011996 0.8152026
0.7986836 0.8012093 0.8152002
0.7988665 0.801294 0.8151797
0.8003343 0.801985 0.8150129
0.8065865 0.8046241 0.8143402
0.813055 0.8117461 0.813055
0.8129073 0.8129073 0.8129073
0.7975133 0.8009304 0.8152967
0.7975136 0.8009306 0.8152967
0.7975164 0.8009318 0.8152964
0.7975409 0.8009426 0.8152937
0.7977517 0.8010362 0.8152706
0.799427 0.8017927 0.8150848
0.8064933 0.8047989 0.8143219
0.8130513 0.8117749 0.8130513
0.8129073 0.8129073 0.8129073
0.7965059 0.8044037 0.8148827
0.7965059 0.8044037 0.8148827
0.7965058 0.8044033 0.8148827
0.7965056 0.8043999 0.8148832
0.7965034 0.8043705 0.8148873
0.7964919 0.8041091 0.814923
0.8031121 0.8050791 0.8144588
0.8130201 0.8120202 0.8130201
0.8129073 0.8129073 0.8129073
0.8082135 0.8131199 0.8131199
0.8082135 0.8131199 0.8131199
0.8082134 0.8131199 0.8131199
0.8082129 0.8131199 0.8131199
0.8082082 0.8131201 0.8131201
0.808167 0.813122 0.813122
0.8077968 0.8131385 0.8131385
0.8129073 0.8129073 0.8129073
0.8129073 0.8129073 0.8129073
0.8129073 0.8129073 0.8129073
0.8129073 0.8129073 0.8129073
0.8129073 0.8129073 0.8129073
0.8129073 0.8129073 0.8129073
0.8129073 0.8129073 0.8129073
0.8129073 0.8129073 0.8129073
0.8129073 0.8129073 0.8129073
0.8129073 0.8129073 0.8129073
0.8129073 0.8129073 0.8129073
0.8129073 0.8129073 0.8129073
0.8129073 0.8129073 0.8129073
0.8129073 0.8129073 0.8129073
0.8129073 0.8129073 0.8129073
0.8129073 0.8129073 0.8129073
0.8129073 0.8129073 0.8129073
0.8129073 0.8129073 0.8129073
0.8129073 0.8129073 0.8129073
0.8129073 0.8129073 0.8129073
0.8129073 0.8129073 0.8129073
0.8129073 0.8129073 0.8129073
0.8129073 0.8129073 0.8129073
0.8129073 0.8129073 0.8129073
0.8129073 0.8129073 0.8129073
0.8129073 0.8129073 0.8129073
0.8129073 0.8129073 0.8129073
0.8129073 0.8129073 0.8129073
0.8129073 0.8129073 0.8129073
0.8129073 0.8129073 0.8129073
0.8129073 0.8129073 0.8129073
0.8129073 0.8129073 0.8129073
0.8129073 0.8129073 0.8129073
0.8129073 0.8129073 0.8129073
0.8129073 0.8129073 0.8129073
0.8129073 0.8129073 0.8129073
0.8129073 0.8129073 0.8129073
0.8129073 0.8129073 0.8129073
0.8129073 0.8129073 0.8129073
0.8129073 0.8129073 0.8129073
0.8129073 0.8129073 0.8129073
0.8129073 0.8129073 0.8129073
0.8129073 0.8129073 0.8129073
0.8129073 0.8129073 0.8129073
0.8129073 0.8129073 0.8129073
0.8129073 0.8129073 0.8129073
0.8129073 0.8129073 0.8129073
0.8129073 0.8129073 0.8129073
0.8129073 0.8129073 0.8129073
0.8129073 0.8129073 0.8129073
0.8129073 0.8129073 0.8129073
0.8129073 0.8129073 0.8129073
0.8129073 0.8129073 0.8129073
0.8129073 0.8129073 0.8129073
0.8129073 0.8129073 0.8129073
0.8129073 0.8129073 0.8129073
0.8129073 0.8129073 0.8129073
0.8129073 0.8129073 0.8129073
0.8129073 0.8129073 0.8129073
0.8129073 0.8129073 0.8129073
0.8129073 0.8129073 0.8129073
0.8129073 0.8129073 0.8129073
0.8129073 0.8129073 0.8129073
0.8129073 0.8129073 0.8129073
0.8129073 0.8129073 0.8129073
0.8129073 0.8129073 0.8129073
0.8129073 0.8129073 0.8129073
0.8129073 0.8129073 0.8129073
0.8129073 0.8129073 0.8129073
0.8129073 0.8129073 0.8129073
0.8129073 0.8129073 0.8129073
0.8129073 0.8129073 0.8129073
0.8129073 0.8129073 0.8129073
0.8129073 0.8129073 0.8129073
0.8129073 0.8129073 0.8129073
0.8129073 0.8129073 0.8129073
0.8129073 0.8129073 0.8129073
0.8129073 0.8129073 0.8129073
0.8129073 0.8129073 0.8129073
0.8129073 0.8129073 0.8129073
0.8129073 0.8129073 0.8129073
0.8129073 0.8129073 0.8129073
0.8129073 0.8129073 0.8129073
0.8129073 0.8129073 0.8129073
0.8129073 0.8129073 0.8129073
0.8129073 0.8129073 0.8129073
0.8129073 0.8129073 0.8129073
0.8129073 0.8129073 0.8129073
0.8129073 0.8129073 0.8129073
0.8129073 0.8129073 0.8129073
0.8129073 0.8129073 0.8129073
0.8129073 0.8129073 0.8129073
