luts/AgX_Rec2100-HLG_p3_lim_2x.cube
TITLE "AgX_Formation Rec.2100 HLG P3 limited"
# AgX Rec.2100 HLG 1000 nits Formation P3 Limited LUT
# This LUT expects input to be E Gamut Log2 encoding from -10 stops to +15 stops
# But the end image formation will be from -10 to 10 encoded in Rec.2100-HLG
# Inset matrix can be generated in Rec.2020 with rotation [2.13976149, -1.22827335, -3.05174246],
# Inset: [0.32965205, 0.28051336, 0.12475368], outset = [0.32317438, 0.28325605, 0.0374326].
# HDR purity set to 0.5, HDR extra shoulder power multiplier is 1.2320236886890061
# calculated from power(200 / 100, log10(2.0))
# The image formed has 40% per-channel shifts
# HDR max nits is 200, Reference White nits is 100
LUT_3D_SIZE 9
0.0000181 0.0000132 0.0000503
0.0306282 0.0079898 0
0.0997908 0.0290677 0
0.288944 0.0843003 0
0.6155176 0.2749743 0.1724142
0.715019 0.6084096 0.5757402
0.7450602 0.710328 0.701973
0.7481094 0.7428363 0.7401857
0.7474387 0.7474387 0.7474387
0.0138969 0.0298572 0.0113602
0.0317415 0.0311013 0.0039814
0.1001613 0.0426571 0.0026895
0.2890213 0.0895751 0
0.6154389 0.2761591 0.1725446
0.7150142 0.6084539 0.5757493
0.74506 0.7103294 0.7019732
0.7481094 0.7428363 0.7401857
0.7474387 0.7474387 0.7474387
0.0452947 0.0975671 0.033834
0.0462403 0.098043 0.0133932
0.102295 0.1003434 0.0128477
0.2894463 0.1266194 0.0087487
0.6147649 0.2861934 0.1736819
0.7149725 0.6088387 0.5758294
0.7450583 0.7103413 0.7019755
0.7481094 0.7428368 0.7401858
0.7474387 0.7474387 0.7474387
0.1296764 0.2793454 0.096652
0.1296635 0.2796683 0.0918634
0.1361522 0.2822355 0.0385253
0.2928401 0.2873643 0.036796
0.6097232 0.3566766 0.1836556
0.7146193 0.612082 0.576529
0.7450442 0.710445 0.7019955
0.7481089 0.7428406 0.7401867
0.7474387 0.7474387 0.7474387
0.2852382 0.5985041 0.1661007
0.2852417 0.5986021 0.1638617
0.2852708 0.5994685 0.1424249
0.3555906 0.5971605 0.153516
0.5939417 0.5885151 0.2646392
0.7121662 0.6340962 0.5825512
0.7449243 0.7113241 0.7021707
0.7481045 0.7428743 0.7401948
0.7474387 0.7474387 0.7474387
0.599263 0.7112069 0.5497556
0.5993152 0.711203 0.549774
0.5997694 0.7111698 0.5499337
0.6035887 0.7108881 0.5513194
0.6291999 0.7089117 0.56265
0.7048355 0.7029206 0.6183188
0.7440895 0.7175688 0.7036906
0.7480673 0.7431591 0.7402662
0.7474387 0.7474387 0.7474387
0.7072646 0.7440302 0.6949913
0.7072662 0.74403 0.6949918
0.7072804 0.7440284 0.6949964
0.7074032 0.7440148 0.695036
0.7084433 0.7438992 0.6953806
0.715774 0.7430986 0.6982224
0.741513 0.7407816 0.7131286
0.7478499 0.7447986 0.7409753
0.7474387 0.7474387 0.7474387
0.7419443 0.7477863 0.738011
0.7419443 0.7477863 0.7380111
0.7419449 0.7477862 0.7380113
0.7419495 0.747786 0.7380129
0.7419895 0.747784 0.7380276
0.7423281 0.7477675 0.7381553
0.744175 0.7476718 0.7393179
0.7474534 0.7474433 0.7460811
0.7474387 0.7474387 0.7474387
0.7474387 0.7474387 0.7474387
0.7474387 0.7474387 0.7474387
0.7474387 0.7474387 0.7474387
0.7474387 0.7474387 0.7474387
0.7474387 0.7474387 0.7474387
0.7474387 0.7474387 0.7474387
0.7474387 0.7474387 0.7474387
0.7474387 0.7474387 0.7474387
0.7474387 0.7474387 0.7474387
0.007674 0.0088438 0.0304855
0.029248 0.0078352 0.0311623
0.0991203 0.0245743 0.0278624
0.2898354 0.0788786 0
0.615665 0.2739112 0.172437
0.7150257 0.6083726 0.5757406
0.7450604 0.7103269 0.701973
0.7481094 0.7428362 0.7401857
0.7474387 0.7474387 0.7474387
0.0152724 0.0299719 0.0312342
0.0287038 0.0287036 0.0287069
0.1030282 0.0301399 0
0.2898483 0.0845673 0
0.6155854 0.2751037 0.1725663
0.7150209 0.608417 0.5757498
0.7450602 0.7103283 0.7019733
0.7481094 0.7428363 0.7401857
0.7474387 0.7474387 0.7474387
0.0451023 0.0961396 0.0451128
0.0446582 0.0962052 0.0332377
0.0994622 0.0975648 0.012492
0.2898175 0.1235011 0.0078043
0.6149027 0.2852016 0.1736939
0.7149791 0.6088021 0.5758298
0.7450586 0.7103402 0.7019755
0.7481094 0.7428367 0.7401858
0.7474387 0.7474387 0.7474387
0.1294361 0.2784846 0.1009271
0.1294215 0.2787963 0.0964651
0.1329119 0.2815851 0.0384649
0.2919883 0.2865262 0.0366886
0.6098013 0.3560379 0.1836008
0.7146255 0.6120477 0.5765287
0.7450444 0.7104439 0.7019956
0.7481089 0.7428406 0.7401867
0.7474387 0.7474387 0.7474387
0.285202 0.5983545 0.1683116
0.2852055 0.5984524 0.1661086
0.2852346 0.5993173 0.1450679
0.3548109 0.5971359 0.1532538
0.5938753 0.5884469 0.2644809
0.7121697 0.6340746 0.582547
0.7449245 0.7113231 0.7021707
0.7481045 0.7428743 0.7401948
0.7474387 0.7474387 0.7474387
0.5992057 0.7112093 0.5497301
0.599258 0.7112055 0.5497485
0.5997126 0.7111722 0.5499082
0.6035359 0.7108903 0.5512944
0.6291683 0.7089124 0.5626287
0.7048332 0.7029183 0.6183122
0.7440896 0.717568 0.7036905
0.7480674 0.743159 0.7402661
0.7474387 0.7474387 0.7474387
0.7072628 0.7440303 0.6949906
0.7072645 0.7440301 0.6949911
0.7072786 0.7440286 0.6949956
0.7074014 0.7440149 0.6950353
0.7084416 0.7438993 0.6953799
0.7157729 0.7430986 0.6982218
0.7415129 0.7407815 0.7131284
0.7478499 0.7447986 0.7409753
0.7474387 0.7474387 0.7474387
0.7419442 0.7477863 0.738011
0.7419443 0.7477863 0.738011
0.7419448 0.7477862 0.7380112
0.7419494 0.747786 0.7380129
0.7419894 0.747784 0.7380276
0.742328 0.7477675 0.7381553
0.744175 0.7476718 0.7393179
0.7474534 0.7474433 0.7460811
0.7474387 0.7474387 0.7474387
0.7474387 0.7474387 0.7474387
0.7474387 0.7474387 0.7474387
0.7474387 0.7474387 0.7474387
0.7474387 0.7474387 0.7474387
0.7474387 0.7474387 0.7474387
0.7474387 0.7474387 0.7474387
0.7474387 0.7474387 0.7474387
0.7474387 0.7474387 0.7474387
0.7474387 0.7474387 0.7474387
0.022356 0.0270125 0.0870881
0.0287843 0.0201379 0.0991063
0.0964333 0.0258192 0.102381
0.2860302 0.0709761 0.0858581
0.6170237 0.2642714 0.1727341
0.7150845 0.6080489 0.5757453
0.7450628 0.7103171 0.7019732
0.7481095 0.7428359 0.7401857
0.7474387 0.7474387 0.7474387
0.0270512 0.0397555 0.093544
0.0266347 0.0322783 0.1036191
0.0980199 0.026244 0.1040663
0.2872412 0.0712143 0.0807674
0.6169347 0.265537 0.1728528
0.7150796 0.6080935 0.5757544
0.7450626 0.7103184 0.7019735
0.7481095 0.7428359 0.7401857
0.7474387 0.7474387 0.7474387
0.0496498 0.0975005 0.1012621
0.0487185 0.0956715 0.0993632
0.0927008 0.0927003 0.0927084
0.2993775 0.0876437 0
0.6161731 0.2762304 0.1738897
0.7150373 0.6084812 0.5758336
0.745061 0.7103304 0.7019757
0.7481094 0.7428364 0.7401858
0.7474387 0.7474387 0.7474387
0.1285408 0.2737107 0.1313345
0.1283275 0.2735412 0.1283574
0.1278138 0.2753516 0.0950184
0.2843874 0.2790494 0.0357308
0.6105241 0.3503306 0.1831745
0.7146799 0.6117476 0.5765265
0.7450468 0.7104341 0.7019957
0.7481089 0.7428403 0.7401867
0.7474387 0.7474387 0.7474387
0.2848863 0.5970532 0.1863317
0.2848898 0.5971495 0.1843939
0.2849189 0.5980005 0.1661769
0.3478226 0.5969275 0.1509605
0.593293 0.5878485 0.2630947
0.7122003 0.6338859 0.5825108
0.7449267 0.7113139 0.7021707
0.7481045 0.7428739 0.7401948
0.7474387 0.7474387 0.7474387
0.5987032 0.7112312 0.5495073
0.598756 0.7112274 0.5495257
0.5992149 0.7111938 0.5496859
0.603073 0.7109097 0.5510755
0.6288916 0.7089185 0.5624429
0.7048138 0.7028982 0.6182545
0.7440909 0.7175617 0.7036895
0.7480674 0.7431587 0.7402661
0.7474387 0.7474387 0.7474387
0.7072473 0.7440314 0.6949842
0.7072489 0.7440312 0.6949848
0.707263 0.7440296 0.6949893
0.707386 0.7440159 0.695029
0.7084271 0.7439002 0.6953737
0.7157634 0.7430989 0.6982164
0.741512 0.7407806 0.7131265
0.7478499 0.7447985 0.7409753
0.7474387 0.7474387 0.7474387
0.7419436 0.7477863 0.7380108
0.7419437 0.7477863 0.7380108
0.7419442 0.7477863 0.738011
0.7419488 0.747786 0.7380126
0.7419889 0.7477841 0.7380273
0.7423275 0.7477675 0.738155
0.7441748 0.7476719 0.7393176
0.7474534 0.7474433 0.746081
0.7474387 0.7474387 0.7474387
0.7474387 0.7474387 0.7474387
0.7474387 0.7474387 0.7474387
0.7474387 0.7474387 0.7474387
0.7474387 0.7474387 0.7474387
0.7474387 0.7474387 0.7474387
0.7474387 0.7474387 0.7474387
0.7474387 0.7474387 0.7474387
0.7474387 0.7474387 0.7474387
0.7474387 0.7474387 0.7474387
0.0648963 0.0788664 0.2521564
0.0652914 0.0764578 0.2577367
0.095055 0.071622 0.278529
0.2777427 0.0809192 0.2945095
0.6192634 0.2412595 0.2728632
0.7156251 0.6051187 0.5758457
0.7450839 0.7102312 0.7019751
0.7481099 0.7428328 0.7401856
0.7474387 0.7474387 0.7474387
0.0660423 0.0828626 0.252777
0.0664007 0.0806922 0.2580051
0.0930004 0.0725539 0.2822625
0.278243 0.0810807 0.2950373
0.6194011 0.2412898 0.2716973
0.7156197 0.6051661 0.575854
0.7450837 0.7102325 0.7019754
0.7481099 0.7428328 0.7401856
0.7474387 0.7474387 0.7474387
0.0790985 0.1182591 0.2695304
0.078853 0.1164088 0.2716497
0.0781491 0.0949659 0.3036599
0.2825572 0.0824823 0.2995876
0.6206119 0.2415399 0.2609868
0.7155732 0.6055778 0.5759261
0.745082 0.7102445 0.7019777
0.7481098 0.7428333 0.7401857
0.7474387 0.7474387 0.7474387
0.1412669 0.277436 0.2880256
0.1409812 0.2768746 0.287445
0.1384538 0.2719075 0.2823071
0.2669164 0.266915 0.2669372
0.6165064 0.3093627 0.2277012
0.7151799 0.6090384 0.5765605
0.7450677 0.7103489 0.7019975
0.7481093 0.7428371 0.7401867
0.7474387 0.7474387 0.7474387
0.2845957 0.5898897 0.2943388
0.2845181 0.5898431 0.2932957
0.2842031 0.590011 0.2842981
0.2911193 0.5953429 0.1819684
0.5879413 0.5823498 0.2506099
0.7124819 0.632203 0.5822198
0.7449462 0.7112331 0.7021709
0.7481049 0.7428708 0.7401948
0.7474387 0.7474387 0.7474387
0.5940905 0.7114364 0.5475358
0.594148 0.7114322 0.5475546
0.5946478 0.7113962 0.547718
0.5988372 0.7110915 0.5491375
0.6263982 0.7089783 0.5607956
0.7046435 0.702722 0.6177482
0.7441018 0.7175064 0.7036806
0.7480678 0.7431558 0.740266
0.7474387 0.7474387 0.7474387
0.7071108 0.7440407 0.6949289
0.7071125 0.7440406 0.6949295
0.7071267 0.744039 0.694934
0.7072506 0.7440252 0.6949738
0.7082996 0.7439085 0.6953192
0.7156802 0.7431016 0.6981693
0.7415044 0.7407728 0.7131099
0.74785 0.7447977 0.7409745
0.7474387 0.7474387 0.7474387
0.7419385 0.7477865 0.7380084
0.7419386 0.7477865 0.7380085
0.7419391 0.7477865 0.7380086
0.7419437 0.7477863 0.7380103
0.7419838 0.7477843 0.738025
0.7423227 0.7477677 0.7381527
0.7441732 0.747672 0.7393153
0.7474534 0.7474433 0.7460802
0.7474387 0.7474387 0.7474387
0.7474387 0.7474387 0.7474387
0.7474387 0.7474387 0.7474387
0.7474387 0.7474387 0.7474387
0.7474387 0.7474387 0.7474387
0.7474387 0.7474387 0.7474387
0.7474387 0.7474387 0.7474387
0.7474387 0.7474387 0.7474387
0.7474387 0.7474387 0.7474387
0.7474387 0.7474387 0.7474387
0.1666438 0.2082159 0.6134884
0.1680433 0.2083394 0.6138169
0.1826002 0.2112148 0.6144118
0.2800426 0.2304709 0.6176572
0.5901919 0.328276 0.606448
0.715557 0.6033638 0.6131964
0.7452779 0.7094587 0.7020078
0.7481133 0.7428055 0.7401854
0.7474387 0.7474387 0.7474387
0.1668135 0.2093237 0.6130174
0.1669793 0.2086826 0.6143111
0.1815693 0.2114917 0.6149545
0.2796457 0.2308133 0.6180262
0.5902337 0.3283575 0.6064867
0.715562 0.6033674 0.6131582
0.7452777 0.7094602 0.702008
0.7481133 0.7428056 0.7401854
0.7474387 0.7474387 0.7474387
0.1683092 0.2186396 0.6090639
0.1684641 0.2180886 0.6102814
0.1718044 0.213899 0.6197124
0.275986 0.233837 0.6212541
0.5905977 0.3290674 0.6068223
0.7156055 0.6033983 0.6128232
0.7452759 0.7094728 0.7020101
0.7481133 0.742806 0.7401855
0.7474387 0.7474387 0.7474387
0.1941192 0.3042214 0.6085418
0.1939946 0.3036428 0.608846
0.1929129 0.2984586 0.6116465
0.2112537 0.2555486 0.652851
0.5936774 0.3351587 0.6096619
0.7159902 0.6036647 0.6097197
0.7452599 0.7095823 0.702028
0.7481128 0.7428099 0.7401864
0.7474387 0.7474387 0.7474387
0.3064084 0.5877349 0.6006067
0.3063735 0.587684 0.6005572
0.3060676 0.5872385 0.6001235
0.3033256 0.5832145 0.5962078
0.5730696 0.5730686 0.5730837
0.7141058 0.6233035 0.5989023
0.7451254 0.7105091 0.702186
0.7481084 0.7428438 0.7401945
0.7474387 0.7474387 0.7474387
0.5669603 0.7120402 0.5744004
0.5669495 0.7120404 0.5743109
0.5668547 0.7120418 0.5735235
0.5719834 0.7116394 0.5720526
0.6094664 0.7089711 0.5710179
0.7030854 0.7011099 0.6130869
0.744202 0.7170147 0.7036096
0.748071 0.7431303 0.7402651
0.7474387 0.7474387 0.7474387
0.7058687 0.7441285 0.6944406
0.7058705 0.7441283 0.6944411
0.7058857 0.7441266 0.6944458
0.7060187 0.7441117 0.6944863
0.7071418 0.743986 0.6948381
0.7149337 0.7431274 0.697753
0.741438 0.7407045 0.7129639
0.7478509 0.7447907 0.740968
0.7474387 0.7474387 0.7474387
0.7418936 0.7477888 0.7379882
0.7418936 0.7477888 0.7379882
0.7418942 0.7477887 0.7379884
0.7418988 0.7477885 0.7379901
0.7419392 0.7477865 0.7380048
0.7422808 0.7477698 0.7381327
0.7441596 0.7476728 0.7392953
0.7474535 0.7474433 0.7460731
0.7474387 0.7474387 0.7474387
0.7474387 0.7474387 0.7474387
0.7474387 0.7474387 0.7474387
0.7474387 0.7474387 0.7474387
0.7474387 0.7474387 0.7474387
0.7474387 0.7474387 0.7474387
0.7474387 0.7474387 0.7474387
0.7474387 0.7474387 0.7474387
0.7474387 0.7474387 0.7474387
0.7474387 0.7474387 0.7474387
0.5034693 0.5367665 0.7292378
0.5037352 0.5368642 0.7292142
0.5060255 0.53771 0.7290098
0.5239896 0.5446437 0.7273372
0.5958641 0.5717178 0.7214577
0.7039337 0.6335497 0.7096579
0.7452066 0.7092073 0.7118531
0.7481446 0.7425602 0.7401889
0.7474387 0.7474387 0.7474387
0.5033053 0.5367531 0.7292726
0.5035718 0.5368508 0.729249
0.5058668 0.5376974 0.7290441
0.5238654 0.5446362 0.7273685
0.5958503 0.5717459 0.7214697
0.7039351 0.6335531 0.7096591
0.7452068 0.7092074 0.7118519
0.7481446 0.7425602 0.7401889
0.7474387 0.7474387 0.7474387
0.5018524 0.5366318 0.7295778
0.5021239 0.5367302 0.7295538
0.5044613 0.5375828 0.7293455
0.5227659 0.5445669 0.7276427
0.595729 0.5719913 0.7215741
0.7039468 0.633583 0.7096696
0.7452088 0.7092085 0.7118416
0.7481445 0.7425607 0.740189
0.7474387 0.7474387 0.7474387
0.4875051 0.5352141 0.7323842
0.4878154 0.5353197 0.7323563
0.4904968 0.5362343 0.7321148
0.5118637 0.5436869 0.7301492
0.5945841 0.5741361 0.7224939
0.7040486 0.6338432 0.709761
0.7452258 0.7092178 0.7117515
0.748144 0.7425648 0.7401899
0.7474387 0.7474387 0.7474387
0.4742978 0.583135 0.7362294
0.4742982 0.5830966 0.7362421
0.4743031 0.5827603 0.7363526
0.4744553 0.5797426 0.7373524
0.5577799 0.5820426 0.7351498
0.7049129 0.6360464 0.7105366
0.7453762 0.7092984 0.7109205
0.7481394 0.7426004 0.7401972
0.7474387 0.7474387 0.7474387
0.5971174 0.7058291 0.7116794
0.5971121 0.7058276 0.7116781
0.5970655 0.7058144 0.7116662
0.5966572 0.7056988 0.7115622
0.5929615 0.7046569 0.7106251
0.6983485 0.6983482 0.6983523
0.7447566 0.714614 0.7080001
0.7481003 0.7429013 0.7402623
0.7474387 0.7474387 0.7474387
0.6991795 0.7443667 0.7010325
0.6991792 0.7443667 0.7010299
0.6991764 0.7443668 0.7010074
0.6991523 0.7443678 0.7008095
0.7004604 0.744193 0.7004777
0.7102271 0.7431075 0.700242
0.7408321 0.7400814 0.7116287
0.7478594 0.7447297 0.7409128
0.7474387 0.7474387 0.7474387
0.7414841 0.747809 0.7378098
0.7414842 0.747809 0.7378098
0.7414847 0.747809 0.73781
0.7414897 0.7478088 0.7378117
0.7415332 0.7478067 0.7378266
0.7419 0.7477888 0.7379562
0.7440374 0.7476801 0.7391174
0.7474541 0.7474435 0.7460111
0.7474387 0.7474387 0.7474387
0.7474387 0.7474387 0.7474387
0.7474387 0.7474387 0.7474387
0.7474387 0.7474387 0.7474387
0.7474387 0.7474387 0.7474387
0.7474387 0.7474387 0.7474387
0.7474387 0.7474387 0.7474387
0.7474387 0.7474387 0.7474387
0.7474387 0.7474387 0.7474387
0.7474387 0.7474387 0.7474387
0.6829946 0.6905233 0.7504443
0.6830018 0.6905265 0.7504431
0.6830641 0.6905539 0.750432
0.6836021 0.690791 0.750336
0.6878998 0.6927206 0.7495698
0.7063333 0.7001157 0.7471408
0.7409236 0.7176829 0.7430888
0.7480715 0.7428313 0.7436594
0.7474387 0.7474387 0.7474387
0.6829903 0.6905227 0.7504461
0.6829975 0.6905259 0.7504448
0.6830598 0.6905533 0.7504337
0.6835979 0.6907905 0.7503377
0.6878964 0.6927202 0.7495713
0.7063329 0.7001166 0.7471413
0.7409236 0.717683 0.7430889
0.7480715 0.7428313 0.7436593
0.7474387 0.7474387 0.7474387
0.6829526 0.6905173 0.750461
0.6829598 0.6905205 0.7504598
0.6830223 0.6905479 0.7504486
0.6835613 0.6907854 0.7503524
0.6878668 0.692717 0.7495844
0.7063298 0.7001241 0.747146
0.7409241 0.7176841 0.7430893
0.7480715 0.7428313 0.743659
0.7474387 0.7474387 0.7474387
0.6826192 0.6904688 0.7505927
0.6826265 0.690472 0.7505913
0.6826899 0.6904997 0.75058
0.6832374 0.6907394 0.7504819
0.6876052 0.6926881 0.7496993
0.7063025 0.7001897 0.7471867
0.7409287 0.7176931 0.7430936
0.7480715 0.7428317 0.7436558
0.7474387 0.7474387 0.7474387
0.6793085 0.6899188 0.7518229
0.679317 0.6899223 0.7518214
0.6793907 0.6899528 0.7518078
0.6800259 0.6902169 0.7516906
0.6850389 0.6923441 0.7507627
0.7060415 0.700765 0.7475461
0.7409687 0.717772 0.7431302
0.7480714 0.7428347 0.743628
0.7474387 0.7474387 0.7474387
0.6768544 0.7015882 0.7538398
0.6768544 0.7015871 0.7538404
0.6768542 0.7015771 0.7538451
0.6768531 0.7014901 0.7538866
0.6768692 0.7007162 0.7542609
0.6966847 0.7027543 0.7526748
0.741309 0.7184416 0.7434424
0.748071 0.7428609 0.7433706
0.7474387 0.7474387 0.7474387
0.7071605 0.7418626 0.7441454
0.7071604 0.7418625 0.7441454
0.7071589 0.7418619 0.7441448
0.707146 0.7418569 0.7441402
0.7070328 0.7418123 0.7440997
0.7060135 0.7414117 0.7437357
0.7390243 0.7390242 0.7390257
0.7478761 0.7444687 0.7424293
0.7474387 0.7474387 0.7474387
0.7395119 0.7478744 0.7401145
0.7395119 0.7478744 0.7401144
0.7395118 0.7478744 0.7401136
0.7395108 0.7478746 0.7401062
0.739502 0.7478756 0.740041
0.7399799 0.7478548 0.7399855
0.7430864 0.7477153 0.7399265
0.7474602 0.7474454 0.7454455
0.7474387 0.7474387 0.7474387
0.7474387 0.7474387 0.7474387
0.7474387 0.7474387 0.7474387
0.7474387 0.7474387 0.7474387
0.7474387 0.7474387 0.7474387
0.7474387 0.7474387 0.7474387
0.7474387 0.7474387 0.7474387
0.7474387 0.7474387 0.7474387
0.7474387 0.7474387 0.7474387
0.7474387 0.7474387 0.7474387
0.7328856 0.7353489 0.7497981
0.7328859 0.735349 0.7497981
0.7328883 0.7353502 0.7497978
0.7329092 0.7353599 0.7497955
0.7330901 0.7354442 0.7497751
0.7345463 0.7361347 0.7496094
0.740835 0.7387756 0.7489358
0.747596 0.746202 0.747596
0.7474387 0.7474387 0.7474387
0.7328855 0.7353489 0.7497981
0.7328857 0.735349 0.7497981
0.7328881 0.7353501 0.7497978
0.7329091 0.7353599 0.7497955
0.7330899 0.7354442 0.7497751
0.7345462 0.7361347 0.7496094
0.740835 0.7387756 0.7489358
0.747596 0.7462021 0.747596
0.7474387 0.7474387 0.7474387
0.7328839 0.7353486 0.7497983
0.7328842 0.7353487 0.7497982
0.7328866 0.7353498 0.749798
0.7329075 0.7353595 0.7497956
0.7330884 0.7354439 0.7497752
0.7345449 0.7361344 0.7496095
0.7408349 0.7387759 0.7489358
0.747596 0.7462021 0.747596
0.7474387 0.7474387 0.7474387
0.7328707 0.7353457 0.7497993
0.732871 0.7353458 0.7497993
0.7328734 0.735347 0.749799
0.7328943 0.7353567 0.7497966
0.7330755 0.7354411 0.7497763
0.7345343 0.7361324 0.7496103
0.7408337 0.7387782 0.7489356
0.747596 0.7462025 0.747596
0.7474387 0.7474387 0.7474387
0.7327536 0.7353204 0.7498086
0.7327538 0.7353205 0.7498086
0.7327563 0.7353217 0.7498083
0.7327776 0.7353315 0.7498059
0.7329614 0.7354168 0.7497853
0.7344401 0.7361142 0.7496175
0.7408234 0.7387987 0.7489334
0.7475955 0.746206 0.7475955
0.7474387 0.7474387 0.7474387
0.7316028 0.7350534 0.7499023
0.7316031 0.7350536 0.7499022
0.7316059 0.7350548 0.7499019
0.7316304 0.7350657 0.7498993
0.7318417 0.7351597 0.7498761
0.7335248 0.7359217 0.7496896
0.740726 0.7389783 0.7489146
0.7475916 0.7462366 0.7475916
0.7474387 0.7474387 0.7474387
0.7305709 0.7386275 0.7494769
0.7305709 0.7386275 0.7494769
0.7305709 0.7386271 0.7494769
0.7305707 0.7386236 0.7494774
0.7305687 0.7385932 0.7494816
0.7305593 0.738323 0.7495183
0.7372543 0.7392712 0.7490543
0.7475586 0.7464965 0.7475586
0.7474387 0.7474387 0.7474387
0.7424914 0.7476627 0.7476627
0.7424913 0.7476627 0.7476627
0.7424913 0.7476627 0.7476627
0.7424907 0.7476627 0.7476627
0.7424858 0.7476629 0.7476629
0.7424428 0.7476648 0.7476648
0.7420566 0.7476821 0.7476821
0.7474387 0.7474387 0.7474387
0.7474387 0.7474387 0.7474387
0.7474387 0.7474387 0.7474387
0.7474387 0.7474387 0.7474387
0.7474387 0.7474387 0.7474387
0.7474387 0.7474387 0.7474387
0.7474387 0.7474387 0.7474387
0.7474387 0.7474387 0.7474387
0.7474387 0.7474387 0.7474387
0.7474387 0.7474387 0.7474387
0.7474387 0.7474387 0.7474387
0.7474387 0.7474387 0.7474387
0.7474387 0.7474387 0.7474387
0.7474387 0.7474387 0.7474387
0.7474387 0.7474387 0.7474387
0.7474387 0.7474387 0.7474387
0.7474387 0.7474387 0.7474387
0.7474387 0.7474387 0.7474387
0.7474387 0.7474387 0.7474387
0.7474387 0.7474387 0.7474387
0.7474387 0.7474387 0.7474387
0.7474387 0.7474387 0.7474387
0.7474387 0.7474387 0.7474387
0.7474387 0.7474387 0.7474387
0.7474387 0.7474387 0.7474387
0.7474387 0.7474387 0.7474387
0.7474387 0.7474387 0.7474387
0.7474387 0.7474387 0.7474387
0.7474387 0.7474387 0.7474387
0.7474387 0.7474387 0.7474387
0.7474387 0.7474387 0.7474387
0.7474387 0.7474387 0.7474387
0.7474387 0.7474387 0.7474387
0.7474387 0.7474387 0.7474387
0.7474387 0.7474387 0.7474387
0.7474387 0.7474387 0.7474387
0.7474387 0.7474387 0.7474387
0.7474387 0.7474387 0.7474387
0.7474387 0.7474387 0.7474387
0.7474387 0.7474387 0.7474387
0.7474387 0.7474387 0.7474387
0.7474387 0.7474387 0.7474387
0.7474387 0.7474387 0.7474387
0.7474387 0.7474387 0.7474387
0.7474387 0.7474387 0.7474387
0.7474387 0.7474387 0.7474387
0.7474387 0.7474387 0.7474387
0.7474387 0.7474387 0.7474387
0.7474387 0.7474387 0.7474387
0.7474387 0.7474387 0.7474387
0.7474387 0.7474387 0.7474387
0.7474387 0.7474387 0.7474387
0.7474387 0.7474387 0.7474387
0.7474387 0.7474387 0.7474387
0.7474387 0.7474387 0.7474387
0.7474387 0.7474387 0.7474387
0.7474387 0.7474387 0.7474387
0.7474387 0.7474387 0.7474387
0.7474387 0.7474387 0.7474387
0.7474387 0.7474387 0.7474387
0.7474387 0.7474387 0.7474387
0.7474387 0.7474387 0.7474387
0.7474387 0.7474387 0.7474387
0.7474387 0.7474387 0.7474387
0.7474387 0.7474387 0.7474387
0.7474387 0.7474387 0.7474387
0.7474387 0.7474387 0.7474387
0.7474387 0.7474387 0.7474387
0.7474387 0.7474387 0.7474387
0.7474387 0.7474387 0.7474387
0.7474387 0.7474387 0.7474387
0.7474387 0.7474387 0.7474387
0.7474387 0.7474387 0.7474387
0.7474387 0.7474387 0.7474387
0.7474387 0.7474387 0.7474387
0.7474387 0.7474387 0.7474387
0.7474387 0.7474387 0.7474387
0.7474387 0.7474387 0.7474387
0.7474387 0.7474387 0.7474387
0.7474387 0.7474387 0.7474387
0.7474387 0.7474387 0.7474387
0.7474387 0.7474387 0.7474387
0.7474387 0.7474387 0.7474387
0.7474387 0.7474387 0.7474387
0.7474387 0.7474387 0.7474387
0.7474387 0.7474387 0.7474387
0.7474387 0.7474387 0.7474387
0.7474387 0.7474387 0.7474387
0.7474387 0.7474387 0.7474387
0.7474387 0.7474387 0.7474387
0.7474387 0.7474387 0.7474387
0.7474387 0.7474387 0.7474387
