luts/AgX_Rec2100-HLG_p3_lim_5x.cube
TITLE "AgX_Formation Rec.2100 HLG P3 limited"
# AgX Rec.2100 HLG 1000 nits Formation P3 Limited LUT
# This LUT expects input to be E Gamut Log2 encoding from -10 stops to +15 stops
# But the end image formation will be from -10 to 10 encoded in Rec.2100-HLG
# Inset matrix can be generated in Rec.2020 with rotation [2.13976149, -1.22827335, -3.05174246],
# Inset: [0.32965205, 0.28051336, 0.12475368], outset = [0.32317438, 0.28325605, 0.0374326].
# HDR purity set to 0.5, HDR extra shoulder power multiplier is 1.6233454099638263
# calculated from power(500 / 100, log10(2.0))
# The image formed has 40% per-channel shifts
# HDR max nits is 500, Reference White nits is 100
LUT_3D_SIZE 9
0.0001755 0.0001565 0.0003256
0.0312489 0.0082173 0
0.1001215 0.0291814 0
0.2893295 0.0844081 0
0.6847826 0.2841208 0.1457609
0.8532847 0.7266052 0.6845574
0.8906267 0.8559911 0.8470865
0.8938423 0.889368 0.8870837
0.8932722 0.8932722 0.8932722
0.0141756 0.0304607 0.0115309
0.0322521 0.0316042 0.0040458
0.1004546 0.0427973 0.0027021
0.2894036 0.0896888 0
0.6847422 0.2856079 0.145907
0.8532795 0.7266611 0.6845686
0.8906265 0.8559925 0.8470868
0.8938423 0.8893681 0.8870837
0.8932722 0.8932722 0.8932722
0.0454572 0.0979185 0.0339357
0.0463553 0.0982533 0.0134217
0.1024714 0.1005167 0.0128699
0.2898068 0.1267718 0.0087581
0.6843941 0.2981946 0.147175
0.8532336 0.7271464 0.6846669
0.8906248 0.8560052 0.8470896
0.8938423 0.8893685 0.8870838
0.8932722 0.8932722 0.8932722
0.130097 0.2802511 0.0969703
0.1300478 0.2804967 0.0921413
0.1362911 0.2825341 0.0385661
0.2931571 0.2876752 0.0368358
0.6817146 0.3871936 0.1579134
0.852846 0.7312298 0.6855268
0.8906098 0.8561148 0.8471137
0.8938418 0.8893718 0.8870847
0.8932722 0.8932722 0.8932722
0.3350447 0.6662406 0.217042
0.3350507 0.6663238 0.215005
0.335103 0.6670594 0.1959758
0.3896526 0.6687855 0.1259445
0.6752145 0.6693044 0.2409998
0.8501796 0.7586165 0.6929948
0.8904833 0.8570424 0.8473247
0.8938381 0.8894004 0.8870921
0.8932722 0.8932722 0.8932722
0.7177196 0.8485599 0.6550124
0.7177833 0.848556 0.6550332
0.7183363 0.8485219 0.6552148
0.722981 0.8482331 0.6567937
0.7538516 0.8462168 0.6699524
0.8429004 0.8407271 0.7390343
0.8896228 0.8635305 0.8491401
0.8938064 0.8896426 0.887157
0.8932722 0.8932722 0.8932722
0.8528613 0.8896416 0.8396964
0.852863 0.8896414 0.839697
0.8528778 0.8896397 0.8397022
0.8530069 0.8896254 0.8397478
0.854098 0.8895041 0.8401433
0.8616845 0.8886778 0.8433906
0.8872212 0.8865312 0.859985
0.8936217 0.8910295 0.887791
0.8932722 0.8932722 0.8932722
0.8885744 0.8935705 0.8851635
0.8885745 0.8935705 0.8851635
0.8885749 0.8935705 0.8851637
0.8885789 0.8935703 0.8851652
0.8886131 0.8935686 0.8851786
0.8889023 0.8935543 0.8852953
0.8904806 0.8934718 0.8863399
0.8932843 0.893276 0.8921491
0.8932722 0.8932722 0.8932722
0.8932722 0.8932722 0.8932722
0.8932722 0.8932722 0.8932722
0.8932722 0.8932722 0.8932722
0.8932722 0.8932722 0.8932722
0.8932722 0.8932722 0.8932722
0.8932722 0.8932722 0.8932722
0.8932722 0.8932722 0.8932722
0.8932722 0.8932722 0.8932722
0.8932722 0.8932722 0.8932722
0.007847 0.0090431 0.0311724
0.0298494 0.007996 0.0317946
0.0995482 0.0246804 0.0279862
0.2902255 0.0789803 0
0.684935 0.2827773 0.1457919
0.8532928 0.7265589 0.6845587
0.890627 0.8559899 0.8470865
0.8938423 0.889368 0.8870837
0.8932722 0.8932722 0.8932722
0.0155851 0.0305872 0.0318674
0.0291857 0.0291855 0.0291888
0.1033003 0.0302329 0
0.290235 0.0846754 0
0.6848933 0.2842748 0.1459368
0.8532875 0.7266148 0.6845699
0.8906268 0.8559914 0.8470868
0.8938423 0.889368 0.8870837
0.8932722 0.8932722 0.8932722
0.0453253 0.0966149 0.0453358
0.0448082 0.0965294 0.033333
0.0996427 0.0977421 0.0125147
0.2901803 0.1236504 0.0078124
0.6845352 0.2969451 0.1471945
0.8532416 0.7271005 0.6846681
0.8906251 0.856004 0.8470896
0.8938423 0.8893684 0.8870838
0.8932722 0.8932722 0.8932722
0.1298921 0.2794653 0.1012867
0.129841 0.2796996 0.0967825
0.1330472 0.2818827 0.0385056
0.2923043 0.2868361 0.0367283
0.6817861 0.38638 0.1578623
0.8528534 0.7311871 0.6855271
0.8906101 0.8561136 0.8471137
0.8938418 0.8893717 0.8870847
0.8932722 0.8932722 0.8932722
0.3349782 0.6660824 0.2190324
0.3349843 0.6661654 0.2170199
0.3350363 0.6668993 0.1982412
0.3886689 0.6687169 0.1256586
0.6751125 0.6692007 0.2408071
0.8501836 0.7585902 0.6929898
0.8904836 0.8570413 0.8473247
0.8938381 0.8894004 0.8870921
0.8932722 0.8932722 0.8932722
0.7176496 0.8485619 0.6549825
0.7177134 0.8485579 0.6550033
0.7182669 0.8485238 0.6551849
0.7229167 0.8482348 0.6567642
0.7538135 0.8462169 0.6699265
0.8428975 0.840724 0.7390254
0.889623 0.8635297 0.84914
0.8938064 0.8896425 0.887157
0.8932722 0.8932722 0.8932722
0.8528594 0.8896417 0.8396955
0.8528611 0.8896415 0.8396961
0.8528759 0.8896399 0.8397014
0.8530051 0.8896255 0.8397469
0.8540962 0.8895042 0.8401424
0.8616834 0.8886779 0.8433899
0.8872211 0.8865311 0.8599847
0.8936217 0.8910295 0.887791
0.8932722 0.8932722 0.8932722
0.8885743 0.8935705 0.8851635
0.8885744 0.8935705 0.8851635
0.8885749 0.8935705 0.8851637
0.8885788 0.8935703 0.8851652
0.888613 0.8935686 0.8851786
0.8889022 0.8935543 0.8852952
0.8904806 0.8934718 0.8863399
0.8932843 0.893276 0.8921491
0.8932722 0.8932722 0.8932722
0.8932722 0.8932722 0.8932722
0.8932722 0.8932722 0.8932722
0.8932722 0.8932722 0.8932722
0.8932722 0.8932722 0.8932722
0.8932722 0.8932722 0.8932722
0.8932722 0.8932722 0.8932722
0.8932722 0.8932722 0.8932722
0.8932722 0.8932722 0.8932722
0.8932722 0.8932722 0.8932722
0.0224858 0.0271843 0.0875727
0.0290493 0.0204858 0.099214
0.096612 0.025867 0.1025697
0.2867593 0.071157 0.0860754
0.6863575 0.2705496 0.1461725
0.8533635 0.7261533 0.6845713
0.8906295 0.8559798 0.8470867
0.8938424 0.8893677 0.8870837
0.8932722 0.8932722 0.8932722
0.027205 0.0400024 0.0940352
0.0267539 0.0324344 0.1040661
0.0981926 0.0262902 0.1042486
0.2879894 0.0713998 0.0809768
0.6863049 0.2721466 0.1463059
0.8533582 0.7262096 0.6845824
0.8906293 0.8559812 0.847087
0.8938423 0.8893677 0.8870837
0.8932722 0.8932722 0.8932722
0.0498781 0.097949 0.101727
0.0489452 0.0961171 0.099825
0.0928123 0.0928118 0.0928199
0.2995302 0.087684 0
0.6858536 0.2856161 0.1474667
0.8533117 0.7266986 0.6846796
0.8906276 0.8559938 0.8470898
0.8938423 0.8893681 0.8870838
0.8932722 0.8932722 0.8932722
0.1292301 0.2751785 0.1320385
0.1290004 0.2749758 0.1290306
0.1281702 0.2761191 0.0952879
0.2846948 0.2793508 0.0357694
0.682463 0.3791188 0.1574751
0.8529187 0.7308124 0.6855305
0.8906126 0.8561035 0.8471139
0.8938419 0.8893714 0.8870847
0.8932722 0.8932722 0.8932722
0.3344017 0.6647067 0.2355277
0.3344074 0.664788 0.2337038
0.3344563 0.6655068 0.216826
0.3798815 0.6681226 0.1231538
0.6742175 0.6682904 0.2391229
0.8502191 0.7583596 0.6929468
0.8904859 0.8570317 0.8473246
0.8938381 0.8894001 0.8870921
0.8932722 0.8932722 0.8932722
0.7170355 0.8485793 0.6547214
0.7170998 0.8485754 0.6547422
0.7176587 0.848541 0.6549241
0.7223519 0.8482497 0.6565064
0.7534795 0.8462178 0.6697005
0.8428713 0.840697 0.7389474
0.8896242 0.8635233 0.8491387
0.8938064 0.8896423 0.887157
0.8932722 0.8932722 0.8932722
0.8528429 0.8896428 0.8396882
0.8528446 0.8896426 0.8396888
0.8528594 0.889641 0.839694
0.8529887 0.8896266 0.8397396
0.8540808 0.8895052 0.8401352
0.8616735 0.8886782 0.8433837
0.8872202 0.8865302 0.8599826
0.8936217 0.8910294 0.8877909
0.8932722 0.8932722 0.8932722
0.8885738 0.8935706 0.8851632
0.8885739 0.8935706 0.8851633
0.8885743 0.8935705 0.8851634
0.8885783 0.8935703 0.885165
0.8886125 0.8935687 0.8851784
0.8889017 0.8935543 0.885295
0.8904804 0.8934718 0.8863396
0.8932843 0.893276 0.892149
0.8932722 0.8932722 0.8932722
0.8932722 0.8932722 0.8932722
0.8932722 0.8932722 0.8932722
0.8932722 0.8932722 0.8932722
0.8932722 0.8932722 0.8932722
0.8932722 0.8932722 0.8932722
0.8932722 0.8932722 0.8932722
0.8932722 0.8932722 0.8932722
0.8932722 0.8932722 0.8932722
0.8932722 0.8932722 0.8932722
0.0650134 0.0790086 0.2526116
0.0653778 0.0765588 0.2580783
0.0951092 0.0717069 0.2785011
0.2777392 0.0809611 0.2945049
0.6894443 0.2335345 0.2754432
0.8540165 0.7224761 0.6847589
0.8906516 0.8558907 0.8470884
0.8938427 0.8893651 0.8870837
0.8932722 0.8932722 0.8932722
0.0661921 0.0830505 0.2533504
0.0665198 0.0808368 0.2584685
0.0930566 0.0726369 0.2822343
0.2782395 0.0811223 0.2950327
0.6896447 0.2335552 0.2739152
0.8540105 0.722536 0.684769
0.8906514 0.8558921 0.8470887
0.8938427 0.8893651 0.8870837
0.8932722 0.8932722 0.8932722
0.0793885 0.1186911 0.2705216
0.0791407 0.1168321 0.2726438
0.0782864 0.0951313 0.304195
0.2825538 0.0825216 0.2995831
0.691405 0.2337172 0.2597644
0.8539586 0.7230566 0.6848568
0.8906496 0.8559048 0.8470915
0.8938426 0.8893655 0.8870838
0.8932722 0.8932722 0.8932722
0.1419913 0.2788585 0.2895029
0.1417035 0.278293 0.288918
0.1391577 0.2732897 0.2837426
0.2669166 0.2669152 0.2669373
0.68913 0.3238934 0.215673
0.853521 0.7274254 0.6856303
0.8906344 0.8560152 0.8471153
0.8938422 0.8893688 0.8870846
0.8932722 0.8932722 0.8932722
0.332713 0.6570257 0.3429639
0.3326069 0.6569555 0.3418402
0.3321308 0.6569149 0.3322305
0.3316146 0.6619244 0.2161561
0.6660134 0.6599472 0.2241409
0.8505466 0.7563017 0.6926053
0.8905062 0.8569484 0.8473242
0.8938385 0.8893975 0.887092
0.8932722 0.8932722 0.8932722
0.7113924 0.8487463 0.652418
0.7114627 0.848742 0.6524392
0.7120727 0.8487051 0.6526237
0.7171801 0.8483924 0.6542304
0.7504683 0.8462319 0.6677017
0.8426419 0.8404603 0.7382626
0.8896353 0.8634672 0.849128
0.8938067 0.8896398 0.8871569
0.8932722 0.8932722 0.8932722
0.8526981 0.8896527 0.8396241
0.8526998 0.8896526 0.8396247
0.8527148 0.8896509 0.83963
0.8528451 0.8896364 0.8396756
0.853946 0.8895139 0.8400722
0.861587 0.8886807 0.8433295
0.8872123 0.886522 0.8599638
0.8936218 0.8910287 0.8877902
0.8932722 0.8932722 0.8932722
0.8885694 0.8935708 0.8851611
0.8885695 0.8935708 0.8851611
0.88857 0.8935708 0.8851613
0.8885739 0.8935706 0.8851629
0.8886082 0.8935689 0.8851763
0.8888977 0.8935546 0.8852929
0.890479 0.8934719 0.8863376
0.8932843 0.893276 0.8921483
0.8932722 0.8932722 0.8932722
0.8932722 0.8932722 0.8932722
0.8932722 0.8932722 0.8932722
0.8932722 0.8932722 0.8932722
0.8932722 0.8932722 0.8932722
0.8932722 0.8932722 0.8932722
0.8932722 0.8932722 0.8932722
0.8932722 0.8932722 0.8932722
0.8932722 0.8932722 0.8932722
0.8932722 0.8932722 0.8932722
0.1796266 0.2226306 0.6471404
0.1798139 0.2219523 0.648392
0.1874488 0.2195442 0.6553715
0.295711 0.2390485 0.6664954
0.6604917 0.3367791 0.6783303
0.8542717 0.7184065 0.7311204
0.8908551 0.8550887 0.8471217
0.8938457 0.8893419 0.8870833
0.8932722 0.8932722 0.8932722
0.1799139 0.2239175 0.6469732
0.1800998 0.2232501 0.6482157
0.1863788 0.2199521 0.6560889
0.2953042 0.2394572 0.6670211
0.660558 0.3368781 0.6783936
0.8542783 0.7184123 0.7310725
0.8908549 0.8550902 0.8471219
0.8938456 0.889342 0.8870833
0.8932722 0.8932722 0.8932722
0.1824644 0.2348678 0.6457094
0.1826378 0.2342861 0.6468744
0.1841629 0.2285818 0.6572888
0.2915114 0.2430796 0.6716275
0.6611347 0.3377407 0.678944
0.8543359 0.7184627 0.7306516
0.8908529 0.8551035 0.8471244
0.8938456 0.8893423 0.8870834
0.8932722 0.8932722 0.8932722
0.2168142 0.3352096 0.6614768
0.2167124 0.3346191 0.6618219
0.2158514 0.3293431 0.6650101
0.221891 0.2743954 0.7152885
0.6660269 0.3451964 0.6836123
0.8548441 0.7188986 0.7267412
0.890836 0.8552197 0.8471461
0.8938452 0.8893457 0.8870842
0.8932722 0.8932722 0.8932722
0.3627783 0.6600294 0.6730282
0.3627123 0.6599536 0.6729539
0.3621348 0.6592894 0.6723036
0.3569856 0.6533041 0.6664442
0.6459461 0.6459448 0.6459645
0.8526665 0.7445628 0.713212
0.8906935 0.8562001 0.8473372
0.8938414 0.8893745 0.8870915
0.8932722 0.8932722 0.8932722
0.6753765 0.8492348 0.684874
0.6753632 0.8492345 0.6847605
0.6752473 0.8492317 0.6837614
0.6812774 0.8488197 0.6813662
0.7287144 0.8459574 0.6797636
0.8405349 0.8382862 0.731952
0.8897374 0.8629688 0.8490424
0.8938095 0.8896182 0.8871559
0.8932722 0.8932722 0.8932722
0.8513769 0.8897462 0.8390579
0.8513788 0.8897459 0.8390585
0.851395 0.8897441 0.8390638
0.8515354 0.8897284 0.8391103
0.8527192 0.8895959 0.8395146
0.8608105 0.888706 0.8428499
0.8871428 0.8864503 0.8597992
0.8936226 0.8910227 0.8877845
0.8932722 0.8932722 0.8932722
0.8885309 0.8935727 0.8851427
0.888531 0.8935727 0.8851427
0.8885314 0.8935727 0.8851429
0.8885354 0.8935725 0.8851444
0.88857 0.8935708 0.8851579
0.8888618 0.8935564 0.8852747
0.8904671 0.8934727 0.8863198
0.8932844 0.893276 0.8921424
0.8932722 0.8932722 0.8932722
0.8932722 0.8932722 0.8932722
0.8932722 0.8932722 0.8932722
0.8932722 0.8932722 0.8932722
0.8932722 0.8932722 0.8932722
0.8932722 0.8932722 0.8932722
0.8932722 0.8932722 0.8932722
0.8932722 0.8932722 0.8932722
0.8932722 0.8932722 0.8932722
0.8932722 0.8932722 0.8932722
0.6034541 0.6419687 0.8633877
0.6037328 0.6420627 0.8633711
0.6061368 0.6428782 0.8632265
0.6252686 0.6496478 0.8620271
0.7090209 0.6789573 0.8579003
0.8408659 0.7554772 0.8474553
0.8907609 0.8549038 0.8577008
0.8938723 0.8891334 0.8870845
0.8932722 0.8932722 0.8932722
0.603292 0.6419744 0.8634273
0.6035712 0.6420685 0.8634106
0.6059796 0.6428844 0.8632657
0.6251432 0.6496571 0.8620635
0.7090062 0.6789946 0.8579173
0.8408677 0.7554819 0.847457
0.8907612 0.854904 0.8576996
0.8938723 0.8891334 0.8870845
0.8932722 0.8932722 0.8932722
0.6018567 0.6420209 0.8637739
0.6021404 0.6421154 0.8637568
0.6045874 0.642935 0.8636089
0.6240348 0.6497353 0.8623819
0.708876 0.67932 0.8580659
0.840884 0.7555229 0.8474718
0.8907632 0.8549054 0.8576891
0.8938722 0.8891338 0.8870846
0.8932722 0.8932722 0.8932722
0.5874865 0.6421304 0.8669093
0.587818 0.6422295 0.8668889
0.5906729 0.6430884 0.8667121
0.6130803 0.6501845 0.8652518
0.7076315 0.6821643 0.8593692
0.8410255 0.755879 0.8476
0.8907809 0.854918 0.8575974
0.8938718 0.8891373 0.8870854
0.8932722 0.8932722 0.8932722
0.5752442 0.7017118 0.8732869
0.5752498 0.7016694 0.8733023
0.5753008 0.701298 0.8734373
0.575885 0.6979674 0.8746633
0.6672018 0.6966499 0.8750674
0.8422233 0.7588925 0.8486857
0.8909371 0.8550267 0.8567469
0.8938678 0.8891678 0.8870921
0.8932722 0.8932722 0.8932722
0.7121727 0.8431294 0.8497238
0.7121656 0.8431273 0.8497219
0.7121043 0.8431088 0.8497049
0.7115666 0.8429471 0.8495569
0.7067019 0.8414849 0.8482167
0.8344781 0.8344778 0.8344825
0.8902837 0.8606367 0.8537341
0.8938344 0.8894243 0.8871515
0.8932722 0.8932722 0.8932722
0.8441492 0.8900049 0.8461812
0.8441489 0.8900049 0.8461784
0.8441457 0.8900051 0.8461537
0.8441182 0.8900064 0.8459369
0.8455484 0.8898161 0.8455674
0.855967 0.8886595 0.8453902
0.886507 0.8857941 0.8582882
0.8936299 0.8909702 0.8877361
0.8932722 0.8932722 0.8932722
0.8881791 0.8935903 0.8849802
0.8881792 0.8935903 0.8849802
0.8881796 0.8935903 0.8849804
0.8881839 0.8935901 0.884982
0.8882213 0.8935882 0.8849956
0.8885357 0.8935728 0.8851143
0.8903602 0.8934791 0.8861623
0.893285 0.8932762 0.8920907
0.8932722 0.8932722 0.8932722
0.8932722 0.8932722 0.8932722
0.8932722 0.8932722 0.8932722
0.8932722 0.8932722 0.8932722
0.8932722 0.8932722 0.8932722
0.8932722 0.8932722 0.8932722
0.8932722 0.8932722 0.8932722
0.8932722 0.8932722 0.8932722
0.8932722 0.8932722 0.8932722
0.8932722 0.8932722 0.8932722
0.8237156 0.8325472 0.8966585
0.823724 0.8325508 0.896657
0.8237971 0.8325822 0.8966442
0.8244277 0.832854 0.8965335
0.8294506 0.8350675 0.8956491
0.8505949 0.8436861 0.8928111
0.8864655 0.863833 0.8885348
0.8938064 0.889387 0.8900963
0.8932722 0.8932722 0.8932722
0.8237107 0.8325466 0.8966604
0.8237191 0.8325502 0.8966589
0.8237922 0.8325817 0.8966461
0.824423 0.8328536 0.8965354
0.8294468 0.8350673 0.8956508
0.8505946 0.8436871 0.8928116
0.8864656 0.8638331 0.8885348
0.8938064 0.889387 0.8900962
0.8932722 0.8932722 0.8932722
0.823668 0.832542 0.8966769
0.8236764 0.8325456 0.8966754
0.8237497 0.8325771 0.8966626
0.8243815 0.8328492 0.8965516
0.8294137 0.835065 0.8956651
0.8505919 0.8436963 0.8928165
0.8864661 0.8638343 0.8885353
0.8938064 0.889387 0.8900959
0.8932722 0.8932722 0.8932722
0.8232901 0.8325 0.896822
0.8232986 0.8325036 0.8968205
0.823373 0.8325354 0.8968074
0.8240149 0.83281 0.8966943
0.8291208 0.835044 0.8957913
0.8505688 0.8437761 0.8928593
0.886471 0.8638446 0.8885397
0.8938064 0.8893873 0.8900932
0.8932722 0.8932722 0.8932722
0.81952 0.8319919 0.8981796
0.81953 0.8319959 0.8981778
0.8196165 0.8320307 0.8981621
0.8203624 0.8323317 0.8980274
0.8262319 0.8347583 0.8969598
0.850341 0.8444749 0.8932366
0.8865133 0.8639341 0.8885781
0.8938063 0.8893899 0.8900696
0.8932722 0.8932722 0.8932722
0.8173775 0.8455762 0.9001992
0.8173775 0.845575 0.9001998
0.8173775 0.8455645 0.9002049
0.8173775 0.8454729 0.9002494
0.8174095 0.8446582 0.9006513
0.8403696 0.8472168 0.8986957
0.8868724 0.8646926 0.8889036
0.8938059 0.8894125 0.8898502
0.8932722 0.8932722 0.8932722
0.8530404 0.8875155 0.8897346
0.8530402 0.8875155 0.8897345
0.8530385 0.8875149 0.889734
0.8530236 0.8875095 0.8897292
0.8528926 0.8874629 0.8896874
0.85171 0.8870425 0.8893111
0.8846551 0.884655 0.8846563
0.8936404 0.8907751 0.8890458
0.8932722 0.8932722 0.8932722
0.8864869 0.893646 0.8870187
0.8864869 0.893646 0.8870186
0.8864868 0.893646 0.8870179
0.8864859 0.8936461 0.8870114
0.8864781 0.8936471 0.8869541
0.8869015 0.8936285 0.8869065
0.889578 0.8935077 0.8868662
0.89329 0.8932778 0.8916185
0.8932722 0.8932722 0.8932722
0.8932722 0.8932722 0.8932722
0.8932722 0.8932722 0.8932722
0.8932722 0.8932722 0.8932722
0.8932722 0.8932722 0.8932722
0.8932722 0.8932722 0.8932722
0.8932722 0.8932722 0.8932722
0.8932722 0.8932722 0.8932722
0.8932722 0.8932722 0.8932722
0.8932722 0.8932722 0.8932722
0.880265 0.8825741 0.8953719
0.8802652 0.8825742 0.8953718
0.8802675 0.8825753 0.8953716
0.8802875 0.8825845 0.8953693
0.88046 0.8826647 0.8953498
0.8818405 0.8833178 0.8951922
0.8875972 0.8857637 0.8945694
0.8934025 0.8922484 0.8934025
0.8932722 0.8932722 0.8932722
0.8802648 0.8825741 0.8953719
0.8802651 0.8825742 0.8953719
0.8802674 0.8825752 0.8953716
0.8802874 0.8825845 0.8953693
0.8804598 0.8826647 0.8953498
0.8818404 0.8833177 0.8951922
0.8875972 0.8857638 0.8945694
0.8934025 0.8922484 0.8934025
0.8932722 0.8932722 0.8932722
0.8802634 0.8825737 0.895372
0.8802636 0.8825739 0.895372
0.8802659 0.8825749 0.8953717
0.8802859 0.8825842 0.8953695
0.8804584 0.8826644 0.89535
0.8818392 0.8833175 0.8951923
0.887597 0.885764 0.8945694
0.8934025 0.8922484 0.8934025
0.8932722 0.8932722 0.8932722
0.8802507 0.882571 0.895373
0.880251 0.8825711 0.895373
0.8802533 0.8825722 0.8953727
0.8802733 0.8825814 0.8953705
0.8804461 0.8826617 0.8953509
0.8818292 0.8833155 0.8951931
0.887596 0.8857661 0.8945691
0.8934024 0.8922487 0.8934024
0.8932722 0.8932722 0.8932722
0.8801391 0.8825462 0.895382
0.8801393 0.8825463 0.895382
0.8801417 0.8825474 0.8953817
0.880162 0.8825568 0.8953794
0.8803375 0.8826379 0.8953597
0.8817405 0.8832979 0.8952
0.8875872 0.8857846 0.8945672
0.8934021 0.8922517 0.8934021
0.8932722 0.8932722 0.8932722
0.8790369 0.882284 0.8954731
0.8790372 0.8822841 0.895473
0.8790399 0.8822853 0.8954728
0.8790635 0.8822957 0.8954702
0.8792668 0.8823858 0.8954478
0.8808753 0.8831112 0.8952691
0.8875034 0.8859465 0.89455
0.8933988 0.8922771 0.8933988
0.8932722 0.8932722 0.8932722
0.8780999 0.8854897 0.8950907
0.8780999 0.8854897 0.8950907
0.8780999 0.8854893 0.8950907
0.8780996 0.8854862 0.8950912
0.8780971 0.8854593 0.8950949
0.878083 0.8852193 0.8951279
0.8843716 0.8861959 0.8946784
0.8933713 0.8924934 0.8933713
0.8932722 0.8932722 0.8932722
0.8891 0.8934614 0.8934614
0.8890999 0.8934614 0.8934614
0.8890999 0.8934614 0.8934614
0.8890994 0.8934615 0.8934615
0.8890952 0.8934617 0.8934617
0.889058 0.8934633 0.8934633
0.8887237 0.8934783 0.8934783
0.8932722 0.8932722 0.8932722
0.8932722 0.8932722 0.8932722
0.8932722 0.8932722 0.8932722
0.8932722 0.8932722 0.8932722
0.8932722 0.8932722 0.8932722
0.8932722 0.8932722 0.8932722
0.8932722 0.8932722 0.8932722
0.8932722 0.8932722 0.8932722
0.8932722 0.8932722 0.8932722
0.8932722 0.8932722 0.8932722
0.8932722 0.8932722 0.8932722
0.8932722 0.8932722 0.8932722
0.8932722 0.8932722 0.8932722
0.8932722 0.8932722 0.8932722
0.8932722 0.8932722 0.8932722
0.8932722 0.8932722 0.8932722
0.8932722 0.8932722 0.8932722
0.8932722 0.8932722 0.8932722
0.8932722 0.8932722 0.8932722
0.8932722 0.8932722 0.8932722
0.8932722 0.8932722 0.8932722
0.8932722 0.8932722 0.8932722
0.8932722 0.8932722 0.8932722
0.8932722 0.8932722 0.8932722
0.8932722 0.8932722 0.8932722
0.8932722 0.8932722 0.8932722
0.8932722 0.8932722 0.8932722
0.8932722 0.8932722 0.8932722
0.8932722 0.8932722 0.8932722
0.8932722 0.8932722 0.8932722
0.8932722 0.8932722 0.8932722
0.8932722 0.8932722 0.8932722
0.8932722 0.8932722 0.8932722
0.8932722 0.8932722 0.8932722
0.8932722 0.8932722 0.8932722
0.8932722 0.8932722 0.8932722
0.8932722 0.8932722 0.8932722
0.8932722 0.8932722 0.8932722
0.8932722 0.8932722 0.8932722
0.8932722 0.8932722 0.8932722
0.8932722 0.8932722 0.8932722
0.8932722 0.8932722 0.8932722
0.8932722 0.8932722 0.8932722
0.8932722 0.8932722 0.8932722
0.8932722 0.8932722 0.8932722
0.8932722 0.8932722 0.8932722
0.8932722 0.8932722 0.8932722
0.8932722 0.8932722 0.8932722
0.8932722 0.8932722 0.8932722
0.8932722 0.8932722 0.8932722
0.8932722 0.8932722 0.8932722
0.8932722 0.8932722 0.8932722
0.8932722 0.8932722 0.8932722
0.8932722 0.8932722 0.8932722
0.8932722 0.8932722 0.8932722
0.8932722 0.8932722 0.8932722
0.8932722 0.8932722 0.8932722
0.8932722 0.8932722 0.8932722
0.8932722 0.8932722 0.8932722
0.8932722 0.8932722 0.8932722
0.8932722 0.8932722 0.8932722
0.8932722 0.8932722 0.8932722
0.8932722 0.8932722 0.8932722
0.8932722 0.8932722 0.8932722
0.8932722 0.8932722 0.8932722
0.8932722 0.8932722 0.8932722
0.8932722 0.8932722 0.8932722
0.8932722 0.8932722 0.8932722
0.8932722 0.8932722 0.8932722
0.8932722 0.8932722 0.8932722
0.8932722 0.8932722 0.8932722
0.8932722 0.8932722 0.8932722
0.8932722 0.8932722 0.8932722
0.8932722 0.8932722 0.8932722
0.8932722 0.8932722 0.8932722
0.8932722 0.8932722 0.8932722
0.8932722 0.8932722 0.8932722
0.8932722 0.8932722 0.8932722
0.8932722 0.8932722 0.8932722
0.8932722 0.8932722 0.8932722
0.8932722 0.8932722 0.8932722
0.8932722 0.8932722 0.8932722
0.8932722 0.8932722 0.8932722
0.8932722 0.8932722 0.8932722
0.8932722 0.8932722 0.8932722
0.8932722 0.8932722 0.8932722
0.8932722 0.8932722 0.8932722
0.8932722 0.8932722 0.8932722
0.8932722 0.8932722 0.8932722
0.8932722 0.8932722 0.8932722
0.8932722 0.8932722 0.8932722
0.8932722 0.8932722 0.8932722
