luts/AgX_Rec2100-HLG_p3_lim_10x.cube
TITLE "AgX_Formation Rec.2100 HLG P3 limited"
# AgX Rec.2100 HLG 1000 nits Formation P3 Limited LUT
# This LUT expects input to be E Gamut Log2 encoding from -10 stops to +15 stops
# But the end image formation will be from -10 to 10 encoded in Rec.2100-HLG
# Inset matrix can be generated in Rec.2020 with rotation [2.13976149, -1.22827335, -3.05174246],
# Inset: [0.32965205, 0.28051336, 0.12475368], outset = [0.32317438, 0.28325605, 0.0374326].
# HDR purity set to 0.5, HDR extra shoulder power multiplier is 2.0
# calculated from power(1000 / 100, log10(2.0))
# The image formed has 40% per-channel shifts
# HDR max nits is 1000, Reference White nits is 100
LUT_3D_SIZE 9
0.0004711 0.0004327 0.0007854
0.0318375 0.0084349 0
0.100399 0.0292788 0
0.2895895 0.0844794 0
0.7321836 0.2927272 0.1154125
0.962029 0.8212767 0.7713132
0.9984222 0.9665746 0.9578473
1 0.9970068 0.9952301
1 1 1
0.0144369 0.0310268 0.0116854
0.0327328 0.0320778 0.0041065
0.1006996 0.0429163 0.0027131
0.2896612 0.0897639 0
0.7321737 0.2944811 0.1155788
0.9620233 0.8213416 0.7713256
0.998422 0.9665759 0.9578476
1 0.9970069 0.9952301
1 1 1
0.0455819 0.0981887 0.0340099
0.0464531 0.0984286 0.0134455
0.1026132 0.100656 0.0128878
0.290048 0.1268721 0.0087639
0.7320881 0.3092998 0.117021
0.9619736 0.8219046 0.7714335
0.9984202 0.9665881 0.9578506
1 0.9970072 0.9952302
1 1 1
0.1303723 0.2808439 0.0971802
0.1302994 0.2810392 0.0923251
0.1363804 0.2827298 0.0385928
0.293364 0.2878781 0.0368618
0.7314169 0.4137075 0.1290324
0.9615536 0.8266359 0.7723798
0.9984047 0.9666941 0.9578767
1 0.9970097 0.9952309
1 1 1
0.3770585 0.7139395 0.2555321
0.3770707 0.7140201 0.2535186
0.3771768 0.7147321 0.2348845
0.4225647 0.7182872 0.1120771
0.7339197 0.727591 0.2134078
0.9586734 0.8580528 0.7807106
0.9982739 0.9675881 0.9581045
1 0.9970318 0.995237
1 1 1
0.8131441 0.9565673 0.7399326
0.813216 0.9565633 0.7399542
0.8138397 0.9565286 0.740143
0.8190746 0.9562347 0.7417893
0.8536393 0.9541807 0.7557881
0.9511075 0.9487831 0.8346007
0.9973981 0.9737401 0.9600515
1 0.9972179 0.9952904
1 1 1
0.9634733 0.9975412 0.9504472
0.963475 0.997541 0.9504478
0.9634894 0.9975393 0.9504534
0.9636146 0.9975246 0.9505022
0.9646702 0.9974013 0.9509248
0.9719058 0.9965691 0.9543688
0.99506 0.9944618 0.9711835
1 0.998279 0.9958031
1 1 1
0.9963652 1 0.993693
0.9963652 1 0.993693
0.9963656 1 0.9936932
0.9963687 1 0.9936945
0.9963952 1 0.9937056
0.9966188 1 0.9938021
0.9978409 1 0.9946527
1 1 0.9991628
1 1 1
1 1 1
1 1 1
1 1 1
1 1 1
1 1 1
1 1 1
1 1 1
1 1 1
1 1 1
0.0080105 0.0092316 0.0318222
0.0304173 0.0081478 0.0323918
0.0998927 0.0247659 0.0280865
0.2904888 0.0790476 0
0.7323434 0.2911384 0.1154506
0.962038 0.821223 0.7713155
0.9984225 0.9665734 0.9578473
1 0.9970068 0.9952301
1 1 1
0.0158752 0.0311578 0.0324546
0.0296534 0.0296532 0.0296565
0.1035373 0.0303151 0
0.2904957 0.0847469 0
0.7323321 0.2929056 0.1156155
0.9620322 0.8212879 0.7713279
0.9984223 0.9665748 0.9578476
1 0.9970068 0.9952301
1 1 1
0.0454915 0.0969691 0.045502
0.044925 0.0967823 0.0334044
0.0997892 0.0978861 0.0125331
0.2904232 0.1237487 0.0078174
0.7322348 0.3078298 0.117046
0.9619825 0.8218514 0.7714357
0.9984205 0.966587 0.9578506
1 0.9970071 0.9952302
1 1 1
0.1301904 0.2801069 0.1015234
0.1301156 0.2802907 0.0969919
0.1331342 0.2820778 0.0385323
0.2925107 0.2870385 0.0367542
0.7314827 0.4127554 0.1289795
0.9615618 0.8265864 0.7723809
0.9984049 0.966693 0.9578767
1 0.9970097 0.9952309
1 1 1
0.3769551 0.7137616 0.257475
0.3769672 0.713842 0.2554824
0.3770727 0.7145523 0.2370567
0.4214767 0.7181754 0.1120558
0.7337838 0.7274533 0.2131849
0.9586778 0.8580229 0.7807052
0.9982741 0.967587 0.9581045
1 0.9970317 0.995237
1 1 1
0.8130651 0.956569 0.7399006
0.813137 0.956565 0.7399222
0.8137614 0.9565303 0.740111
0.8190021 0.9562361 0.7417576
0.8535967 0.9541805 0.7557594
0.9511042 0.9487796 0.8345899
0.9973982 0.9737394 0.9600514
1 0.9972179 0.9952904
1 1 1
0.9634715 0.9975413 0.9504463
0.9634731 0.9975411 0.9504469
0.9634876 0.9975394 0.9504525
0.9636127 0.9975248 0.9505013
0.9646685 0.9974014 0.950924
0.9719048 0.9965691 0.9543681
0.9950599 0.9944617 0.9711832
1 0.998279 0.995803
1 1 1
0.9963652 1 0.993693
0.9963652 1 0.993693
0.9963656 1 0.9936932
0.9963686 1 0.9936944
0.9963951 1 0.9937056
0.9966188 1 0.9938021
0.9978409 1 0.9946527
1 1 0.9991628
1 1 1
1 1 1
1 1 1
1 1 1
1 1 1
1 1 1
1 1 1
1 1 1
1 1 1
1 1 1
0.0225987 0.0273349 0.0879921
0.0293091 0.0208254 0.0993187
0.0967786 0.0259116 0.1027456
0.2872457 0.0712777 0.08622
0.7338524 0.2766177 0.1159107
0.9621167 0.8207524 0.7713371
0.9984249 0.9665637 0.9578473
1 0.9970066 0.9952301
1 1 1
0.0273306 0.0402069 0.0944302
0.0268547 0.0325677 0.1044421
0.0983537 0.0263333 0.1044188
0.2884884 0.0715235 0.0811161
0.7338282 0.2785137 0.1160625
0.9621109 0.8208177 0.7713493
0.9984247 0.9665651 0.9578476
1 0.9970066 0.9952301
1 1 1
0.050046 0.098279 0.1020688
0.049113 0.0964466 0.1001663
0.0929214 0.0929208 0.0929289
0.2996354 0.0877104 0
0.7336217 0.2944605 0.1173822
0.9620605 0.8213853 0.771456
0.9984229 0.9665773 0.9578506
1 0.9970069 0.9952302
1 1 1
0.1296798 0.2761362 0.1324977
0.1294397 0.275912 0.1294699
0.1284038 0.2766219 0.095466
0.2848955 0.2795476 0.0357946
0.7321206 0.4042644 0.128585
0.9616345 0.8261531 0.7723914
0.9984073 0.9666833 0.9578767
1 0.9970094 0.9952309
1 1 1
0.3760582 0.7122149 0.2736865
0.3760695 0.7122936 0.2718575
0.376169 0.7129888 0.255048
0.4117881 0.717202 0.1118728
0.7325918 0.7262463 0.2112379
0.9587167 0.8577614 0.7806589
0.9982763 0.9675779 0.9581043
1 0.9970315 0.995237
1 1 1
0.8123716 0.9565842 0.7396216
0.8124442 0.9565801 0.7396432
0.8130748 0.9565452 0.7398322
0.8183653 0.9562487 0.7414808
0.8532237 0.9541788 0.7555092
0.9510751 0.9487495 0.8344958
0.9973994 0.9737335 0.96005
1 0.9972176 0.9952904
1 1 1
0.9634554 0.9975426 0.9504385
0.9634571 0.9975424 0.9504391
0.9634715 0.9975407 0.9504447
0.9635968 0.997526 0.9504935
0.9646536 0.9974025 0.9509163
0.9718954 0.9965695 0.9543616
0.9950592 0.9944609 0.9711811
1 0.9982789 0.995803
1 1 1
0.9963648 1 0.9936928
0.9963648 1 0.9936928
0.9963652 1 0.993693
0.9963682 1 0.9936942
0.9963947 1 0.9937054
0.9966184 1 0.9938019
0.9978408 1 0.9946525
1 1 0.9991628
1 1 1
1 1 1
1 1 1
1 1 1
1 1 1
1 1 1
1 1 1
1 1 1
1 1 1
1 1 1
0.0650953 0.0791081 0.2529301
0.0654393 0.0766306 0.2583215
0.0951623 0.07179 0.2784738
0.2777358 0.0810021 0.2945003
0.7375417 0.2260974 0.2780395
0.9628445 0.816479 0.7716173
0.9984459 0.9664783 0.9578479
1 0.9970045 0.99523
1 1 1
0.0662955 0.0831803 0.2537464
0.0666029 0.0809375 0.2587918
0.0931117 0.0727182 0.2822068
0.2782361 0.0811631 0.2950281
0.7377989 0.226103 0.2761741
0.962838 0.8165487 0.7716282
0.9984457 0.9664798 0.9578483
1 0.9970046 0.99523
1 1 1
0.0795825 0.1189797 0.2711858
0.0793333 0.1171149 0.2733101
0.0783801 0.0952439 0.3045611
0.2825505 0.0825602 0.2995788
0.7400588 0.2261286 0.2587477
0.9627815 0.8171543 0.7717237
0.9984439 0.966492 0.9578512
1 0.9970049 0.9952301
1 1 1
0.142463 0.2797849 0.2904651
0.1421739 0.2792167 0.2898775
0.1396162 0.2741902 0.284678
0.2669168 0.2669153 0.2669375
0.7393235 0.3373421 0.2035574
0.9623052 0.82223 0.7725664
0.9984281 0.9665987 0.957877
1 0.9970074 0.9952308
1 1 1
0.3726729 0.7035308 0.383513
0.3725358 0.7034398 0.3822986
0.371916 0.703276 0.3720212
0.3714834 0.7079201 0.2529107
0.7216922 0.7152099 0.194066
0.9590767 0.8554258 0.7802951
0.9982957 0.9674985 0.9581027
1 0.9970295 0.9952369
1 1 1
0.8059952 0.9567312 0.7371674
0.8060746 0.9567269 0.7371892
0.8067638 0.9566893 0.7373798
0.8125296 0.9563715 0.7390438
0.8498592 0.9541705 0.7533001
0.9508193 0.9484851 0.8336692
0.9974099 0.9736812 0.9600382
1 0.9972158 0.9952903
1 1 1
0.9633143 0.9975537 0.9503703
0.9633159 0.9975535 0.9503709
0.9633305 0.9975518 0.9503765
0.9634569 0.997537 0.9504254
0.9645227 0.9974124 0.9508493
0.9718133 0.9965731 0.9543048
0.9950525 0.994454 0.9711629
1 0.9982784 0.9958025
1 1 1
0.9963614 1 0.9936911
0.9963614 1 0.9936911
0.9963617 1 0.9936912
0.9963648 1 0.9936925
0.9963914 1 0.9937036
0.9966153 1 0.9938002
0.9978397 1 0.9946509
1 1 0.9991623
1 1 1
1 1 1
1 1 1
1 1 1
1 1 1
1 1 1
1 1 1
1 1 1
1 1 1
1 1 1
0.1884259 0.2325558 0.6678979
0.1886359 0.23187 0.6691439
0.1909637 0.2254493 0.6799258
0.3073809 0.2455555 0.6968201
0.7083544 0.3443671 0.7274682
0.9634402 0.8096547 0.8249236
0.99864 0.9657086 0.9578721
1 0.9969868 0.9952295
1 1 1
0.1888085 0.2339844 0.667935
0.189017 0.2333094 0.6691719
0.1908395 0.2266442 0.6801809
0.3069845 0.2460226 0.6974699
0.7084425 0.344481 0.7275535
0.9634476 0.8096623 0.824867
0.9986398 0.9657101 0.9578724
1 0.9969868 0.9952295
1 1 1
0.1922225 0.2462371 0.6684909
0.192418 0.245646 0.6696496
0.1941254 0.2398309 0.6799655
0.3032474 0.2501757 0.7031741
0.709209 0.3454742 0.7282954
0.9635128 0.8097281 0.8243696
0.9986378 0.9657231 0.9578751
1 0.9969871 0.9952296
1 1 1
0.2342979 0.359501 0.6963696
0.2342225 0.3589143 0.6967572
0.233615 0.3536893 0.7003466
0.2352029 0.2929266 0.7552199
0.7157269 0.3541021 0.7346033
0.9640866 0.8102985 0.819736
0.9986203 0.9658357 0.9578987
1 0.9969897 0.9952303
1 1 1
0.4110143 0.7108343 0.7242299
0.4109129 0.7107351 0.7241323
0.4100266 0.7098665 0.7232783
0.4021631 0.7020563 0.7155998
0.6968078 0.6968062 0.6968303
0.9615794 0.8411915 0.8038186
0.9984737 0.9667842 0.958106
1 0.9970119 0.9952363
1 1 1
0.7624507 0.9572247 0.7736724
0.762436 0.9572241 0.7735394
0.7623072 0.9572189 0.7723689
0.7688703 0.9568167 0.7689756
0.8243419 0.9538055 0.7666759
0.9484584 0.9460458 0.8260428
0.9975066 0.9732172 0.9599428
1 0.9971993 0.9952893
1 1 1
0.9620235 0.9976583 0.9497668
0.9620253 0.9976581 0.9497675
0.9620411 0.9976562 0.9497732
0.9621781 0.9976401 0.9498231
0.9633295 0.9975049 0.9502562
0.9710753 0.9966069 0.9538016
0.9949938 0.9943929 0.9710029
1 0.9982737 0.9957979
1 1 1
0.9963314 1 0.9936759
0.9963315 1 0.9936759
0.9963318 1 0.993676
0.9963349 1 0.9936773
0.9963617 1 0.9936884
0.9965875 1 0.9937852
0.9978302 1 0.9946367
1 1 0.9991578
1 1 1
1 1 1
1 1 1
1 1 1
1 1 1
1 1 1
1 1 1
1 1 1
1 1 1
1 1 1
0.6877467 0.7292314 0.9690545
0.6880241 0.7293187 0.9690438
0.6904204 0.7300762 0.9689514
0.7096684 0.7363807 0.9681787
0.8003333 0.7657427 0.9656978
0.948864 0.8519948 0.9560027
0.9984988 0.9656818 0.968395
1 0.9968267 0.995229
1 1 1
0.6875942 0.7292538 0.969097
0.6878721 0.7293412 0.9690863
0.6902722 0.730099 0.9689935
0.7095491 0.7364057 0.9682181
0.8003177 0.7657866 0.9657183
0.9488662 0.8520005 0.9560047
0.998499 0.965682 0.9683939
1 0.9968267 0.995229
1 1 1
0.6862439 0.7294464 0.9694693
0.6865258 0.7295341 0.9694582
0.6889606 0.7302946 0.9693624
0.7084938 0.736621 0.9685625
0.8001798 0.7661701 0.9658974
0.9488848 0.8520502 0.9560215
0.9985007 0.9656834 0.9683839
1 0.996827 0.995229
1 1 1
0.6727503 0.7308477 0.9728078
0.6730749 0.7309389 0.9727935
0.6758739 0.7317298 0.9726695
0.6980711 0.738279 0.9716412
0.7988472 0.7695221 0.9674649
0.9490463 0.8524817 0.9561673
0.998516 0.9656962 0.9682964
1 0.9968298 0.9952297
1 1 1
0.6629157 0.79793 0.9810042
0.6629254 0.7978855 0.9810213
0.663012 0.797496 0.9811711
0.663915 0.794006 0.9825329
0.7567142 0.7897647 0.9848092
0.9504101 0.856131 0.9573976
0.9986508 0.9658071 0.9674818
1 0.9968533 0.9952353
1 1 1
0.8035888 0.9511654 0.9582017
0.8035805 0.951163 0.9581995
0.8035084 0.9511418 0.95818
0.8028761 0.9509561 0.9580094
0.7971584 0.94927 0.9564586
0.9416894 0.941689 0.941694
0.997975 0.9711801 0.9645761
1 0.997051 0.9952843
1 1 1
0.9549515 0.997974 0.9570105
0.9549511 0.9979741 0.9570077
0.9549479 0.9979743 0.9569828
0.9549193 0.9979768 0.9567638
0.9563853 0.9977808 0.9564046
0.9666033 0.9966023 0.9562959
0.9944551 0.9938326 0.9695293
1 0.9982329 0.9957595
1 1 1
0.9960576 1 0.9935416
0.9960577 1 0.9935416
0.996058 1 0.9935418
0.9960614 1 0.9935431
0.9960904 1 0.9935544
0.9963345 1 0.9936529
0.9977455 1 0.9945102
1 1 0.999119
1 1 1
1 1 1
1 1 1
1 1 1
1 1 1
1 1 1
1 1 1
1 1 1
1 1 1
1 1 1
0.9319894 0.9416775 1
0.9319986 0.9416814 1
0.9320792 0.9417153 1
0.9327736 0.9420084 1
0.9382821 0.9443933 1
0.9607331 0.9536254 1
0.9945027 0.9743823 0.9963171
1 0.9970436 0.9975914
1 1 1
0.931984 0.9416769 1
0.9319933 0.9416808 1
0.9320738 0.9417147 1
0.9327684 0.9420079 1
0.938278 0.9443931 1
0.9607328 0.9536265 1
0.9945028 0.9743824 0.9963171
1 0.9970436 0.9975914
1 1 1
0.931937 0.941672 1
0.9319463 0.9416758 1
0.9320269 0.9417098 1
0.9327228 0.9420033 1
0.9382418 0.9443906 1
0.9607304 0.9536361 1
0.9945032 0.9743836 0.9963176
1 0.9970436 0.9975912
1 1 1
0.9315206 0.9416267 1
0.93153 0.9416306 1
0.931612 0.9416649 1
0.9323192 0.941961 1
0.9379218 0.9443679 1
0.9607084 0.9537198 1
0.9945073 0.9743936 0.9963212
1 0.9970439 0.9975891
1 1 1
0.9273569 0.9410777 1
0.9273679 0.941082 1
0.9274637 0.9411196 1
0.928289 0.9414439 1
0.9347576 0.9440577 1
0.9604903 0.9544516 1
0.994543 0.9744802 0.9963526
1 0.9970459 0.997571
1 1 1
0.9251422 0.9551708 1
0.9251422 0.9551696 1
0.9251419 0.955159 1
0.9251395 0.9550664 1
0.9251531 0.954243 1
0.9500596 0.9572433 1
0.9948452 0.9752129 0.9966188
1 0.9970635 0.9974024
1 1 1
0.96401 0.9955028 0.9975014
0.9640098 0.9955028 0.9975014
0.9640081 0.9955023 0.9975009
0.963993 0.9954979 0.9974971
0.963861 0.9954592 0.9974638
0.9626652 0.99511 0.9971631
0.9928423 0.9928422 0.9928433
1 0.9981048 0.9967823
1 1 1
0.9947501 1 0.9951738
0.9947501 1 0.9951738
0.99475 1 0.9951732
0.9947493 1 0.995168
0.994743 1 0.9951225
0.995083 1 0.9950869
0.9971657 1 0.9950648
1 1 0.9987636
1 1 1
1 1 1
1 1 1
1 1 1
1 1 1
1 1 1
1 1 1
1 1 1
1 1 1
1 1 1
0.9894258 0.9913905 1
0.9894261 0.9913906 1
0.9894281 0.9913916 1
0.9894455 0.9913997 1
0.989596 0.9914699 1
0.9907922 0.992038 1
0.9955845 0.9941091 1
1 0.9992363 1
1 1 1
0.9894257 0.9913905 1
0.9894259 0.9913906 1
0.9894279 0.9913915 1
0.9894454 0.9913997 1
0.9895959 0.9914699 1
0.9907921 0.9920379 1
0.9955845 0.9941091 1
1 0.9992363 1
1 1 1
0.9894244 0.9913902 1
0.9894247 0.9913903 1
0.9894267 0.9913913 1
0.9894441 0.9913994 1
0.9895947 0.9914696 1
0.9907911 0.9920377 1
0.9955844 0.9941093 1
1 0.9992363 1
1 1 1
0.9894134 0.9913877 1
0.9894136 0.9913878 1
0.9894157 0.9913887 1
0.9894331 0.9913968 1
0.989584 0.9914671 1
0.9907825 0.9920359 1
0.9955836 0.994111 1
1 0.9992365 1
1 1 1
0.989316 0.991365 1
0.9893162 0.9913651 1
0.9893183 0.9913661 1
0.989336 0.9913743 1
0.9894894 0.9914454 1
0.9907062 0.9920201 1
0.9955769 0.9941262 1
1 0.9992387 1
1 1 1
0.9883497 0.9911249 1
0.98835 0.9911251 1
0.9883524 0.9911261 1
0.9883732 0.9911353 1
0.9885525 0.9912149 1
0.9899593 0.9918513 1
0.9955123 0.9942587 1
1 0.9992579 1
1 1 1
0.9875761 0.9937324 1
0.9875761 0.9937324 1
0.9875761 0.9937321 1
0.9875758 0.9937296 1
0.9875731 0.9937078 1
0.9875562 0.9935139 1
0.9929505 0.9944434 1
1 0.99942 1
1 1 1
0.9968247 1 1
0.9968247 1 1
0.9968247 1 1
0.9968243 1 1
0.996821 1 1
0.996792 1 1
0.9965303 1 1
1 1 1
1 1 1
1 1 1
1 1 1
1 1 1
1 1 1
1 1 1
1 1 1
1 1 1
1 1 1
1 1 1
1 1 1
1 1 1
1 1 1
1 1 1
1 1 1
1 1 1
1 1 1
1 1 1
1 1 1
1 1 1
1 1 1
1 1 1
1 1 1
1 1 1
1 1 1
1 1 1
1 1 1
1 1 1
1 1 1
1 1 1
1 1 1
1 1 1
1 1 1
1 1 1
1 1 1
1 1 1
1 1 1
1 1 1
1 1 1
1 1 1
1 1 1
1 1 1
1 1 1
1 1 1
1 1 1
1 1 1
1 1 1
1 1 1
1 1 1
1 1 1
1 1 1
1 1 1
1 1 1
1 1 1
1 1 1
1 1 1
1 1 1
1 1 1
1 1 1
1 1 1
1 1 1
1 1 1
1 1 1
1 1 1
1 1 1
1 1 1
1 1 1
1 1 1
1 1 1
1 1 1
1 1 1
1 1 1
1 1 1
1 1 1
1 1 1
1 1 1
1 1 1
1 1 1
1 1 1
1 1 1
1 1 1
1 1 1
1 1 1
1 1 1
1 1 1
1 1 1
1 1 1
1 1 1
1 1 1
1 1 1
1 1 1
