luts/AgX_Rec2100-HLG_p3_lim_10x.cube
TITLE "AgX_Formation Rec.2100 HLG P3 limited"
# AgX Rec.2100 HLG 1000 nits Formation P3 Limited LUT
# This LUT expects input to be E Gamut Log2 encoding from -10 stops to +15 stops
# But the end image formation will be from -10 to 10 encoded in Rec.2100-HLG
# Inset matrix can be generated in Rec.2020 with rotation [2.13976149, -1.22827335, -3.05174246],
# Inset: [0.32965205, 0.28051336, 0.12475368], outset = [0.32317438, 0.28325605, 0.0374326].
# HDR purity set to 0.5, HDR extra shoulder power multiplier is 2.0
# calculated from power(1000 / 100, log10(2.0))
# The image formed has 40% per-channel shifts
# HDR max nits is 1000, Reference White nits is 100
LUT_3D_SIZE 5
0.0004711 0.0004327 0.0007854
0.100399 0.0292788 0
0.7321836 0.2927272 0.1154125
0.9984222 0.9665746 0.9578473
1 1 1
0.0455819 0.0981887 0.0340099
0.1026132 0.100656 0.0128878
0.7320881 0.3092998 0.117021
0.9984202 0.9665881 0.9578506
1 1 1
0.3770585 0.7139395 0.2555321
0.3771768 0.7147321 0.2348845
0.7339197 0.727591 0.2134078
0.9982739 0.9675881 0.9581045
1 1 1
0.9634733 0.9975412 0.9504472
0.9634894 0.9975393 0.9504534
0.9646702 0.9974013 0.9509248
0.99506 0.9944618 0.9711835
1 1 1
1 1 1
1 1 1
1 1 1
1 1 1
1 1 1
0.0225987 0.0273349 0.0879921
0.0967786 0.0259116 0.1027456
0.7338524 0.2766177 0.1159107
0.9984249 0.9665637 0.9578473
1 1 1
0.050046 0.098279 0.1020688
0.0929214 0.0929208 0.0929289
0.7336217 0.2944605 0.1173822
0.9984229 0.9665773 0.9578506
1 1 1
0.3760582 0.7122149 0.2736865
0.376169 0.7129888 0.255048
0.7325918 0.7262463 0.2112379
0.9982763 0.9675779 0.9581043
1 1 1
0.9634554 0.9975426 0.9504385
0.9634715 0.9975407 0.9504447
0.9646536 0.9974025 0.9509163
0.9950592 0.9944609 0.9711811
1 1 1
1 1 1
1 1 1
1 1 1
1 1 1
1 1 1
0.1884259 0.2325558 0.6678979
0.1909637 0.2254493 0.6799258
0.7083544 0.3443671 0.7274682
0.99864 0.9657086 0.9578721
1 1 1
0.1922225 0.2462371 0.6684909
0.1941254 0.2398309 0.6799655
0.709209 0.3454742 0.7282954
0.9986378 0.9657231 0.9578751
1 1 1
0.4110143 0.7108343 0.7242299
0.4100266 0.7098665 0.7232783
0.6968078 0.6968062 0.6968303
0.9984737 0.9667842 0.958106
1 1 1
0.9620235 0.9976583 0.9497668
0.9620411 0.9976562 0.9497732
0.9633295 0.9975049 0.9502562
0.9949938 0.9943929 0.9710029
1 1 1
1 1 1
1 1 1
1 1 1
1 1 1
1 1 1
0.9319894 0.9416775 1
0.9320792 0.9417153 1
0.9382821 0.9443933 1
0.9945027 0.9743823 0.9963171
1 1 1
0.931937 0.941672 1
0.9320269 0.9417098 1
0.9382418 0.9443906 1
0.9945032 0.9743836 0.9963176
1 1 1
0.9273569 0.9410777 1
0.9274637 0.9411196 1
0.9347576 0.9440577 1
0.994543 0.9744802 0.9963526
1 1 1
0.96401 0.9955028 0.9975014
0.9640081 0.9955023 0.9975009
0.963861 0.9954592 0.9974638
0.9928423 0.9928422 0.9928433
1 1 1
1 1 1
1 1 1
1 1 1
1 1 1
1 1 1
1 1 1
1 1 1
1 1 1
1 1 1
1 1 1
1 1 1
1 1 1
1 1 1
1 1 1
1 1 1
1 1 1
1 1 1
1 1 1
1 1 1
1 1 1
1 1 1
1 1 1
1 1 1
1 1 1
1 1 1
1 1 1
1 1 1
1 1 1
1 1 1
1 1 1
