luts/AgX_Rec2100-HLG_p3_lim_1.5x.cube
TITLE "AgX_Formation Rec.2100 HLG P3 limited"
# AgX Rec.2100 HLG 1000 nits Formation P3 Limited LUT
# This LUT expects input to be E Gamut Log2 encoding from -10 stops to +15 stops
# But the end image formation will be from -10 to 10 encoded in Rec.2100-HLG
# Inset matrix can be generated in Rec.2020 with rotation [2.13976149, -1.22827335, -3.05174246],
# Inset: [0.32965205, 0.28051336, 0.12475368], outset = [0.32317438, 0.28325605, 0.0374326].
# HDR purity set to 0.5, HDR extra shoulder power multiplier is 1.1298186800717998
# calculated from power(150 / 100, log10(2.0))
# The image formed has 40% per-channel shifts
# HDR max nits is 150, Reference White nits is 100
LUT_3D_SIZE 57
0.0000049 0.0000022 0.0000187
0.003407 0.0008394 0.0000928
0.0068797 0.0016949 0
0.0106854 0.0026322 0
0.0148806 0.0036997 0
0.0195262 0.0049221 0
0.0246927 0.0063216 0
0.0304615 0.0079293 0
0.0369009 0.0098087 0
0.0440951 0.0121024 0
0.052364 0.0146938 0
0.061854 0.017625 0
0.0727473 0.0209482 0
0.0852686 0.024726 0
0.0996921 0.0290344 0
0.1163495 0.0339652 0
0.1356353 0.0396286 0
0.1580102 0.0461561 0
0.1839935 0.0537016 0
0.2141365 0.0624406 0
0.248958 0.0725641 0
0.2888112 0.0842628 0
0.3336249 0.0976963 0
0.3823959 0.1129573 0
0.4339957 0.1304057 0
0.4870043 0.1503614 0
0.5325404 0.1815761 0.0616167
0.5658599 0.2241888 0.1205154
0.591684 0.2725036 0.1787395
0.6117265 0.3239288 0.2397025
0.6274316 0.3755249 0.3009925
0.6399569 0.4248247 0.3594731
0.6501304 0.4704593 0.4135697
0.6585469 0.5115385 0.4625168
0.6656309 0.5448631 0.5060357
0.6716851 0.5713897 0.5413065
0.6769263 0.5928469 0.5689675
0.681512 0.61043 0.591117
0.6855589 0.624999 0.6091397
0.6891555 0.6371898 0.6239987
0.6923705 0.6474818 0.6363877
0.6952584 0.6562414 0.6468198
0.6978634 0.6637528 0.6556821
0.7002219 0.6702387 0.6632711
0.7023641 0.6758749 0.6698172
0.7022915 0.6809046 0.6756045
0.701719 0.6851053 0.6806128
0.7012111 0.6887952 0.6849975
0.7007572 0.6920644 0.6888611
0.7003503 0.6949744 0.6922832
0.6999841 0.697576 0.6953287
0.699769 0.698996 0.698266
0.6996669 0.6996669 0.6996669
0.6996669 0.6996669 0.6996669
0.6996669 0.6996669 0.6996669
0.6996669 0.6996669 0.6996669
0.6996669 0.6996669 0.6996669
0.0015291 0.003282 0.0012874
0.0035951 0.0035039 0.0004481
0.0070373 0.0044362 0.0004919
0.0108146 0.0053467 0.0004759
0.0149852 0.0063008 0.0003769
0.0196105 0.0073531 0
0.0247594 0.0085526 0
0.0305134 0.0099459 0
0.0369365 0.011628 0
0.0441541 0.0137095 0
0.0524237 0.0160985 0
0.0619053 0.0188435 0
0.0727879 0.021999 0
0.0852993 0.0256285 0
0.0997151 0.0298073 0
0.1163666 0.0346257 0
0.1356484 0.0401926 0
0.1580205 0.0466373 0
0.1840018 0.0541122 0
0.2141434 0.0627911 0
0.2489635 0.0728631 0
0.2888151 0.0845176 0
0.3336268 0.097913 0
0.3823952 0.1131408 0
0.4339921 0.1305604 0
0.4869978 0.1504911 0
0.5325335 0.1816773 0.0616273
0.5658543 0.2242625 0.1205226
0.5916797 0.2725554 0.1787455
0.6117234 0.3239639 0.2397073
0.6274295 0.3755481 0.300996
0.6399555 0.4248397 0.3594755
0.6501295 0.4704689 0.4135714
0.6585463 0.5115444 0.4625179
0.6656306 0.5448664 0.5060364
0.6716849 0.5713917 0.5413069
0.6769262 0.5928481 0.5689677
0.6815119 0.6104306 0.5911171
0.6855588 0.6249994 0.6091398
0.6891555 0.6371901 0.6239987
0.6923705 0.6474819 0.6363877
0.6952584 0.6562415 0.6468198
0.6978634 0.6637529 0.6556821
0.7002219 0.6702387 0.6632711
0.7023641 0.6758749 0.6698172
0.7022915 0.6809046 0.6756046
0.701719 0.6851053 0.6806128
0.7012111 0.6887952 0.6849975
0.7007572 0.6920644 0.6888611
0.7003503 0.6949744 0.6922832
0.6999841 0.697576 0.6953287
0.699769 0.698996 0.698266
0.6996669 0.6996669 0.6996669
0.6996669 0.6996669 0.6996669
0.6996669 0.6996669 0.6996669
0.6996669 0.6996669 0.6996669
0.6996669 0.6996669 0.6996669
0.0030958 0.0066453 0.0026013
0.0045148 0.006773 0.0009098
0.0072146 0.00704 0.0009006
0.0109463 0.007994 0.0009484
0.0150905 0.0089407 0.0009534
0.0196965 0.0099313 0.0009081
0.0248298 0.01102 0.0007937
0.0305701 0.0122622 0.0005521
0.0369877 0.0137926 0
0.0442292 0.0156737 0
0.0524992 0.0178555 0
0.0619707 0.020397 0
0.0728403 0.0233598 0
0.0853395 0.0268116 0
0.0997453 0.0308302 0
0.1163894 0.0355065 0
0.1356659 0.0409487 0
0.1580344 0.0472853 0
0.1840131 0.0546669 0
0.2141526 0.0632655 0
0.2489709 0.0732686 0
0.2888204 0.0848637 0
0.3336293 0.0982075 0
0.3823942 0.1133903 0
0.4339873 0.130771 0
0.486989 0.1506678 0
0.5325241 0.181815 0.0616418
0.5658467 0.2243628 0.1205325
0.5916739 0.272626 0.1787536
0.6117193 0.3240117 0.239714
0.6274267 0.3755796 0.3010009
0.6399537 0.4248601 0.3594789
0.6501284 0.470482 0.4135737
0.6585455 0.5115524 0.4625194
0.6656301 0.5448709 0.5060373
0.6716846 0.5713943 0.5413074
0.676926 0.5928496 0.568968
0.6815118 0.6104316 0.5911173
0.6855588 0.625 0.6091399
0.6891554 0.6371904 0.6239988
0.6923705 0.6474821 0.6363878
0.6952584 0.6562416 0.6468199
0.6978634 0.663753 0.6556821
0.7002219 0.6702388 0.6632711
0.7023641 0.675875 0.6698173
0.7022915 0.6809046 0.6756046
0.701719 0.6851053 0.6806128
0.7012111 0.6887952 0.6849975
0.7007572 0.6920644 0.6888611
0.7003503 0.6949744 0.6922832
0.6999841 0.697576 0.6953287
0.699769 0.698996 0.698266
0.6996669 0.6996669 0.6996669
0.6996669 0.6996669 0.6996669
0.6996669 0.6996669 0.6996669
0.6996669 0.6996669 0.6996669
0.6996669 0.6996669 0.6996669
0.0048194 0.0103463 0.0040371
0.005533 0.0104159 0.0014165
0.0081263 0.0105859 0.0014061
0.0111318 0.0108738 0.0013912
0.0152199 0.0118338 0.0014341
0.0197933 0.0127985 0.0014389
0.0249057 0.0138167 0.0013995
0.030631 0.0149449 0.0013044
0.0370608 0.0163621 0.0011614
0.0443237 0.0180547 0.0009117
0.0525931 0.020029 0.0002372
0.0620528 0.0223548 0
0.0729069 0.0251027 0
0.0853913 0.0283479 0
0.0997847 0.0321733 0
0.1164193 0.0366733 0
0.1356891 0.0419575 0
0.1580528 0.0481545 0
0.1840282 0.0554139 0
0.2141651 0.0639064 0
0.2489808 0.0738175 0
0.2888274 0.0853329 0
0.3336327 0.0986074 0
0.3823929 0.1137295 0
0.4339808 0.1310574 0
0.4869771 0.1509082 0
0.5325112 0.1820026 0.0616615
0.5658363 0.2244995 0.120546
0.591666 0.2727221 0.1787647
0.6117136 0.3240769 0.239723
0.6274229 0.3756226 0.3010075
0.6399511 0.424888 0.3594835
0.6501267 0.4704999 0.4135768
0.6585445 0.5115633 0.4625214
0.6656294 0.5448771 0.5060386
0.6716842 0.5713978 0.5413082
0.6769257 0.5928517 0.5689684
0.6815116 0.6104328 0.5911175
0.6855587 0.6250007 0.6091401
0.6891554 0.6371909 0.6239989
0.6923704 0.6474824 0.6363878
0.6952584 0.6562418 0.6468199
0.6978634 0.6637531 0.6556821
0.7002218 0.6702388 0.6632711
0.702364 0.675875 0.6698173
0.7022915 0.6809047 0.6756046
0.701719 0.6851053 0.6806128
0.7012111 0.6887952 0.6849975
0.7007572 0.6920644 0.6888611
0.7003503 0.6949744 0.6922832
0.6999841 0.697576 0.6953287
0.699769 0.698996 0.698266
0.6996669 0.6996669 0.6996669
0.6996669 0.6996669 0.6996669
0.6996669 0.6996669 0.6996669
0.6996669 0.6996669 0.6996669
0.6996669 0.6996669 0.6996669
0.0067264 0.014442 0.0056111
0.0066572 0.0144639 0.0019774
0.0091602 0.0145954 0.0019682
0.0120363 0.0147646 0.0019495
0.0154158 0.0150717 0.0019286
0.0199252 0.0160327 0.001963
0.0249989 0.01701 0.0019604
0.0307003 0.0180545 0.0019152
0.0371663 0.0193998 0.0018497
0.0444422 0.0209177 0.0017184
0.0527078 0.022689 0.0014877
0.0621538 0.0247927 0.0010618
0.0729901 0.0273087 0
0.0854568 0.0303209 0
0.0998352 0.0339202 0
0.1164582 0.0382069 0
0.1357195 0.0432947 0
0.1580773 0.0493144 0
0.1840484 0.056416 0
0.2141818 0.0647696 0
0.2489942 0.0745592 0
0.288837 0.0859684 0
0.3336373 0.0991498 0
0.382391 0.1141901 0
0.4339718 0.1314466 0
0.4869608 0.1512351 0
0.5324938 0.1822577 0.0616883
0.5658221 0.2246855 0.1205644
0.5916552 0.272853 0.1787797
0.611706 0.3241656 0.2397352
0.6274177 0.3756811 0.3010165
0.6399477 0.4249259 0.3594898
0.6501245 0.4705242 0.413581
0.6585431 0.5115782 0.4625242
0.6656285 0.5448854 0.5060404
0.6716836 0.5714027 0.5413092
0.6769254 0.5928546 0.568969
0.6815114 0.6104345 0.5911179
0.6855585 0.6250018 0.6091403
0.6891553 0.6371915 0.623999
0.6923704 0.6474828 0.6363879
0.6952583 0.6562421 0.64682
0.6978634 0.6637533 0.6556822
0.7002218 0.6702389 0.6632711
0.702364 0.6758751 0.6698173
0.7022915 0.6809047 0.6756046
0.701719 0.6851053 0.6806128
0.7012111 0.6887952 0.6849975
0.7007572 0.6920644 0.6888611
0.7003503 0.6949744 0.6922832
0.6999841 0.697576 0.6953287
0.699769 0.698996 0.698266
0.6996669 0.6996669 0.6996669
0.6996669 0.6996669 0.6996669
0.6996669 0.6996669 0.6996669
0.6996669 0.6996669 0.6996669
0.6996669 0.6996669 0.6996669
0.0088421 0.0189878 0.0073376
0.0087676 0.0189988 0.0048201
0.0103066 0.019073 0.002592
0.0130843 0.0192009 0.0025753
0.0163157 0.0193735 0.0025489
0.0201331 0.0196978 0.0025209
0.0251354 0.0206583 0.0025444
0.0308578 0.0217427 0.0025438
0.0373211 0.0229719 0.0025114
0.0445932 0.0243322 0.0024278
0.0528476 0.0259105 0.0022783
0.0622759 0.0277927 0.0020314
0.0730916 0.0300666 0.0016122
0.0855383 0.0328252 0.0006808
0.0998991 0.036168 0
0.1165081 0.040204 0
0.1357591 0.0450538 0
0.1581094 0.0508527 0
0.1840751 0.0577539 0
0.2142041 0.0659278 0
0.2490121 0.0755582 0
0.2888498 0.0868268 0
0.3336434 0.0998843 0
0.3823884 0.1148147 0
0.4339595 0.1319752 0
0.4869385 0.1516793 0
0.53247 0.1826048 0.0617248
0.5658028 0.2249387 0.1205894
0.5916405 0.2730312 0.1788003
0.6116955 0.3242863 0.239752
0.6274106 0.3757607 0.3010288
0.639943 0.4249776 0.3594984
0.6501215 0.4705574 0.4135868
0.6585412 0.5115984 0.462528
0.6656273 0.5448969 0.5060428
0.6716829 0.5714093 0.5413105
0.6769249 0.5928585 0.5689698
0.6815111 0.6104369 0.5911183
0.6855583 0.6250032 0.6091406
0.6891551 0.6371924 0.6239992
0.6923703 0.6474834 0.636388
0.6952583 0.6562424 0.64682
0.6978634 0.6637535 0.6556822
0.7002218 0.6702391 0.6632712
0.702364 0.6758752 0.6698173
0.7022915 0.6809047 0.6756046
0.701719 0.6851054 0.6806128
0.7012111 0.6887953 0.6849975
0.7007572 0.6920645 0.6888611
0.7003503 0.6949745 0.6922832
0.6999841 0.697576 0.6953287
0.699769 0.698996 0.698266
0.6996669 0.6996669 0.6996669
0.6996669 0.6996669 0.6996669
0.6996669 0.6996669 0.6996669
0.6996669 0.6996669 0.6996669
0.6996669 0.6996669 0.6996669
0.0111957 0.024047 0.009232
0.0111295 0.0240516 0.0072039
0.0116122 0.024081 0.0032871
0.0142576 0.0241768 0.0032717
0.0173795 0.0243045 0.003248
0.0210316 0.0244827 0.0032137
0.0254326 0.0248998 0.003187
0.031143 0.0260188 0.0032185
0.0375517 0.0271489 0.0032086
0.0447908 0.0283718 0.0031543
0.0530194 0.0297732 0.0030474
0.0624229 0.0314421 0.0028711
0.0732139 0.0334723 0.0025925
0.0856372 0.0359642 0.0021399
0.099978 0.0390263 0.001272
0.116571 0.0427772 0
0.1358097 0.0473464 0
0.1581511 0.0528775 0
0.1841102 0.0595289 0
0.2142336 0.0674745 0
0.249036 0.0768989 0
0.2888669 0.0879833 0
0.3336515 0.1008765 0
0.3823848 0.1156605 0
0.4339428 0.132692 0
0.4869083 0.1522825 0
0.5324375 0.1830766 0.0617745
0.5657765 0.2252832 0.1206235
0.5916205 0.2732738 0.1788283
0.6116812 0.3244508 0.2397748
0.6274009 0.3758693 0.3010455
0.6399367 0.425048 0.35951
0.6501174 0.4706025 0.4135946
0.6585386 0.511626 0.4625332
0.6656257 0.5449125 0.5060461
0.6716818 0.5714183 0.5413124
0.6769243 0.5928638 0.5689709
0.6815107 0.6104401 0.591119
0.6855581 0.6250051 0.609141
0.689155 0.6371936 0.6239994
0.6923702 0.6474841 0.6363881
0.6952582 0.6562429 0.6468201
0.6978633 0.6637538 0.6556823
0.7002218 0.6702393 0.6632712
0.702364 0.6758753 0.6698173
0.7022915 0.6809048 0.6756046
0.701719 0.6851054 0.6806128
0.7012111 0.6887953 0.6849975
0.7007572 0.6920645 0.6888611
0.7003503 0.6949745 0.6922832
0.6999841 0.697576 0.6953287
0.699769 0.698996 0.698266
0.6996669 0.6996669 0.6996669
0.6996669 0.6996669 0.6996669
0.6996669 0.6996669 0.6996669
0.6996669 0.6996669 0.6996669
0.6996669 0.6996669 0.6996669
0.0138216 0.0296941 0.0113128
0.0137627 0.0296952 0.0095984
0.0136693 0.0297025 0.0058396
0.0156102 0.0297638 0.0040499
0.0186072 0.0298736 0.0040303
0.0222633 0.0301128 0.0040132
0.0265461 0.030443 0.0039888
0.0316041 0.0309658 0.003964
0.0378957 0.0320093 0.0039707
0.0450594 0.0331154 0.0039377
0.0532369 0.034361 0.0038594
0.0626017 0.0358331 0.0037251
0.0733604 0.0376276 0.0035153
0.085756 0.0398497 0.003194
0.1000736 0.0426157 0.0026859
0.1166483 0.0460535 0.0017665
0.1358733 0.0503032 0
0.1582044 0.0555183 0
0.1841556 0.0618662 0
0.2142723 0.0695271 0
0.2490675 0.0786894 0
0.2888895 0.0895355 0
0.3336622 0.1022133 0
0.3823796 0.1168031 0
0.4339199 0.1336624 0
0.486867 0.1531005 0
0.5323934 0.1837174 0.0618422
0.5657407 0.2257515 0.1206699
0.5915933 0.2736037 0.1788664
0.6116618 0.3246746 0.2398059
0.6273877 0.376017 0.3010684
0.639928 0.4251439 0.3595259
0.6501118 0.470664 0.4136054
0.6585351 0.5116636 0.4625402
0.6656235 0.5449337 0.5060506
0.6716804 0.5714306 0.5413149
0.6769234 0.5928711 0.5689723
0.6815102 0.6104444 0.5911198
0.6855577 0.6250077 0.6091415
0.6891548 0.6371952 0.6239997
0.69237 0.6474851 0.6363883
0.6952581 0.6562435 0.6468202
0.6978633 0.6637542 0.6556823
0.7002217 0.6702395 0.6632712
0.702364 0.6758754 0.6698173
0.7022915 0.6809049 0.6756046
0.701719 0.6851055 0.6806128
0.7012111 0.6887953 0.6849975
0.7007572 0.6920645 0.6888611
0.7003503 0.6949745 0.6922832
0.6999841 0.697576 0.6953287
0.699769 0.698996 0.698266
0.6996669 0.6996669 0.6996669
0.6996669 0.6996669 0.6996669
0.6996669 0.6996669 0.6996669
0.6996669 0.6996669 0.6996669
0.6996669 0.6996669 0.6996669
0.0167898 0.0360865 0.0135532
0.0167472 0.0361107 0.0120176
0.0166814 0.0361485 0.0091501
0.017463 0.0362262 0.004945
0.0203286 0.0363587 0.0049334
0.023772 0.0365382 0.0049162
0.0278651 0.0367836 0.0048917
0.0326892 0.0371208 0.0048578
0.0384022 0.0376443 0.0048193
0.0454367 0.0386509 0.0048031
0.0535246 0.0397643 0.0047467
0.0628261 0.0410628 0.0046422
0.0735383 0.0426392 0.0044766
0.0858983 0.0446001 0.004227
0.1001881 0.0470664 0.003853
0.1167417 0.0501736 0.0032715
0.1359512 0.054072 0.0022505
0.1582713 0.0589267 0
0.1842136 0.0649163 0
0.2143223 0.072231 0
0.2491087 0.0810663 0
0.2889193 0.0916088 0
0.3336761 0.1040075 0
0.3823722 0.1183425 0
0.4338886 0.1349735 0
0.4868108 0.1542078 0
0.5323333 0.1845865 0.0619341
0.565692 0.2263877 0.1207332
0.5915562 0.2740523 0.1789184
0.6116354 0.3249791 0.2398482
0.6273698 0.3762181 0.3010995
0.6399162 0.4252744 0.3595476
0.6501042 0.4707478 0.41362
0.6585302 0.5117148 0.4625499
0.6656204 0.5449626 0.5060567
0.6716785 0.5714474 0.5413184
0.6769222 0.5928809 0.5689744
0.6815094 0.6104503 0.591121
0.6855573 0.6250113 0.6091422
0.6891545 0.6371974 0.6240002
0.6923699 0.6474865 0.6363886
0.695258 0.6562443 0.6468204
0.6978632 0.6637547 0.6556824
0.7002217 0.6702399 0.6632713
0.702364 0.6758757 0.6698174
0.7022915 0.6809051 0.6756046
0.701719 0.6851056 0.6806128
0.7012111 0.6887954 0.6849975
0.7007572 0.6920645 0.6888611
0.7003503 0.6949745 0.6922832
0.6999841 0.697576 0.6953287
0.699769 0.698996 0.698266
0.6996669 0.6996669 0.6996669
0.6996669 0.6996669 0.6996669
0.6996669 0.6996669 0.6996669
0.6996669 0.6996669 0.6996669
0.6996669 0.6996669 0.6996669
0.0201879 0.0434219 0.0159024
0.0201492 0.0434423 0.0145109
0.0200927 0.0434749 0.0121587
0.0200098 0.0435321 0.0072237
0.0222966 0.0436313 0.0059431
0.0255064 0.0437664 0.0059264
0.0293792 0.0439501 0.0059028
0.0340039 0.0442019 0.00587
0.0394788 0.0445483 0.0058252
0.0459749 0.0450808 0.0057717
0.053922 0.0460839 0.0057334
0.0631224 0.0472357 0.0056529
0.0737628 0.0486202 0.00552
0.0860719 0.0503399 0.0053189
0.1003256 0.0525162 0.0050231
0.1168535 0.0552889 0.0045859
0.1360451 0.0588164 0.0039139
0.158353 0.0632748 0.0027539
0.1842863 0.0688554 0
0.2143861 0.0757611 0
0.2491618 0.0841982 0
0.2889578 0.0943614 0
0.3336937 0.106404 0
0.3823614 0.1204084 0
0.4338456 0.1367394 0
0.4867341 0.1557034 0
0.5322516 0.1857635 0.0620591
0.5656257 0.227251 0.1208193
0.5915058 0.2746618 0.1789892
0.6115995 0.3253931 0.2399059
0.6273454 0.3764917 0.3011419
0.6399002 0.425452 0.3595771
0.6500939 0.4708618 0.4136399
0.6585236 0.5117845 0.462563
0.6656163 0.545002 0.506065
0.6716759 0.5714702 0.5413231
0.6769205 0.5928944 0.5689771
0.6815084 0.6104584 0.5911226
0.6855566 0.6250162 0.6091431
0.6891541 0.6372004 0.6240007
0.6923696 0.6474883 0.6363889
0.6952579 0.6562455 0.6468206
0.6978631 0.6637554 0.6556826
0.7002216 0.6702403 0.6632714
0.7023639 0.675876 0.6698174
0.7022914 0.6809053 0.6756047
0.701719 0.6851057 0.6806129
0.701211 0.6887955 0.6849975
0.7007572 0.6920646 0.6888611
0.7003503 0.6949745 0.6922832
0.6999841 0.697576 0.6953287
0.699769 0.698996 0.698266
0.6996669 0.6996669 0.6996669
0.6996669 0.6996669 0.6996669
0.6996669 0.6996669 0.6996669
0.6996669 0.6996669 0.6996669
0.6996669 0.6996669 0.6996669
0.0240017 0.0516524 0.0185595
0.0239684 0.0516721 0.0173257
0.0239213 0.0517025 0.0153712
0.023854 0.0517526 0.0119222
0.0245836 0.0518336 0.0070794
0.0275433 0.0519359 0.0070636
0.0311686 0.0520746 0.0070414
0.0355578 0.0522642 0.0070107
0.0408171 0.0525249 0.0069686
0.0470637 0.0528849 0.0069116
0.0544866 0.0534368 0.0068417
0.0635342 0.0544688 0.0067817
0.0740634 0.0556926 0.006676
0.0862944 0.0572012 0.0065122
0.1004952 0.0591108 0.0062712
0.1169884 0.0615607 0.0059221
0.1361578 0.0647133 0.0054108
0.1584514 0.0687533 0.0046305
0.1843749 0.073884 0.0032989
0.2144657 0.0803223 0
0.249229 0.0882883 0
0.2890068 0.0979889 0
0.3337155 0.109586 0
0.3823455 0.1231678 0
0.4337865 0.1391091 0
0.4866298 0.1577174 0
0.5321404 0.1873539 0.0622288
0.5655356 0.2284208 0.1209365
0.5914373 0.2754888 0.1790857
0.6115507 0.3259555 0.2399846
0.6273122 0.3768636 0.3011996
0.6398783 0.4256937 0.3596173
0.6500798 0.4710171 0.413667
0.6585147 0.5118794 0.4625809
0.6656106 0.5450556 0.5060763
0.6716724 0.5715012 0.5413295
0.6769183 0.5929127 0.5689808
0.681507 0.6104694 0.5911248
0.6855557 0.6250229 0.6091444
0.6891535 0.6372045 0.6240015
0.6923693 0.6474909 0.6363894
0.6952576 0.6562471 0.6468209
0.6978629 0.6637564 0.6556828
0.7002215 0.670241 0.6632715
0.7023639 0.6758764 0.6698175
0.7022914 0.6809055 0.6756047
0.7017189 0.6851058 0.6806129
0.701211 0.6887956 0.6849976
0.7007572 0.6920646 0.6888611
0.7003503 0.6949746 0.6922832
0.6999841 0.6975761 0.6953287
0.699769 0.698996 0.698266
0.6996669 0.6996669 0.6996669
0.6996669 0.6996669 0.6996669
0.6996669 0.6996669 0.6996669
0.6996669 0.6996669 0.6996669
0.6996669 0.6996669 0.6996669
0.0283112 0.0609497 0.0215951
0.0282836 0.0609697 0.0205171
0.0282452 0.0609997 0.0188827
0.0281912 0.0610461 0.0162445
0.0281152 0.0611216 0.0113019
0.0299675 0.0612114 0.008351
0.0333228 0.0613173 0.0083307
0.0374434 0.0614618 0.0083026
0.0424457 0.0616601 0.0082641
0.0484555 0.0619339 0.0082116
0.0556113 0.0623139 0.0081409
0.0641264 0.062898 0.0080532
0.0744895 0.0639931 0.0079716
0.0865996 0.065327 0.0078394
0.1007174 0.0670049 0.0076418
0.1171572 0.0691594 0.007356
0.1362945 0.0719514 0.0069457
0.1585696 0.0755691 0.0063483
0.1844815 0.0802248 0.0054416
0.2145623 0.0861483 0.0039106
0.2493124 0.0935752 0
0.2890677 0.1027272 0
0.3337415 0.1137794 0
0.3823218 0.126831 0
0.4337052 0.1422734 0
0.4864876 0.1604189 0
0.5319894 0.1894971 0.0624589
0.5654132 0.2300028 0.121096
0.5913443 0.2766094 0.1792173
0.6114843 0.3267188 0.2400919
0.6272671 0.377369 0.3012783
0.6398486 0.4260223 0.3596721
0.6500606 0.4712282 0.4137039
0.6585025 0.5120084 0.4626052
0.6656029 0.5451286 0.5060918
0.6716675 0.5715435 0.5413383
0.6769153 0.5929377 0.5689859
0.6815051 0.6104843 0.5911278
0.6855546 0.625032 0.6091462
0.6891528 0.6372101 0.6240026
0.6923688 0.6474943 0.6363901
0.6952573 0.6562493 0.6468213
0.6978627 0.6637578 0.655683
0.7002214 0.6702418 0.6632717
0.7023638 0.6758769 0.6698176
0.7022914 0.6809059 0.6756048
0.7017189 0.6851061 0.6806129
0.701211 0.6887957 0.6849976
0.7007572 0.6920647 0.6888612
0.7003503 0.6949746 0.6922832
0.6999841 0.6975761 0.6953287
0.699769 0.698996 0.698266
0.6996669 0.6996669 0.6996669
0.6996669 0.6996669 0.6996669
0.6996669 0.6996669 0.6996669
0.6996669 0.6996669 0.6996669
0.6996669 0.6996669 0.6996669
0.0332103 0.0715156 0.0250856
0.0331881 0.0715362 0.0241535
0.0331574 0.0715662 0.0227827
0.0331147 0.0716108 0.0206858
0.0330553 0.0716791 0.0172305
0.032972 0.0717881 0.0102279
0.0359418 0.0718725 0.0097979
0.0397661 0.0719843 0.0097727
0.0444724 0.0721374 0.0097381
0.0501979 0.0723484 0.0096909
0.0570911 0.0726414 0.0096271
0.0653154 0.0730499 0.0095411
0.0751159 0.0736814 0.009434
0.0870448 0.0748784 0.0093305
0.1010317 0.076367 0.0091705
0.1173841 0.078267 0.0089358
0.1364682 0.0807307 0.0085996
0.1587137 0.0839431 0.0081195
0.1846094 0.0881197 0.0074231
0.214678 0.0934991 0.0063729
0.2494121 0.1003309 0.004626
0.2891414 0.1088532 0
0.3337707 0.1192568 0
0.3822859 0.1316578 0
0.4335929 0.1464728 0
0.4862941 0.1640245 0
0.5317844 0.1923742 0.0627703
0.5652471 0.2321365 0.121313
0.5912182 0.2781248 0.1793966
0.6113943 0.3277531 0.240238
0.6272059 0.3780548 0.3013857
0.6398082 0.4264687 0.3597468
0.6500346 0.4715154 0.4137543
0.6584859 0.5121839 0.4626384
0.6655924 0.5452279 0.5061129
0.671661 0.571601 0.5413502
0.6769112 0.5929716 0.5689928
0.6815025 0.6105047 0.5911319
0.6855529 0.6250444 0.6091487
0.6891517 0.6372177 0.6240041
0.6923681 0.647499 0.636391
0.6952569 0.6562522 0.6468218
0.6978625 0.6637597 0.6556833
0.7002213 0.670243 0.6632719
0.7023637 0.6758777 0.6698177
0.7022913 0.6809064 0.6756049
0.7017189 0.6851064 0.680613
0.701211 0.6887959 0.6849976
0.7007572 0.6920649 0.6888612
0.7003503 0.6949747 0.6922832
0.6999841 0.6975761 0.6953287
0.699769 0.698996 0.698266
0.6996669 0.6996669 0.6996669
0.6996669 0.6996669 0.6996669
0.6996669 0.6996669 0.6996669
0.6996669 0.6996669 0.6996669
0.6996669 0.6996669 0.6996669
0.0388102 0.0835893 0.0291193
0.0387927 0.0836105 0.0283195
0.0387687 0.0836406 0.0271681
0.0387356 0.083684 0.0254674
0.0386898 0.0837479 0.022844
0.0386262 0.0838445 0.0184322
0.0391357 0.0839753 0.0114759
0.0426436 0.0840634 0.0114536
0.0470209 0.0841839 0.0114231
0.0524169 0.0843496 0.0113814
0.058993 0.0845789 0.0113247
0.0669244 0.0848985 0.0112482
0.0764039 0.0853462 0.0111454
0.0877171 0.0860439 0.0110169
0.1015054 0.0873876 0.0108914
0.1177159 0.0890826 0.0107016
0.1367077 0.0912656 0.0104261
0.1588992 0.0941105 0.0100331
0.1847658 0.0978276 0.0094733
0.214816 0.1026575 0.008665
0.2495299 0.1088583 0.0074583
0.2892262 0.1166824 0.0055031
0.3338004 0.126338 0
0.3822312 0.137961 0
0.4334377 0.1520035 0
0.4860309 0.1688062 0
0.5315067 0.1962177 0.0631911
0.5650222 0.2350042 0.1216081
0.5910475 0.2801686 0.1796412
0.6112724 0.329152 0.2404373
0.6271228 0.3789842 0.3015319
0.6397534 0.4270746 0.3598487
0.6499992 0.4719055 0.413823
0.6584633 0.5124224 0.4626837
0.6655782 0.545363 0.5061415
0.671652 0.5716794 0.5413665
0.6769056 0.5930179 0.5690022
0.681499 0.6105324 0.5911374
0.6855507 0.6250612 0.609152
0.6891503 0.6372281 0.6240061
0.6923672 0.6475055 0.6363922
0.6952564 0.6562562 0.6468226
0.6978621 0.6637622 0.6556838
0.700221 0.6702446 0.6632722
0.7023635 0.6758787 0.6698179
0.7022912 0.680907 0.675605
0.7017188 0.6851068 0.6806131
0.701211 0.6887961 0.6849977
0.7007572 0.692065 0.6888612
0.7003502 0.6949748 0.6922833
0.6999841 0.6975762 0.6953288
0.699769 0.698996 0.698266
0.6996669 0.6996669 0.6996669
0.6996669 0.6996669 0.6996669
0.6996669 0.6996669 0.6996669
0.6996669 0.6996669 0.6996669
0.6996669 0.6996669 0.6996669
0.0452431 0.0974555 0.0338007
0.0452297 0.0974769 0.0331182
0.0452114 0.097507 0.0321506
0.0451863 0.0975495 0.0307545
0.0451517 0.0976103 0.0286848
0.0451038 0.097699 0.0254685
0.0450373 0.0978315 0.0199599
0.0462065 0.0979801 0.0133846
0.0502302 0.098077 0.013358
0.0552579 0.09821 0.0133217
0.0614649 0.0983934 0.0132722
0.0690407 0.0986478 0.0132051
0.0781921 0.0990035 0.0131145
0.0891468 0.0995038 0.0129929
0.1022407 0.1002901 0.0128409
0.1182317 0.1018315 0.0126929
0.1370681 0.1037911 0.0124712
0.1591602 0.1063236 0.01215
0.1849687 0.1096244 0.0116925
0.2149843 0.1139262 0.0110423
0.2496681 0.1194868 0.0101105
0.2893215 0.1265663 0.0087453
0.333824 0.1353863 0.006637
0.3821476 0.146106 0.002488
0.4332228 0.1592208 0
0.4856735 0.1750974 0
0.5311312 0.2013203 0.0637582
0.5647184 0.2388403 0.1220091
0.590817 0.2829153 0.1799747
0.6111076 0.3310388 0.2407091
0.6270104 0.3802412 0.3017314
