luts/AgX_Rec2100-HLG_p3_lim.cube
TITLE "AgX_Formation Rec.2100 HLG P3 limited"
# AgX Rec.2100 HLG 1000 nits Formation P3 Limited LUT
# This LUT expects input to be E Gamut Log2 encoding from -10 stops to +15 stops
# But the end image formation will be from -10 to 6.5 encoded in Rec.2100-HLG
# Inset matrix can be generated in Rec.2020 with rotation [2.13976149, -1.22827335, -3.05174246],
# Inset: [0.32965205, 0.28051336, 0.12475368], outset = [0.32317438, 0.28325605, 0.0374326].
# HDR purity set to 0.5, HDR extra shoulder power is 2.0
# calculated from power(1000 / 100, log10(2.0))
# The image formed has 40% per-channel shifts
# HDR max nits is 1000, Reference White nits is 100
LUT_3D_SIZE 5
0.0004711 0.0004327 0.0007854
0.1004009 0.0292794 0
0.7365053 0.2926797 0.109832
1 1 0.9930367
1 1 1
0.045582 0.0981888 0.03401
0.1026133 0.1006561 0.0128878
0.7364593 0.3095204 0.1114455
1 1 0.9930405
1 1 1
0.3812439 0.7183132 0.2596827
0.381393 0.7191278 0.239171
0.7405732 0.7341198 0.2061312
1 1 0.9933321
1 1 1
0.9999186 1 0.9844856
0.9999375 1 0.9844927
1 1 0.9850293
1 1 1
1 1 1
1 1 1
1 1 1
1 1 1
1 1 1
1 1 1
0.0225987 0.027335 0.0879922
0.0967787 0.0259116 0.1027457
0.7381948 0.2762788 0.1103243
1 1 0.9930368
1 1 1
0.0500461 0.0982791 0.1020689
0.0929215 0.0929209 0.092929
0.7380098 0.2944271 0.1118001
1 1 0.9930407
1 1 1
0.3801616 0.7165255 0.2776988
0.3803027 0.7173216 0.2591481
0.7391671 0.7326977 0.2039808
1 1 0.9933319
1 1 1
0.9998974 1 0.9844757
0.9999164 1 0.9844828
1 1 0.9850195
1 1 1
1 1 1
1 1 1
1 1 1
1 1 1
1 1 1
1 1 1
0.1888479 0.2330118 0.6688764
0.1910102 0.2256322 0.6811869
0.7126476 0.3439995 0.7320395
1 1 0.9930727
1 1 1
0.1927139 0.2467839 0.669618
0.1946454 0.2403939 0.6811247
0.7135403 0.3451122 0.7329063
1 1 0.9930762
1 1 1
0.4159292 0.7155633 0.7291127
0.4148803 0.7145507 0.7281157
0.7017499 0.7017482 0.7017733
1 1 0.9933406
1 1 1
0.9982124 1 0.9837075
0.9982331 1 0.9837148
0.9997503 1 0.9842635
1 1 1
1 1 1
1 1 1
1 1 1
1 1 1
1 1 1
1 1 1
0.9639472 0.9750099 1
0.9640465 0.9750507 1
0.9709393 0.9779532 1
1 1 1
1 1 1
0.9638899 0.9750058 1
0.9639894 0.9750465 1
0.9708949 0.9779518 1
1 1 1
1 1 1
0.9588989 0.974516 1
0.9590162 0.9745606 1
0.9670663 0.9777138 1
1 1 1
1 1 1
1 1 1
1 1 1
1 1 1
1 1 1
1 1 1
1 1 1
1 1 1
1 1 1
1 1 1
1 1 1
1 1 1
1 1 1
1 1 1
1 1 1
1 1 1
1 1 1
1 1 1
1 1 1
1 1 1
1 1 1
1 1 1
1 1 1
1 1 1
1 1 1
1 1 1
1 1 1
1 1 1
1 1 1
1 1 1
1 1 1
1 1 1
1 1 1
1 1 1
1 1 1
1 1 1
