luts/AgX_Rec2100-HLG_p3_lim_5x.cube
TITLE "AgX_Formation Rec.2100 HLG P3 limited"
# AgX Rec.2100 HLG 1000 nits Formation P3 Limited LUT
# This LUT expects input to be E Gamut Log2 encoding from -10 stops to +15 stops
# But the end image formation will be from -10 to 10 encoded in Rec.2100-HLG
# Inset matrix can be generated in Rec.2020 with rotation [2.13976149, -1.22827335, -3.05174246],
# Inset: [0.32965205, 0.28051336, 0.12475368], outset = [0.32317438, 0.28325605, 0.0374326].
# HDR purity set to 0.5, HDR extra shoulder power multiplier is 1.6233454099638263
# calculated from power(500 / 100, log10(2.0))
# The image formed has 40% per-channel shifts
# HDR max nits is 500, Reference White nits is 100
LUT_3D_SIZE 5
0.0001755 0.0001565 0.0003256
0.1001215 0.0291814 0
0.6847826 0.2841208 0.1457609
0.8906267 0.8559911 0.8470865
0.8932722 0.8932722 0.8932722
0.0454572 0.0979185 0.0339357
0.1024714 0.1005167 0.0128699
0.6843941 0.2981946 0.147175
0.8906248 0.8560052 0.8470896
0.8932722 0.8932722 0.8932722
0.3350447 0.6662406 0.217042
0.335103 0.6670594 0.1959758
0.6752145 0.6693044 0.2409998
0.8904833 0.8570424 0.8473247
0.8932722 0.8932722 0.8932722
0.8528613 0.8896416 0.8396964
0.8528778 0.8896397 0.8397022
0.854098 0.8895041 0.8401433
0.8872212 0.8865312 0.859985
0.8932722 0.8932722 0.8932722
0.8932722 0.8932722 0.8932722
0.8932722 0.8932722 0.8932722
0.8932722 0.8932722 0.8932722
0.8932722 0.8932722 0.8932722
0.8932722 0.8932722 0.8932722
0.0224858 0.0271843 0.0875727
0.096612 0.025867 0.1025697
0.6863575 0.2705496 0.1461725
0.8906295 0.8559798 0.8470867
0.8932722 0.8932722 0.8932722
0.0498781 0.097949 0.101727
0.0928123 0.0928118 0.0928199
0.6858536 0.2856161 0.1474667
0.8906276 0.8559938 0.8470898
0.8932722 0.8932722 0.8932722
0.3344017 0.6647067 0.2355277
0.3344563 0.6655068 0.216826
0.6742175 0.6682904 0.2391229
0.8904859 0.8570317 0.8473246
0.8932722 0.8932722 0.8932722
0.8528429 0.8896428 0.8396882
0.8528594 0.889641 0.839694
0.8540808 0.8895052 0.8401352
0.8872202 0.8865302 0.8599826
0.8932722 0.8932722 0.8932722
0.8932722 0.8932722 0.8932722
0.8932722 0.8932722 0.8932722
0.8932722 0.8932722 0.8932722
0.8932722 0.8932722 0.8932722
0.8932722 0.8932722 0.8932722
0.1796266 0.2226306 0.6471404
0.1874488 0.2195442 0.6553715
0.6604917 0.3367791 0.6783303
0.8908551 0.8550887 0.8471217
0.8932722 0.8932722 0.8932722
0.1824644 0.2348678 0.6457094
0.1841629 0.2285818 0.6572888
0.6611347 0.3377407 0.678944
0.8908529 0.8551035 0.8471244
0.8932722 0.8932722 0.8932722
0.3627783 0.6600294 0.6730282
0.3621348 0.6592894 0.6723036
0.6459461 0.6459448 0.6459645
0.8906935 0.8562001 0.8473372
0.8932722 0.8932722 0.8932722
0.8513769 0.8897462 0.8390579
0.851395 0.8897441 0.8390638
0.8527192 0.8895959 0.8395146
0.8871428 0.8864503 0.8597992
0.8932722 0.8932722 0.8932722
0.8932722 0.8932722 0.8932722
0.8932722 0.8932722 0.8932722
0.8932722 0.8932722 0.8932722
0.8932722 0.8932722 0.8932722
0.8932722 0.8932722 0.8932722
0.8237156 0.8325472 0.8966585
0.8237971 0.8325822 0.8966442
0.8294506 0.8350675 0.8956491
0.8864655 0.863833 0.8885348
0.8932722 0.8932722 0.8932722
0.823668 0.832542 0.8966769
0.8237497 0.8325771 0.8966626
0.8294137 0.835065 0.8956651
0.8864661 0.8638343 0.8885353
0.8932722 0.8932722 0.8932722
0.81952 0.8319919 0.8981796
0.8196165 0.8320307 0.8981621
0.8262319 0.8347583 0.8969598
0.8865133 0.8639341 0.8885781
0.8932722 0.8932722 0.8932722
0.8530404 0.8875155 0.8897346
0.8530385 0.8875149 0.889734
0.8528926 0.8874629 0.8896874
0.8846551 0.884655 0.8846563
0.8932722 0.8932722 0.8932722
0.8932722 0.8932722 0.8932722
0.8932722 0.8932722 0.8932722
0.8932722 0.8932722 0.8932722
0.8932722 0.8932722 0.8932722
0.8932722 0.8932722 0.8932722
0.8932722 0.8932722 0.8932722
0.8932722 0.8932722 0.8932722
0.8932722 0.8932722 0.8932722
0.8932722 0.8932722 0.8932722
0.8932722 0.8932722 0.8932722
0.8932722 0.8932722 0.8932722
0.8932722 0.8932722 0.8932722
0.8932722 0.8932722 0.8932722
0.8932722 0.8932722 0.8932722
0.8932722 0.8932722 0.8932722
0.8932722 0.8932722 0.8932722
0.8932722 0.8932722 0.8932722
0.8932722 0.8932722 0.8932722
0.8932722 0.8932722 0.8932722
0.8932722 0.8932722 0.8932722
0.8932722 0.8932722 0.8932722
0.8932722 0.8932722 0.8932722
0.8932722 0.8932722 0.8932722
0.8932722 0.8932722 0.8932722
0.8932722 0.8932722 0.8932722
0.8932722 0.8932722 0.8932722
0.8932722 0.8932722 0.8932722
0.8932722 0.8932722 0.8932722
0.8932722 0.8932722 0.8932722
0.8932722 0.8932722 0.8932722
