luts/AgX_Rec2100-HLG_p3_lim_10x.cube
TITLE "AgX_Formation Rec.2100 HLG P3 limited"
# AgX Rec.2100 HLG 1000 nits Formation P3 Limited LUT
# This LUT expects input to be E Gamut Log2 encoding from -10 stops to +15 stops
# But the end image formation will be from -10 to 10 encoded in Rec.2100-HLG
# Inset matrix can be generated in Rec.2020 with rotation [2.13976149, -1.22827335, -3.05174246],
# Inset: [0.32965205, 0.28051336, 0.12475368], outset = [0.32317438, 0.28325605, 0.0374326].
# HDR purity set to 0.5, HDR extra shoulder power multiplier is 2.0
# calculated from power(1000 / 100, log10(2.0))
# The image formed has 40% per-channel shifts
# HDR max nits is 1000, Reference White nits is 100
LUT_3D_SIZE 57
0.0004711 0.0004327 0.0007854
0.0052417 0.0013589 0
0.0087518 0.002235 0
0.0124939 0.0031864 0
0.0165916 0.0042522 0
0.0211272 0.0054621 0
0.02618 0.0068458 0
0.0318375 0.0084349 0
0.0381767 0.0102912 0
0.0452877 0.0125491 0
0.0534618 0.0151001 0
0.0628504 0.0179892 0
0.073641 0.0212702 0
0.0860639 0.0250075 0
0.100399 0.0292788 0
0.1169832 0.0341777 0
0.1362171 0.0398163 0
0.1585666 0.0463277 0
0.184556 0.0538676 0
0.2147398 0.0626126 0
0.2496362 0.0727537 0
0.2895895 0.0844794 0
0.3345027 0.0979423 0
0.3837577 0.1133103 0
0.4433624 0.1323523 0
0.5179487 0.1566611 0
0.5950705 0.1876909 0
0.6680433 0.2284615 0.0227276
0.7321836 0.2927272 0.1154125
0.7889032 0.3747204 0.2036487
0.8369912 0.4735017 0.304716
0.8761514 0.5753243 0.4199742
0.9070005 0.6569114 0.5427292
0.9307058 0.7230775 0.6389898
0.9486191 0.7771131 0.7127613
0.962029 0.8212767 0.7713132
0.972044 0.8573062 0.8184104
0.9795623 0.8865889 0.8563642
0.9852796 0.9102654 0.8868215
0.9897115 0.9293102 0.9111194
0.9932245 0.9445728 0.9304154
0.9960709 0.9567878 0.9457107
0.9984222 0.9665746 0.9578473
1 0.974441 0.9675103
1 0.9807944 0.975244
1 0.9860311 0.981548
1 0.9896382 0.9860762
1 0.9925672 0.9897375
1 0.9949901 0.9927441
1 0.9970068 0.9952301
1 0.9986959 0.9972994
1 0.9995955 0.999156
1 1 1
1 1 1
1 1 1
1 1 1
1 1 1
0.0023552 0.0050616 0.001907
0.0052994 0.0051748 0.000662
0.0088233 0.0056863 0.0006382
0.012565 0.0063627 0.000585
0.0166547 0.007161 0.0004677
0.0211797 0.0081021 0.0001429
0.0262217 0.0092183 0
0.0318694 0.0105465 0
0.0381975 0.0121727 0
0.0453311 0.0141964 0
0.0535076 0.0165308 0
0.0628903 0.0192242 0
0.073673 0.0223314 0
0.0860884 0.0259165 0
0.1004174 0.0300557 0
0.1169973 0.0348409 0
0.1362281 0.040382 0
0.1585755 0.0468102 0
0.1845634 0.0542792 0
0.2147461 0.0629638 0
0.2496413 0.0730533 0
0.289593 0.0847348 0
0.3345043 0.0981595 0
0.3837578 0.1134946 0
0.443363 0.1325102 0
0.5179493 0.156798 0
0.5950707 0.1878105 0
0.6680429 0.2285649 0.0227492
0.7321831 0.2928098 0.1154203
0.7889025 0.3747854 0.2036549
0.8369905 0.4735517 0.304721
0.8761507 0.575353 0.4199783
0.9069998 0.6569274 0.542732
0.9307053 0.7230866 0.6389913
0.9486187 0.7771184 0.7127623
0.9620287 0.8212798 0.7713138
0.9720438 0.857308 0.8184108
0.9795622 0.8865899 0.8563644
0.9852795 0.910266 0.8868216
0.9897115 0.9293106 0.9111195
0.9932245 0.944573 0.9304154
0.9960709 0.9567879 0.9457107
0.9984222 0.9665746 0.9578473
1 0.9744411 0.9675103
1 0.9807944 0.975244
1 0.9860311 0.981548
1 0.9896382 0.9860762
1 0.9925672 0.9897375
1 0.9949901 0.9927441
1 0.9970068 0.9952301
1 0.998696 0.9972994
1 0.9995955 0.999156
1 1 1
1 1 1
1 1 1
1 1 1
1 1 1
0.0039455 0.0084761 0.0032322
0.0058116 0.0085412 0.0011457
0.0089377 0.008732 0.0011172
0.0126422 0.009338 0.0011124
0.0167151 0.010046 0.0010817
0.0212293 0.0108617 0.0010117
0.0262623 0.0118179 0.0008821
0.0319016 0.0129575 0.0006418
0.0382291 0.0144022 0
0.0453861 0.0162048 0
0.0535651 0.0183175 0
0.062941 0.0207973 0
0.073714 0.0237049 0
0.0861201 0.0271078 0
0.1004416 0.0310838 0
0.1170159 0.035725 0
0.1362427 0.0411404 0
0.1585874 0.0474598 0
0.1845734 0.0548351 0
0.2147545 0.0634392 0
0.249648 0.0734597 0
0.2895979 0.0850816 0
0.3345065 0.0984547 0
0.3837579 0.1137451 0
0.4433637 0.1327252 0
0.5179502 0.1569843 0
0.5950709 0.1879733 0
0.6680423 0.2287057 0.0227786
0.7321825 0.2929224 0.1154309
0.7889016 0.374874 0.2036633
0.8369895 0.4736198 0.3047278
0.8761497 0.5753922 0.4199838
0.906999 0.6569491 0.5427358
0.9307046 0.723099 0.6389935
0.9486182 0.7771256 0.7127636
0.9620283 0.8212839 0.7713146
0.9720436 0.8573104 0.8184112
0.979562 0.8865913 0.8563647
0.9852794 0.9102668 0.8868218
0.9897114 0.929311 0.9111196
0.9932244 0.9445733 0.9304155
0.9960709 0.9567881 0.9457108
0.9984222 0.9665747 0.9578473
1 0.9744411 0.9675104
1 0.9807944 0.975244
1 0.9860311 0.9815481
1 0.9896382 0.9860762
1 0.9925672 0.9897375
1 0.9949901 0.9927441
1 0.9970068 0.9952301
1 0.998696 0.9972994
1 0.9995955 0.999156
1 1 1
1 1 1
1 1 1
1 1 1
1 1 1
0.0056434 0.0121229 0.0046358
0.006598 0.012139 0.0016492
0.0095171 0.0122738 0.0016287
0.0127789 0.0124931 0.0015986
0.0168004 0.0131528 0.0015974
0.0212874 0.0138936 0.0015696
0.0263049 0.0147398 0.0015059
0.0319339 0.0157338 0.0013935
0.0382768 0.0170379 0.0012368
0.0454551 0.018633 0.0009789
0.0536362 0.0205241 0.0003684
0.0630042 0.0227777 0
0.0737658 0.0254629 0
0.0861608 0.028654 0
0.100473 0.0324335 0
0.1170403 0.0368961 0
0.1362621 0.0421521 0
0.1586034 0.048331 0
0.1845869 0.0555837 0
0.2147658 0.0640815 0
0.2496572 0.0740098 0
0.2896044 0.0855519 0
0.3345095 0.0988555 0
0.3837581 0.1140857 0
0.4433648 0.1330175 0
0.5179514 0.1572379 0
0.5950713 0.1881949 0
0.6680416 0.2288974 0.0228186
0.7321816 0.2930757 0.1154454
0.7889005 0.3749947 0.2036747
0.8369881 0.4737126 0.304737
0.8761483 0.5754456 0.4199914
0.9069978 0.6569787 0.542741
0.9307036 0.7231159 0.6389964
0.9486175 0.7771353 0.7127653
0.9620279 0.8212896 0.7713156
0.9720432 0.8573137 0.8184119
0.9795618 0.8865932 0.8563651
0.9852793 0.9102679 0.8868221
0.9897113 0.9293116 0.9111198
0.9932244 0.9445737 0.9304156
0.9960709 0.9567883 0.9457108
0.9984222 0.9665748 0.9578473
1 0.9744412 0.9675104
1 0.9807945 0.975244
1 0.9860312 0.9815481
1 0.9896382 0.9860762
1 0.9925672 0.9897375
1 0.9949901 0.9927441
1 0.9970068 0.9952301
1 0.998696 0.9972994
1 0.9995955 0.999156
1 1 1
1 1 1
1 1 1
1 1 1
1 1 1
0.0075057 0.0161237 0.0061602
0.0075677 0.0160941 0.0021987
0.010307 0.0162009 0.0021829
0.0133995 0.0163411 0.0021563
0.0169537 0.0165851 0.0021225
0.0213802 0.0172813 0.0021186
0.0263627 0.0180529 0.0020866
0.0319716 0.0189356 0.0020187
0.0383505 0.0201417 0.0019336
0.0455421 0.0215447 0.0017865
0.0537224 0.0232193 0.0015437
0.0630813 0.0252407 0.0011123
0.0738301 0.0276864 0
0.0862121 0.0306389 0
0.1005132 0.0341884 0
0.1170719 0.0384351 0
0.1362875 0.0434931 0
0.1586245 0.0494937 0
0.1846048 0.056588 0
0.214781 0.0649465 0
0.2496695 0.0747531 0
0.2896131 0.0861888 0
0.3345134 0.0993991 0
0.3837584 0.1145481 0
0.4433662 0.1334148 0
0.517953 0.1575828 0
0.5950717 0.1884965 0
0.6680405 0.2291584 0.022873
0.7321804 0.2932844 0.1154652
0.7888989 0.3751591 0.2036902
0.8369862 0.4738391 0.3047496
0.8761465 0.5755183 0.4200017
0.9069961 0.6570191 0.5427481
0.9307023 0.7231389 0.6390004
0.9486165 0.7771486 0.7127677
0.9620272 0.8212973 0.7713171
0.9720428 0.8573181 0.8184128
0.9795615 0.8865957 0.8563657
0.9852791 0.9102694 0.8868224
0.9897112 0.9293125 0.91112
0.9932243 0.9445741 0.9304157
0.9960708 0.9567886 0.9457109
0.9984222 0.966575 0.9578474
1 0.9744413 0.9675104
1 0.9807945 0.975244
1 0.9860312 0.9815481
1 0.9896382 0.9860762
1 0.9925672 0.9897375
1 0.9949901 0.9927441
1 0.9970068 0.9952301
1 0.998696 0.9972994
1 0.9995955 0.999156
1 1 1
1 1 1
1 1 1
1 1 1
1 1 1
0.0095685 0.0205571 0.0078293
0.0094613 0.0205201 0.0048618
0.0112746 0.0205705 0.0027937
0.0142147 0.0206779 0.0027717
0.0176042 0.0208258 0.0027388
0.0215489 0.021092 0.0026995
0.0264628 0.021817 0.0026893
0.0320921 0.0227083 0.0026613
0.0384666 0.0237779 0.0026063
0.0456552 0.0250077 0.0025042
0.0538277 0.0264771 0.0023394
0.063174 0.0282674 0.0020801
0.0739078 0.0304636 0.0016521
0.0862753 0.0331568 0.0007307
0.1005636 0.0364458 0
0.1171122 0.0404389 0
0.1363205 0.0452569 0
0.1586521 0.0510357 0
0.1846285 0.0579287 0
0.2148013 0.0661072 0
0.249686 0.0757542 0
0.2896248 0.0870492 0
0.3345187 0.1001352 0
0.3837586 0.1151753 0
0.4433681 0.1339543 0
0.5179552 0.1580516 0
0.5950723 0.1889066 0
0.6680391 0.2295135 0.022947
0.7321788 0.2935685 0.1154921
0.7888967 0.3753829 0.2037114
0.8369837 0.4740112 0.3047668
0.876144 0.5756173 0.4200158
0.9069939 0.657074 0.5427577
0.9307006 0.7231703 0.6390058
0.9486152 0.7771668 0.712771
0.9620262 0.8213078 0.7713191
0.9720422 0.8573242 0.8184141
0.9795611 0.8865992 0.8563665
0.9852789 0.9102714 0.8868229
0.9897111 0.9293137 0.9111202
0.9932242 0.9445748 0.9304159
0.9960708 0.956789 0.945711
0.9984221 0.9665752 0.9578474
1 0.9744414 0.9675104
1 0.9807946 0.975244
1 0.9860312 0.9815481
1 0.9896383 0.9860762
1 0.9925672 0.9897375
1 0.9949901 0.9927441
1 0.9970068 0.9952301
1 0.998696 0.9972994
1 0.9995955 0.999156
1 1 1
1 1 1
1 1 1
1 1 1
1 1 1
0.0118664 0.0254976 0.0096636
0.0117752 0.025463 0.0073685
0.0124436 0.0254575 0.0034734
0.0152089 0.0255394 0.0034543
0.018451 0.0256499 0.0034262
0.022225 0.025807 0.0033865
0.0267165 0.0261647 0.0033491
0.0323303 0.0270625 0.0033493
0.038651 0.0280155 0.0033143
0.0458085 0.029094 0.0032394
0.053959 0.0303757 0.0031155
0.0632858 0.0319441 0.002925
0.074001 0.0338897 0.0026347
0.0863514 0.0363108 0.0021729
0.1006254 0.039315 0.0013013
0.1171626 0.0430199 0
0.1363624 0.0475554 0
0.1586879 0.053065 0
0.1846595 0.0597075 0
0.214828 0.0676571 0
0.2497079 0.0770978 0
0.2896405 0.0882082 0
0.3345257 0.1011297 0
0.3837589 0.1160245 0
0.4433706 0.134686 0
0.5179582 0.1586881 0
0.5950731 0.1894641 0
0.6680372 0.2299965 0.0230474
0.7321767 0.2939552 0.1155288
0.7888937 0.3756877 0.2037403
0.8369802 0.4742457 0.3047902
0.8761405 0.5757521 0.4200349
0.9069909 0.6571489 0.5427709
0.9306982 0.723213 0.6390132
0.9486134 0.7771914 0.7127754
0.962025 0.8213221 0.7713218
0.9720413 0.8573325 0.8184158
0.9795606 0.886604 0.8563675
0.9852785 0.9102741 0.8868235
0.9897109 0.9293152 0.9111206
0.9932241 0.9445757 0.9304161
0.9960707 0.9567895 0.9457111
0.9984221 0.9665755 0.9578475
1 0.9744416 0.9675105
1 0.9807947 0.975244
1 0.9860313 0.9815481
1 0.9896383 0.9860762
1 0.9925672 0.9897375
1 0.9949901 0.9927441
1 0.9970069 0.9952301
1 0.998696 0.9972994
1 0.9995955 0.999156
1 1 1
1 1 1
1 1 1
1 1 1
1 1 1
0.0144369 0.0310268 0.0116854
0.0143581 0.0309951 0.0097964
0.0142371 0.0309571 0.0055699
0.0164208 0.0310052 0.0042171
0.0195059 0.0311026 0.0041944
0.0232455 0.0313197 0.0041726
0.0276133 0.0316192 0.0041422
0.0327328 0.0320778 0.0041065
0.0389409 0.0329307 0.0040862
0.0460265 0.0338809 0.0040311
0.05413 0.0349974 0.0039344
0.0634234 0.0363616 0.0037847
0.0741129 0.0380654 0.003562
0.0864424 0.0402121 0.00323
0.1006996 0.0429163 0.0027131
0.1172242 0.0463054 0.0017875
0.1364148 0.0505193 0
0.1587334 0.0557114 0
0.1846996 0.0620496 0
0.214863 0.069714 0
0.2497369 0.0788921 0
0.2896612 0.0897639 0
0.3345348 0.1024694 0
0.383759 0.1171719 0
0.4433738 0.1356768 0
0.5179621 0.1595514 0
0.5950741 0.1902209 0
0.6680346 0.2306528 0.0231836
0.7321737 0.2944811 0.1155788
0.7888896 0.3761025 0.2037796
0.8369755 0.474565 0.3048221
0.8761359 0.5759356 0.420061
0.9069868 0.6572508 0.5427888
0.9306949 0.7232713 0.6390233
0.948611 0.7772251 0.7127814
0.9620233 0.8213416 0.7713256
0.9720402 0.8573437 0.8184181
0.9795598 0.8866105 0.8563689
0.9852781 0.9102779 0.8868244
0.9897106 0.9293174 0.9111211
0.9932239 0.944577 0.9304164
0.9960706 0.9567902 0.9457113
0.998422 0.9665759 0.9578476
1 0.9744418 0.9675105
1 0.9807948 0.9752441
1 0.9860314 0.9815481
1 0.9896383 0.9860762
1 0.9925673 0.9897376
1 0.9949901 0.9927441
1 0.9970069 0.9952301
1 0.998696 0.9972994
1 0.9995955 0.999156
1 1 1
1 1 1
1 1 1
1 1 1
1 1 1
0.0173501 0.0373019 0.0138704
0.0172906 0.0372961 0.0122174
0.0172014 0.0372924 0.0091195
0.0181434 0.0373354 0.005095
0.0210683 0.0374558 0.0050808
0.0245742 0.0376188 0.0050602
0.0287329 0.0378417 0.0050314
0.0336246 0.0381484 0.0049917
0.0393851 0.0386123 0.0049434
0.0463469 0.0394545 0.0049038
0.0543656 0.0404312 0.0048281
0.0636014 0.0416156 0.0047074
0.0742508 0.0430965 0.0045281
0.0865517 0.0449781 0.0042671
0.1007882 0.0473794 0.0038834
0.117298 0.0504354 0.0032939
0.1364785 0.0542962 0.0022659
0.1587902 0.0591267 0
0.1847507 0.0651057 0
0.2149082 0.0724233 0
0.2497746 0.0812741 0
0.2896883 0.0918417 0
0.3345466 0.1042676 0
0.3837589 0.1187177 0
0.4433781 0.1370154 0
0.5179674 0.1607203 0
0.5950755 0.1912473 0
0.668031 0.2315438 0.0233679
0.7321697 0.2951961 0.1156468
0.7888841 0.3766668 0.2038331
0.8369691 0.4749996 0.3048655
0.8761295 0.5761852 0.4200965
0.9069813 0.6573895 0.5428132
0.9306904 0.7233505 0.639037
0.9486076 0.7772709 0.7127897
0.9620209 0.8213681 0.7713306
0.9720386 0.8573591 0.8184212
0.9795588 0.8866194 0.8563709
0.9852774 0.910283 0.8868255
0.9897102 0.9293203 0.9111218
0.9932237 0.9445787 0.9304168
0.9960705 0.9567912 0.9457115
0.9984219 0.9665765 0.9578477
1 0.9744422 0.9675106
1 0.980795 0.9752441
1 0.9860315 0.9815481
1 0.9896384 0.9860763
1 0.9925673 0.9897376
1 0.9949901 0.9927441
1 0.9970069 0.9952301
1 0.998696 0.9972994
1 0.9995955 0.999156
1 1 1
1 1 1
1 1 1
1 1 1
1 1 1
0.020692 0.0445159 0.0161783
0.0206393 0.0445102 0.0147091
0.0205634 0.0445065 0.0122247
0.0204537 0.0445135 0.0069316
0.0229045 0.0445996 0.0060738
0.0261603 0.0447226 0.0060547
0.0300828 0.0448901 0.006028
0.0347601 0.04512 0.0059911
0.0402894 0.045437 0.005941
0.0468222 0.0459152 0.0058786
0.0547062 0.0467765 0.0058202
0.0638465 0.0478096 0.0057229
0.0744305 0.0490949 0.0055758
0.0866874 0.0507324 0.0053628
0.1008951 0.0528416 0.0050571
0.1173862 0.0555613 0.0046116
0.1365549 0.0590497 0.0039323
0.1588592 0.0634829 0.0027653
0.1848145 0.0690522 0
0.2149657 0.0759602 0
0.2498232 0.0844124 0
0.2897234 0.0946003 0
0.3345614 0.1066694 0
0.3837582 0.1207923 0
0.4433836 0.1388189 0
0.5179743 0.1622994 0
0.5950774 0.1926368 0
0.6680262 0.232752 0.023617
0.7321642 0.2961672 0.1157395
0.7888766 0.3774342 0.203906
0.8369604 0.4755909 0.3049246
0.8761209 0.5765247 0.420145
0.9069737 0.6575784 0.5428464
0.9306843 0.7234585 0.6390557
0.9486031 0.7773333 0.7128009
0.9620177 0.8214042 0.7713375
0.9720364 0.85738 0.8184255
0.9795574 0.8866314 0.8563735
0.9852766 0.9102899 0.8868271
0.9897096 0.9293243 0.9111228
0.9932234 0.944581 0.9304173
0.9960703 0.9567925 0.9457119
0.9984218 0.9665773 0.9578479
1 0.9744426 0.9675107
1 0.9807953 0.9752442
1 0.9860317 0.9815482
1 0.9896385 0.9860763
1 0.9925673 0.9897376
1 0.9949902 0.9927442
1 0.9970069 0.9952301
1 0.998696 0.9972994
1 0.9995955 0.999156
1 1 1
1 1 1
1 1 1
1 1 1
1 1 1
0.0244556 0.0526373 0.018806
0.0244103 0.0526338 0.0175205
0.0243467 0.0526324 0.0154853
0.0242568 0.0526383 0.0118857
0.0250817 0.0526786 0.0071939
0.0280747 0.0527722 0.0071764
0.0317367 0.0528993 0.007152
0.0361659 0.0530734 0.0071184
0.0414678 0.0533133 0.0070726
0.0477582 0.0536458 0.0070107
0.0552097 0.0541488 0.0069329
0.0642035 0.0550594 0.0068558
0.0746823 0.0561817 0.0067356
0.0868679 0.0576063 0.0065597
0.1010297 0.0594475 0.0063086
0.1174932 0.0618436 0.0059511
0.1366463 0.0649565 0.0054328
0.158942 0.0689707 0.0046462
0.1848917 0.0740898 0.0033075
0.2150373 0.0805302 0
0.2498844 0.0885109 0
0.2897678 0.0982356 0
0.3345796 0.1098583 0
0.3837562 0.1235636 0
0.4433903 0.1412395 0
0.5179834 0.1644268 0
0.5950798 0.1945137 0
0.6680195 0.2343873 0.0239526
0.7321567 0.2974846 0.1158657
0.7888663 0.3784767 0.2040053
0.8369485 0.4763951 0.3050052
0.8761091 0.576986 0.420211
0.9069633 0.6578352 0.5428917
0.930676 0.7236054 0.6390812
0.9485969 0.7774182 0.7128161
0.9620134 0.8214535 0.7713469
0.9720335 0.8574085 0.8184313
0.9795556 0.8866479 0.8563771
0.9852754 0.9102994 0.8868293
0.9897089 0.9293298 0.9111241
0.9932229 0.9445841 0.9304181
0.99607 0.9567944 0.9457123
0.9984217 0.9665784 0.9578482
1 0.9744433 0.9675109
1 0.9807957 0.9752443
1 0.9860319 0.9815482
1 0.9896386 0.9860763
1 0.9925674 0.9897376
1 0.9949902 0.9927442
1 0.9970069 0.9952301
1 0.998696 0.9972994
1 0.9995955 0.999156
1 1 1
1 1 1
1 1 1
1 1 1
1 1 1
0.0287218 0.0618403 0.0218206
0.0286839 0.0618398 0.0207077
0.0286312 0.0618414 0.0190219
0.0285579 0.0618489 0.0163013
0.028455 0.0618705 0.0111847
0.0303979 0.0619349 0.008449
0.0337797 0.0620326 0.0084271
0.0379299 0.0621661 0.008397
0.0429646 0.0623498 0.0083559
0.0490089 0.0626044 0.0083001
0.0562001 0.0629592 0.008225
0.064738 0.0634999 0.0081303
0.075057 0.0644928 0.0080342
0.0871279 0.0657422 0.0078899
0.1012134 0.0673515 0.0076822
0.1176304 0.0694523 0.0073882
0.1367581 0.0722048 0.0069711
0.1590414 0.075797 0.0063679
0.1849845 0.0804412 0.0054558
0.2151236 0.0863669 0.003918
0.2499602 0.0938084 0
0.2898229 0.102984 0
0.3346007 0.1140608 0
0.3837518 0.127243 0
0.4433984 0.1444729 0
0.5179952 0.1672818 0
0.5950828 0.1970415 0
0.6680105 0.2365956 0.024403
0.7321465 0.299269 0.1160375
0.7888524 0.3798916 0.2041405
0.8369323 0.477488 0.305115
0.8760931 0.5776123 0.4203009
0.9069492 0.6581844 0.5429534
0.9306648 0.7238052 0.6391159
0.9485885 0.7775338 0.712837
0.9620075 0.8215205 0.7713598
0.9720296 0.8574473 0.8184393
0.979553 0.8866702 0.8563819
0.9852738 0.9103123 0.8868322
0.9897079 0.9293372 0.9111258
0.9932223 0.9445884 0.9304191
0.9960696 0.9567968 0.9457129
0.9984214 0.9665798 0.9578485
1 0.9744441 0.9675111
1 0.9807962 0.9752444
1 0.9860322 0.9815483
1 0.9896388 0.9860764
1 0.9925675 0.9897376
1 0.9949903 0.9927442
1 0.997007 0.9952301
1 0.998696 0.9972994
1 0.9995955 0.999156
1 1 1
1 1 1
1 1 1
1 1 1
1 1 1
0.033586 0.0723301 0.0252974
0.0335548 0.0723324 0.0243414
0.0335117 0.0723372 0.0229365
0.0334522 0.0723472 0.0207893
0.0333695 0.0723678 0.0172519
0.0332542 0.0724108 0.0100434
0.0363081 0.0724871 0.0098811
0.0401537 0.0725913 0.0098545
0.044884 0.0727344 0.0098182
0.0506359 0.0729322 0.0097687
0.0575574 0.0732076 0.0097018
0.0658108 0.0735935 0.009612
0.0756303 0.0741874 0.0094988
0.0875261 0.0753007 0.0093834
0.1014869 0.0767216 0.0092135
0.117823 0.078569 0.0089708
0.1369039 0.0809944 0.0086281
0.1591637 0.0841825 0.0081427
0.1850958 0.0883484 0.0074419
0.2152269 0.0937307 0.006387
0.2500504 0.1005773 0.0046334
0.289889 0.1091229 0
0.3346235 0.11955 0
0.3837428 0.1320919 0
0.4434074 0.148766 0
0.5180101 0.1710949 0
0.5950865 0.2004327 0
0.6679982 0.2395685 0.0250049
0.7321326 0.3016811 0.1162712
0.7888334 0.3818094 0.2043244
0.8369104 0.4789716 0.3052645
0.8760713 0.5784613 0.4204234
0.9069301 0.6586586 0.5430374
0.9306494 0.724077 0.6391633
0.9485771 0.7776911 0.7128653
0.9619994 0.8216117 0.7713773
0.9720242 0.8575001 0.8184501
0.9795495 0.8867007 0.8563886
0.9852716 0.9103298 0.8868363
0.9897066 0.9293473 0.9111282
0.9932215 0.9445942 0.9304206
0.9960692 0.9568002 0.9457138
0.9984212 0.9665818 0.957849
1 0.9744453 0.9675114
1 0.9807969 0.9752446
1 0.9860326 0.9815484
1 0.989639 0.9860764
1 0.9925677 0.9897377
1 0.9949904 0.9927442
1 0.997007 0.9952301
1 0.9986961 0.9972995
1 0.9995955 0.999156
1 1 1
1 1 1
1 1 1
1 1 1
1 1 1
0.0391612 0.0843498 0.0293254
0.0391358 0.0843546 0.0285088
0.039101 0.0843622 0.0273339
0.0390531 0.0843748 0.0256
0.0389869 0.0843964 0.0229279
0.0388953 0.0844346 0.0184364
0.0394291 0.084501 0.0115473
0.0429521 0.0845841 0.0115241
0.0473468 0.0846978 0.0114924
0.0527626 0.0848545 0.0114491
0.0593607 0.0850721 0.0113904
0.0673159 0.0853762 0.0113112
0.0768203 0.0858043 0.0112051
0.088151 0.0864704 0.0110715
0.1019189 0.0877484 0.0109365
0.1181189 0.0893928 0.0107391
0.1371135 0.0915396 0.0104576
0.159325 0.0943623 0.0100599
0.1852331 0.0980705 0.0094963
0.2153501 0.1029046 0.0086847
0.2501566 0.1091209 0.007474
0.2899642 0.1169683 0.0055123
0.334645 0.1266462 0
0.3837259 0.1384252 0
0.4434163 0.1544236 0
0.5180285 0.1761563 0
0.595091 0.2049595 0
0.6679816 0.2435548 0.0258047
0.7321137 0.3049326 0.1165891
0.7888076 0.3844036 0.2045746
0.8368805 0.4809832 0.3054681
0.8760417 0.5796102 0.4205904
0.9069041 0.659302 0.5431519
0.9306286 0.7244462 0.6392278
0.9485615 0.777905 0.712904
0.9619885 0.8217358 0.7714011
0.9720168 0.857572 0.8184649
0.9795447 0.8867422 0.8563977
0.9852686 0.9103537 0.8868418
0.9897047 0.9293611 0.9111315
0.9932204 0.9446022 0.9304225
0.9960685 0.9568048 0.9457149
0.9984208 0.9665845 0.9578497
1 0.9744468 0.9675118
1 0.9807978 0.9752448
1 0.9860331 0.9815485
1 0.9896394 0.9860765
1 0.9925678 0.9897377
1 0.9949905 0.9927442
1 0.9970071 0.9952301
1 0.9986961 0.9972995
1 0.9995955 0.999156
1 1 1
1 1 1
1 1 1
1 1 1
1 1 1
0.0455819 0.0981887 0.0340099
0.0455615 0.0981954 0.0333152
0.0455336 0.0982054 0.0323306
0.0454954 0.0982204 0.0309113
0.0454428 0.0982435 0.028809
0.0453703 0.0982804 0.0255459
0.0452701 0.0983415 0.0199618
0.0464531 0.0984286 0.0134455
0.0504895 0.0985212 0.0134182
0.0555319 0.0986483 0.0133808
0.0617558 0.0988239 0.01333
0.0693508 0.0990683 0.0132611
0.0785234 0.0994109 0.0131683
0.0895008 0.0998948 0.0130439
0.1026132 0.100656 0.0128878
0.1185989 0.1021497 0.0127326
0.1374433 0.1040761 0.0125054
0.1595605 0.1065891 0.0121803
0.1854152 0.1098837 0.0117197
0.2155016 0.1141917 0.0110671
0.250281 0.1197692 0.0101328
0.290048 0.1268721 0.0087639
0.3346585 0.1357133 0.0066491
0.3836956 0.1466117 0.0023986
0.4434233 0.1618126 0
0.5180504 0.1828239 0
0.5950961 0.2109641 0
0.667959 0.2488717 0.0268607
0.7320881 0.3092998 0.117021
0.7887726 0.3879042 0.2049145
0.83684 0.4837059 0.3057453
0.8760014 0.5811612 0.4208178
0.9068687 0.6601735 0.543308
0.9306002 0.7249472 0.6393157
0.9485404 0.7781956 0.7129567
0.9619736 0.8219046 0.7714335
0.9720068 0.8576698 0.818485
0.9795382 0.8867987 0.85641
0.9852645 0.9103863 0.8868492
0.9897022 0.9293799 0.911136
0.9932189 0.944613 0.9304251
0.9960676 0.9568111 0.9457164
0.9984202 0.9665881 0.9578506
1 0.974449 0.9675123
1 0.9807991 0.9752451
1 0.9860339 0.9815487
1 0.9896398 0.9860766
1 0.9925681 0.9897378
1 0.9949906 0.9927443
1 0.9970072 0.9952302
1 0.9986961 0.9972995
1 0.9995955 0.999156
1 1 1
1 1 1
1 1 1
1 1 1
1 1 1
0.0530075 0.1141898 0.0394752
0.0529913 0.114198 0.0388858
0.0529692 0.1142097 0.0380596
0.0529389 0.1142265 0.0368875
0.0528974 0.1142512 0.0351951
0.0528404 0.114288 0.032681
0.0527619 0.1143448 0.0287568
0.0526533 0.1144351 0.0219418
0.0544643 0.114543 0.0156429
0.0591056 0.1146485 0.015611
0.0649111 0.1147936 0.0155675
0.0720866 0.1149944 0.0155083
0.0808556 0.1152742 0.0154281
0.0914618 0.115667 0.01532
0.1041739 0.1162228 0.0151751
0.1193856 0.1171055 0.0149939
0.1379889 0.1188711 0.0148175
0.1599368 0.1211406 0.0145571
0.1856831 0.1240847 0.014182
0.2157023 0.1279148 0.0136489
0.2504317 0.1328745 0.0128955
0.2901397 0.1392156 0.0118312
0.3346576 0.1471553 0.0103251
0.383643 0.15707 0.008191
0.4434245 0.171362 0.0045109
0.5180757 0.1915272 0
0.5951017 0.2188663 0
0.6679287 0.255916 0.0282455
0.7320533 0.3151382 0.1176074
0.7887252 0.3926122 0.205376
0.8367851 0.4873822 0.3061225
0.8759469 0.583248 0.4211276
0.9068208 0.6613513 0.5435204
0.9305617 0.7256262 0.6394355
0.9485116 0.7785901 0.7130286
0.9619533 0.822134 0.7714778
0.9719931 0.8578028 0.8185124
0.9795294 0.8868756 0.8564269
0.985259 0.9104306 0.8868594
0.9896988 0.9294054 0.911142
0.9932168 0.9446278 0.9304287
0.9960664 0.9568197 0.9457185
0.9984195 0.9665931 0.9578518
1 0.9744519 0.967513
1 0.9808008 0.9752455
