luts/AgX_Rec2100-HLG_p3_lim_3x.cube
TITLE "AgX_Formation Rec.2100 HLG P3 limited"
# AgX Rec.2100 HLG 1000 nits Formation P3 Limited LUT
# This LUT expects input to be E Gamut Log2 encoding from -10 stops to +15 stops
# But the end image formation will be from -10 to 10 encoded in Rec.2100-HLG
# Inset matrix can be generated in Rec.2020 with rotation [2.13976149, -1.22827335, -3.05174246],
# Inset: [0.32965205, 0.28051336, 0.12475368], outset = [0.32317438, 0.28325605, 0.0374326].
# HDR purity set to 0.5, HDR extra shoulder power multiplier is 1.3919633777718028
# calculated from power(300 / 100, log10(2.0))
# The image formed has 40% per-channel shifts
# HDR max nits is 300, Reference White nits is 100
LUT_3D_SIZE 57
0.0000618 0.000052 0.0001343
0.0039397 0.0009731 0
0.007437 0.0018364 0
0.0112268 0.0027896 0
0.0153949 0.0038629 0
0.0200102 0.0050832 0
0.0251455 0.0064796 0
0.0308844 0.0080833 0
0.0372976 0.0099573 0
0.0444702 0.0122417 0
0.0527137 0.0148219 0
0.0621758 0.0177412 0
0.0730404 0.0210522 0
0.0855342 0.0248185 0
0.0999333 0.0291163 0
0.1165713 0.0340383 0
0.1358448 0.0396952 0
0.1582165 0.0462191 0
0.1842077 0.0537647 0
0.2143711 0.0625079 0
0.2492256 0.0726397 0
0.2891212 0.0843501 0
0.3339767 0.097796 0
0.3830011 0.1131114 0
0.4386029 0.1313387 0
0.5013701 0.1531467 0
0.561777 0.1807587 0.0244981
0.6084555 0.22554 0.0979875
0.6472252 0.2787496 0.162014
0.6790019 0.3390122 0.2304835
0.7047947 0.4038003 0.3025345
0.7255764 0.4706451 0.3771087
0.7422973 0.5346837 0.4517117
0.7557972 0.5860451 0.522976
0.766777 0.6270678 0.5796536
0.7757972 0.6602302 0.6236088
0.7832934 0.6872512 0.6584398
0.7895974 0.7094056 0.6864161
0.7949591 0.7276728 0.7091111
0.7995665 0.7428191 0.7276752
0.8035614 0.7554494 0.7429759
0.8070525 0.7660431 0.755678
0.8101234 0.774981 0.7662967
0.8128403 0.7825664 0.7752342
0.8152559 0.7890417 0.7828061
0.8154636 0.7946991 0.7893603
0.814881 0.7989458 0.7944967
0.8143769 0.8025878 0.7988883
0.8139347 0.8057582 0.8026886
0.8135455 0.8085314 0.8059948
0.8132016 0.8109684 0.8088857
0.8130011 0.8122907 0.81162
0.8129073 0.8129073 0.8129073
0.8129073 0.8129073 0.8129073
0.8129073 0.8129073 0.8129073
0.8129073 0.8129073 0.8129073
0.8129073 0.8129073 0.8129073
0.0017723 0.0038054 0.0014773
0.0040997 0.0039986 0.0005115
0.0075716 0.0048094 0.0005355
0.0113406 0.0056507 0.0005085
0.0154887 0.0065589 0.0004043
0.0200858 0.0075787 0
0.0252051 0.0087544 0
0.0309303 0.0101294 0
0.0373286 0.0117962 0
0.0445243 0.0138615 0
0.0527689 0.0162348 0
0.0622234 0.018965 0
0.0730782 0.0221065 0
0.0855629 0.0257231 0
0.0999548 0.0298906 0
0.1165874 0.0346997 0
0.1358571 0.0402598 0
0.1582263 0.0467008 0
0.1842157 0.0541757 0
0.2143778 0.0628586 0
0.2492309 0.072939 0
0.289125 0.0846052 0
0.3339785 0.0980129 0
0.3830008 0.1132952 0
0.4386014 0.131495 0
0.5013667 0.1532796 0
0.5617726 0.1808698 0.0245186
0.6084518 0.2256242 0.0979955
0.6472223 0.2788114 0.1620205
0.6789996 0.3390567 0.2304886
0.704793 0.4038316 0.3025384
0.7255752 0.4706666 0.3771117
0.7422965 0.5346965 0.4517139
0.7557967 0.5860521 0.5229775
0.7667766 0.6270718 0.5796544
0.7757969 0.6602325 0.6236093
0.7832933 0.6872526 0.65844
0.7895973 0.7094064 0.6864163
0.794959 0.7276733 0.7091112
0.7995664 0.7428194 0.7276753
0.8035614 0.7554496 0.7429759
0.8070524 0.7660432 0.755678
0.8101234 0.774981 0.7662967
0.8128403 0.7825665 0.7752342
0.8152559 0.7890418 0.7828061
0.8154636 0.7946991 0.7893603
0.814881 0.7989459 0.7944967
0.8143769 0.8025878 0.7988883
0.8139347 0.8057582 0.8026886
0.8135455 0.8085314 0.8059948
0.8132016 0.8109684 0.8088857
0.8130011 0.8122907 0.81162
0.8129073 0.8129073 0.8129073
0.8129073 0.8129073 0.8129073
0.8129073 0.8129073 0.8129073
0.8129073 0.8129073 0.8129073
0.8129073 0.8129073 0.8129073
0.0033509 0.0071945 0.0027973
0.0049028 0.0073034 0.0009806
0.0077331 0.0075493 0.0009658
0.011458 0.0083996 0.0009979
0.0155818 0.0092748 0.0009922
0.0201616 0.0102132 0.0009395
0.0252669 0.0112629 0.0008207
0.0309798 0.0124753 0.00058
0.0373737 0.0139811 0
0.044593 0.0158396 0
0.0528386 0.0180013 0
0.062284 0.0205248 0
0.0731269 0.0234715 0
0.0856003 0.026909 0
0.099983 0.0309153 0
0.1166087 0.0355817 0
0.1358737 0.0410168 0
0.1582395 0.0473494 0
0.1842265 0.0547308 0
0.2143867 0.0633334 0
0.2492381 0.0733448 0
0.28913 0.0849515 0
0.3339809 0.0983077 0
0.3830005 0.1135452 0
0.4385993 0.1317076 0
0.5013621 0.1534605 0
0.5617667 0.1810212 0.0245466
0.6084469 0.2257388 0.0980063
0.6472184 0.2788955 0.1620292
0.6789966 0.3391173 0.2304955
0.7047907 0.4038742 0.3025438
0.7255736 0.4706958 0.3771158
0.7422954 0.5347139 0.4517169
0.7557959 0.5860618 0.5229794
0.7667761 0.6270773 0.5796555
0.7757966 0.6602356 0.6236099
0.7832931 0.6872544 0.6584404
0.7895972 0.7094075 0.6864165
0.794959 0.7276739 0.7091113
0.7995664 0.7428198 0.7276754
0.8035614 0.7554498 0.742976
0.8070524 0.7660433 0.755678
0.8101234 0.7749811 0.7662967
0.8128403 0.7825665 0.7752342
0.8152559 0.7890418 0.7828061
0.8154636 0.7946991 0.7893603
0.814881 0.7989459 0.7944967
0.8143769 0.8025878 0.7988883
0.8139347 0.8057582 0.8026886
0.8135455 0.8085315 0.8059948
0.8132016 0.8109684 0.8088857
0.8130011 0.8122907 0.81162
0.8129073 0.8129073 0.8129073
0.8129073 0.8129073 0.8129073
0.8129073 0.8129073 0.8129073
0.8129073 0.8129073 0.8129073
0.8129073 0.8129073 0.8129073
0.0050687 0.0108832 0.0042238
0.005852 0.0109354 0.0014867
0.0085464 0.0110956 0.0014733
0.0116303 0.0113639 0.001454
0.015699 0.0122339 0.0014837
0.0202474 0.0131315 0.0014786
0.0253331 0.0140985 0.001432
0.031032 0.0151872 0.0013318
0.0374388 0.0165714 0.0011847
0.0446794 0.0182354 0.0009326
0.0529252 0.0201853 0.0002832
0.0623599 0.0224899 0
0.0731886 0.0252193 0
0.0856484 0.0284486 0
0.1000197 0.0322607 0
0.1166368 0.03675 0
0.1358956 0.0420266 0
0.1582571 0.0482194 0
0.1842411 0.0554785 0
0.2143988 0.0639749 0
0.2492477 0.0738942 0
0.2891369 0.0854212 0
0.3339841 0.098708 0
0.383 0.1138851 0
0.4385964 0.1319969 0
0.5013558 0.1537067 0
0.5617586 0.1812273 0.0245846
0.6084401 0.2258948 0.0980211
0.647213 0.2790101 0.1620411
0.6789924 0.3391998 0.2305049
0.7047876 0.4039322 0.3025511
0.7255714 0.4707356 0.3771214
0.7422938 0.5347375 0.451721
0.7557949 0.5860749 0.5229821
0.7667754 0.6270847 0.579657
0.7757962 0.6602399 0.6236108
0.7832928 0.6872569 0.6584409
0.789597 0.709409 0.6864168
0.7949589 0.7276748 0.7091115
0.7995663 0.7428204 0.7276755
0.8035613 0.7554502 0.742976
0.8070524 0.7660435 0.7556781
0.8101234 0.7749812 0.7662968
0.8128403 0.7825666 0.7752342
0.8152559 0.7890418 0.7828061
0.8154636 0.7946992 0.7893603
0.814881 0.7989459 0.7944967
0.8143769 0.8025878 0.7988883
0.8139347 0.8057582 0.8026886
0.8135455 0.8085315 0.8059948
0.8132016 0.8109684 0.8088857
0.8130011 0.8122907 0.81162
0.8129073 0.8129073 0.8129073
0.8129073 0.8129073 0.8129073
0.8129073 0.8129073 0.8129073
0.8129073 0.8129073 0.8129073
0.8129073 0.8129073 0.8129073
0.0069632 0.0149527 0.0057828
0.0069301 0.0149568 0.0020444
0.0095069 0.0150813 0.0020332
0.0124498 0.0152425 0.0020122
0.015883 0.0155314 0.0019875
0.0203682 0.016413 0.0020104
0.0254159 0.0173289 0.001999
0.0310918 0.0183256 0.001947
0.0375344 0.0196298 0.0018757
0.0447879 0.0211138 0.0017396
0.0530307 0.0228565 0.0015052
0.0624531 0.0249358 0.0010776
0.0732656 0.027431 0
0.0857092 0.0304257 0
0.1000668 0.0340104 0
0.1166733 0.0382856 0
0.1359243 0.0433653 0
0.1582804 0.0493804 0
0.1842605 0.0564815 0
0.214415 0.0648388 0
0.2492607 0.0746365 0
0.2891461 0.0860572 0
0.3339884 0.0992509 0
0.3829993 0.1143465 0
0.4385925 0.13239 0
0.5013473 0.1540415 0
0.5617476 0.1815076 0.0246363
0.608431 0.2261073 0.0980412
0.6472056 0.2791662 0.1620573
0.6789866 0.3393122 0.2305177
0.7047833 0.4040112 0.3025611
0.7255683 0.4707899 0.377129
0.7422917 0.5347698 0.4517266
0.7557935 0.5860927 0.5229858
0.7667745 0.6270949 0.5796591
0.7757956 0.6602458 0.623612
0.7832924 0.6872604 0.6584417
0.7895968 0.709411 0.6864173
0.7949587 0.727676 0.7091117
0.7995662 0.7428211 0.7276756
0.8035613 0.7554506 0.7429761
0.8070524 0.7660438 0.7556781
0.8101234 0.7749814 0.7662968
0.8128403 0.7825667 0.7752342
0.8152559 0.7890419 0.7828061
0.8154636 0.7946992 0.7893603
0.814881 0.7989459 0.7944967
0.8143769 0.8025879 0.7988883
0.8139347 0.8057582 0.8026886
0.8135455 0.8085315 0.8059948
0.8132016 0.8109684 0.8088857
0.8130011 0.8122907 0.81162
0.8129073 0.8129073 0.8129073
0.8129073 0.8129073 0.8129073
0.8129073 0.8129073 0.8129073
0.8129073 0.8129073 0.8129073
0.8129073 0.8129073 0.8129073
0.0090639 0.0194668 0.0074919
0.0089787 0.0194614 0.0048417
0.0105994 0.0195272 0.0026531
0.0134276 0.0196494 0.0026349
0.0167079 0.0198153 0.0026067
0.0205648 0.020123 0.0025754
0.0255417 0.0210131 0.0025887
0.0312382 0.0220402 0.00258
0.0376772 0.0232221 0.0025408
0.0449268 0.0245437 0.0024517
0.0531594 0.0260897 0.0022975
0.0625657 0.0279445 0.0020468
0.0733593 0.0301953 0.0016248
0.0857847 0.0329345 0.0006964
0.1001262 0.0362615 0
0.11672 0.0402851 0
0.1359616 0.0451261 0
0.158311 0.0509201 0
0.1842861 0.0578205 0
0.2144365 0.0659981 0
0.2492782 0.0756364 0
0.2891586 0.0869165 0
0.3339942 0.099986 0
0.3829984 0.1149723 0
0.4385871 0.1329238 0
0.5013356 0.1544965 0
0.5617325 0.1818889 0.0247066
0.6084184 0.2263964 0.0980686
0.6471956 0.2793787 0.1620794
0.6789789 0.3394652 0.2305352
0.7047775 0.4041188 0.3025747
0.7255642 0.4708638 0.3771393
0.7422889 0.5348137 0.4517342
0.7557916 0.5861171 0.5229907
0.7667732 0.6271087 0.5796619
0.7757948 0.6602538 0.6236137
0.7832919 0.687265 0.6584426
0.7895965 0.7094138 0.6864178
0.7949585 0.7276777 0.7091121
0.7995661 0.7428221 0.7276758
0.8035612 0.7554512 0.7429762
0.8070523 0.7660442 0.7556782
0.8101233 0.7749816 0.7662968
0.8128403 0.7825669 0.7752342
0.8152559 0.789042 0.7828061
0.8154636 0.7946993 0.7893603
0.814881 0.7989459 0.7944967
0.8143769 0.8025879 0.7988883
0.8139347 0.8057583 0.8026886
0.8135455 0.8085315 0.8059948
0.8132016 0.8109684 0.8088857
0.8130011 0.8122907 0.81162
0.8129073 0.8129073 0.8129073
0.8129073 0.8129073 0.8129073
0.8129073 0.8129073 0.8129073
0.8129073 0.8129073 0.8129073
0.8129073 0.8129073 0.8129073
0.0114018 0.0244925 0.0093683
0.0113272 0.0244834 0.0072598
0.011864 0.0244996 0.0033438
0.0145469 0.0245916 0.0033273
0.0177063 0.0247147 0.0033023
0.0213964 0.0248874 0.0032665
0.0258263 0.0252876 0.0032367
0.0315092 0.0263407 0.0032589
0.0378934 0.0274181 0.0032414
0.0451104 0.0285981 0.003181
0.0533182 0.0299639 0.0030689
0.0627013 0.0316029 0.0028882
0.0734721 0.0336079 0.002606
0.085876 0.0360787 0.0021505
0.1001995 0.0391237 0.0012812
0.1167787 0.0428611 0
0.1360093 0.047421 0
0.1583507 0.0529466 0
0.1843198 0.059597 0
0.2144651 0.067546 0
0.2493013 0.0769782 0
0.2891751 0.088074 0
0.3340019 0.1009791 0
0.3829969 0.1158197 0
0.4385797 0.1336477 0
0.5013197 0.1551143 0
0.5617121 0.1824072 0.024802
0.6084014 0.2267896 0.0981059
0.6471819 0.279668 0.1621095
0.6789683 0.3396736 0.230559
0.7047696 0.4042654 0.3025932
0.7255585 0.4709645 0.3771534
0.742285 0.5348736 0.4517445
0.755789 0.5861502 0.5229975
0.7667715 0.6271275 0.5796658
0.7757937 0.6602647 0.6236159
0.7832912 0.6872714 0.6584439
0.789596 0.7094176 0.6864186
0.7949582 0.7276799 0.7091126
0.7995659 0.7428234 0.7276761
0.8035611 0.755452 0.7429764
0.8070522 0.7660447 0.7556783
0.8101233 0.7749819 0.7662969
0.8128403 0.7825671 0.7752343
0.8152559 0.7890421 0.7828061
0.8154636 0.7946993 0.7893603
0.814881 0.798946 0.7944967
0.8143768 0.8025879 0.7988883
0.8139347 0.8057583 0.8026886
0.8135455 0.8085315 0.8059948
0.8132015 0.8109684 0.8088857
0.8130011 0.8122907 0.81162
0.8129073 0.8129073 0.8129073
0.8129073 0.8129073 0.8129073
0.8129073 0.8129073 0.8129073
0.8129073 0.8129073 0.8129073
0.8129073 0.8129073 0.8129073
0.0140123 0.030107 0.0114317
0.0139465 0.0300963 0.0096639
0.0138435 0.0300871 0.0057672
0.0158573 0.0301433 0.0041011
0.0188821 0.0302498 0.0040806
0.0225647 0.0304832 0.0040621
0.0268746 0.0308049 0.004036
0.0319526 0.0313091 0.004008
0.0382207 0.0322957 0.0040066
0.0453631 0.0333554 0.003967
0.0535208 0.0345626 0.0038831
0.0628667 0.0360025 0.0037441
0.0736073 0.03777 0.0035304
0.0859857 0.0399696 0.0032057
0.1002879 0.0427173 0.0026948
0.1168507 0.0461408 0.0017733
0.1360691 0.0503804 0
0.1584013 0.0555897 0
0.1843634 0.0619362 0
0.2145024 0.0696004 0
0.2493319 0.0787703 0
0.2891971 0.0896276 0
0.334012 0.1023171 0
0.3829948 0.1169645 0
0.4385696 0.1346279 0
0.501298 0.1559521 0
0.5616842 0.1831107 0.0249313
0.6083782 0.2273242 0.0981567
0.6471634 0.2800614 0.1621505
0.6789538 0.3399572 0.2305914
0.7047589 0.404465 0.3026184
0.7255508 0.4711017 0.3771726
0.7422796 0.5349551 0.4517586
0.7557854 0.5861954 0.5230068
0.7667692 0.6271532 0.579671
0.7757922 0.6602795 0.623619
0.7832903 0.6872801 0.6584457
0.7895954 0.7094227 0.6864197
0.7949579 0.727683 0.7091132
0.7995657 0.7428253 0.7276765
0.803561 0.7554532 0.7429766
0.8070522 0.7660454 0.7556784
0.8101232 0.7749824 0.766297
0.8128402 0.7825673 0.7752343
0.8152559 0.7890423 0.7828062
0.8154636 0.7946994 0.7893603
0.814881 0.7989461 0.7944967
0.8143768 0.8025879 0.7988884
0.8139347 0.8057583 0.8026886
0.8135455 0.8085315 0.8059948
0.8132015 0.8109684 0.8088857
0.8130011 0.8122907 0.81162
0.8129073 0.8129073 0.8129073
0.8129073 0.8129073 0.8129073
0.8129073 0.8129073 0.8129073
0.8129073 0.8129073 0.8129073
0.8129073 0.8129073 0.8129073
0.0169656 0.0364676 0.0136555
0.016917 0.0364808 0.0120831
0.0168428 0.0365033 0.0091448
0.0176719 0.0365675 0.0049912
0.0205563 0.0366968 0.0049788
0.0240195 0.0368718 0.0049606
0.0281335 0.0371109 0.0049349
0.0329793 0.0374395 0.0048994
0.0387081 0.0379455 0.0048579
0.0457226 0.0389031 0.0048347
0.0537919 0.0399758 0.0047725
0.0630761 0.0412403 0.0046631
0.0737721 0.0427882 0.0044933
0.0861171 0.0447254 0.0042402
0.1003939 0.0471724 0.0038631
0.1169375 0.0502646 0.0032791
0.1361422 0.0541524 0.0022556
0.1584647 0.0590008 0
0.184419 0.0649887 0
0.2145508 0.0723065 0
0.2493719 0.0811493 0
0.2892258 0.0917027 0
0.3340251 0.1041129 0
0.3829915 0.1185068 0
0.4385555 0.1359522 0
0.5012684 0.1570864 0
0.5616463 0.1840648 0.0251064
0.6083466 0.2280503 0.0982259
0.6471381 0.2805964 0.1622064
0.6789342 0.3403431 0.2306356
0.7047442 0.4047366 0.3026528
0.7255403 0.4712884 0.3771988
0.7422724 0.535066 0.4517778
0.7557805 0.5862568 0.5230193
0.766766 0.6271881 0.5796782
0.7757901 0.6602997 0.6236231
0.783289 0.6872919 0.6584482
0.7895946 0.7094297 0.6864211
0.7949573 0.7276872 0.7091141
0.7995653 0.7428278 0.727677
0.8035608 0.7554547 0.742977
0.807052 0.7660463 0.7556786
0.8101232 0.774983 0.7662971
0.8128402 0.7825677 0.7752344
0.8152558 0.7890425 0.7828062
0.8154636 0.7946996 0.7893604
0.814881 0.7989461 0.7944967
0.8143768 0.802588 0.7988884
0.8139347 0.8057583 0.8026886
0.8135455 0.8085315 0.8059948
0.8132015 0.8109685 0.8088857
0.8130011 0.8122907 0.81162
0.8129073 0.8129073 0.8129073
0.8129073 0.8129073 0.8129073
0.8129073 0.8129073 0.8129073
0.8129073 0.8129073 0.8129073
0.8129073 0.8129073 0.8129073
0.0203485 0.0437703 0.0159924
0.0203046 0.0437809 0.0145762
0.020241 0.0437997 0.0121824
0.0201481 0.0438378 0.0071389
0.022485 0.0439321 0.0059837
0.0257094 0.0440639 0.0059663
0.0295982 0.0442431 0.0059418
0.0342398 0.0444887 0.0059078
0.0397325 0.0448265 0.0058614
0.0462412 0.045343 0.0058053
0.0541713 0.0463038 0.0057609
0.063356 0.0474203 0.0056753
0.0739821 0.0487752 0.0055382
0.0862783 0.0504705 0.0053334
0.1005212 0.0526268 0.0050345
0.1170414 0.055384 0.0045947
0.1362302 0.0589003 0.0039204
0.1585421 0.0633521 0.002758
0.1844886 0.0689309 0
0.2146123 0.0758393 0
0.2494233 0.0842838 0
0.289263 0.0944577 0
0.3340417 0.1065116 0
0.3829863 0.1205768 0
0.4385361 0.1377361 0
0.5012279 0.1586186 0
0.5615946 0.1853563 0.0253428
0.6083037 0.2290352 0.0983201
0.6471037 0.2813233 0.1622825
0.6789074 0.3408679 0.2306958
0.7047243 0.4051062 0.3026997
0.7255261 0.4715425 0.3772344
0.7422626 0.535217 0.451804
0.7557739 0.5863406 0.5230365
0.7667617 0.6272357 0.5796879
0.7757873 0.6603272 0.6236288
0.7832872 0.687308 0.6584515
0.7895935 0.7094392 0.6864231
0.7949566 0.7276929 0.7091153
0.7995649 0.7428313 0.7276777
0.8035605 0.7554568 0.7429774
0.8070519 0.7660476 0.7556789
0.8101231 0.7749837 0.7662973
0.8128401 0.7825682 0.7752345
0.8152558 0.7890428 0.7828063
0.8154635 0.7946998 0.7893604
0.814881 0.7989463 0.7944967
0.8143768 0.8025881 0.7988884
0.8139347 0.8057584 0.8026887
0.8135455 0.8085315 0.8059948
0.8132015 0.8109685 0.8088857
0.8130011 0.8122907 0.81162
0.8129073 0.8129073 0.8129073
0.8129073 0.8129073 0.8129073
0.8129073 0.8129073 0.8129073
0.8129073 0.8129073 0.8129073
0.8129073 0.8129073 0.8129073
0.0241491 0.0519721 0.0186418
0.0241113 0.0519828 0.0173911
0.0240579 0.052001 0.0154106
0.0239821 0.052034 0.0119142
0.0247392 0.0520989 0.0071154
0.0277096 0.0521987 0.0070991
0.0313467 0.0523342 0.0070763
0.035749 0.0525194 0.0070447
0.0410223 0.0527741 0.0070015
0.0472836 0.053126 0.006943
0.0547167 0.0536634 0.0068707
0.0637503 0.0546592 0.0068056
0.0742669 0.0558528 0.0066955
0.0864871 0.0573365 0.006528
0.1006792 0.0592258 0.0062839
0.117167 0.0616599 0.0059322
0.1363357 0.0648012 0.0054186
0.1586352 0.0688344 0.0046363
0.1845732 0.0739631 0.0033022
0.2146891 0.0804041 0
0.2494884 0.0883773 0
0.2893103 0.0980884 0
0.3340621 0.1096964 0
0.3829783 0.1233418 0
0.438509 0.1401302 0
0.5011725 0.1606822 0
0.5615244 0.1871007 0.0256611
0.6082452 0.2303693 0.0984484
0.6470569 0.2823097 0.1623862
0.6788711 0.3415809 0.2307779
0.7046972 0.4056089 0.3027635
0.7255067 0.4718883 0.3772831
0.7422491 0.5354224 0.4518397
0.7557649 0.5864545 0.5230599
0.7667558 0.6273004 0.5797012
0.7757835 0.6603646 0.6236365
0.7832848 0.6873299 0.6584561
0.789592 0.7094522 0.6864258
0.7949557 0.7277007 0.7091169
0.7995643 0.7428359 0.7276787
0.8035601 0.7554596 0.742978
0.8070516 0.7660493 0.7556793
0.8101229 0.7749848 0.7662975
0.81284 0.7825689 0.7752346
0.8152557 0.7890432 0.7828064
0.8154635 0.7947 0.7893605
0.814881 0.7989464 0.7944968
0.8143768 0.8025882 0.7988884
0.8139347 0.8057584 0.8026887
0.8135455 0.8085316 0.8059948
0.8132015 0.8109685 0.8088857
0.8130011 0.8122907 0.81162
0.8129073 0.8129073 0.8129073
0.8129073 0.8129073 0.8129073
0.8129073 0.8129073 0.8129073
0.8129073 0.8129073 0.8129073
0.8129073 0.8129073 0.8129073
0.0284477 0.0612456 0.0216726
0.0284161 0.0612575 0.0205829
0.0283722 0.0612765 0.0189315
0.0283108 0.0613077 0.0162664
0.0282243 0.0613621 0.011269
0.0301036 0.0614419 0.0083823
0.0334676 0.0615455 0.0083615
0.037598 0.0616868 0.0083328
0.0426111 0.0618808 0.0082935
0.0486326 0.0621491 0.00824
0.0558006 0.0625216 0.0081679
0.0643243 0.0630927 0.0080781
0.0746765 0.0641574 0.0079921
0.0867776 0.0654663 0.0078564
0.1008888 0.0671239 0.0076556
0.1173253 0.0692627 0.0073673
0.136464 0.0720435 0.0069549
0.1587469 0.0756546 0.0063556
0.184675 0.0803083 0.0054472
0.214782 0.0862345 0.0039138
0.249569 0.0936686 0
0.2893691 0.1028308 0
0.3340862 0.1138935 0
0.3829653 0.1270126 0
0.438471 0.1433276 0
0.5010968 0.163451 0
0.5614288 0.1894495 0.0260879
0.6081659 0.2321725 0.0986229
0.6469934 0.2836464 0.1625274
0.6788216 0.3425487 0.2308896
0.7046603 0.4062918 0.3028506
0.7254802 0.4723586 0.3773493
0.7422309 0.5357016 0.4518884
0.7557527 0.5866095 0.5230917
0.7667477 0.6273886 0.5797193
0.7757784 0.6604156 0.623647
0.7832815 0.6873598 0.6584623
0.7895899 0.7094699 0.6864295
0.7949544 0.7277112 0.7091191
0.7995635 0.7428423 0.7276801
0.8035596 0.7554635 0.7429788
0.8070513 0.7660517 0.7556797
0.8101227 0.7749863 0.7662978
0.8128399 0.7825698 0.7752348
0.8152557 0.7890438 0.7828065
0.8154634 0.7947004 0.7893605
0.8148809 0.7989466 0.7944968
0.8143768 0.8025883 0.7988884
0.8139347 0.8057585 0.8026887
0.8135454 0.8085316 0.8059949
0.8132015 0.8109685 0.8088858
0.8130011 0.8122907 0.81162
0.8129073 0.8129073 0.8129073
0.8129073 0.8129073 0.8129073
0.8129073 0.8129073 0.8129073
0.8129073 0.8129073 0.8129073
0.8129073 0.8129073 0.8129073
0.0333387 0.0717937 0.0251607
0.033313 0.0718072 0.0242204
0.0332774 0.0718272 0.0228379
0.0332282 0.0718582 0.0207241
0.0331597 0.0719076 0.0172417
0.0330639 0.0719906 0.0101744
0.0360596 0.0720721 0.009825
0.039891 0.0721816 0.0097993
0.0446055 0.0723318 0.0097642
0.0503401 0.072539 0.0097163
0.0572432 0.0728267 0.0096515
0.0654778 0.0732284 0.0095644
0.075286 0.0738487 0.0094554
0.0872076 0.075021 0.0093484
0.1011898 0.0764897 0.0091853
0.1175409 0.0783744 0.0089482
0.1366284 0.0808273 0.00861
0.1588836 0.0840334 0.0081282
0.1847972 0.0882083 0.0074304
0.2148933 0.0935907 0.0063786
0.2496652 0.1004296 0.0046294
0.28944 0.1089621 0
0.334113 0.1193757 0
0.3829445 0.1318498 0
0.4384176 0.1475719 0
0.500993 0.1671473 0
0.5612991 0.1925999 0.0266575
0.6080582 0.2346028 0.0988603
0.6469071 0.2854545 0.1627197
0.6787545 0.3438606 0.2310418
0.7046102 0.407219 0.3029692
0.7254444 0.4729976 0.3774396
0.7422061 0.5360808 0.4519547
0.755736 0.5868203 0.5231351
0.7667368 0.6275085 0.5797439
0.7757713 0.660485 0.6236614
0.783277 0.6874005 0.6584708
0.7895871 0.709494 0.6864346
0.7949526 0.7277256 0.7091221
0.7995624 0.742851 0.7276819
0.8035589 0.7554688 0.7429799
0.8070509 0.766055 0.7556804
0.8101224 0.7749883 0.7662982
0.8128397 0.782571 0.7752351
0.8152555 0.7890446 0.7828066
0.8154634 0.7947009 0.7893606
0.8148809 0.7989469 0.7944969
0.8143768 0.8025885 0.7988885
0.8139346 0.8057586 0.8026887
0.8135454 0.8085317 0.8059949
0.8132015 0.8109686 0.8088858
0.8130011 0.8122907 0.81162
0.8129073 0.8129073 0.8129073
0.8129073 0.8129073 0.8129073
0.8129073 0.8129073 0.8129073
0.8129073 0.8129073 0.8129073
0.8129073 0.8129073 0.8129073
0.038934 0.0838574 0.0291949
0.0389134 0.0838721 0.0283891
0.0388852 0.0838933 0.0272294
0.0388462 0.0839244 0.0255171
0.0387924 0.0839715 0.0228768
0.0387177 0.084045 0.0184382
0.0392319 0.08415 0.0114996
0.042745 0.0842366 0.0114771
0.0471283 0.0843551 0.0114462
0.0525314 0.0845182 0.011404
0.0591154 0.084744 0.0113467
0.0670554 0.085059 0.0112694
0.0765442 0.0855008 0.0111655
0.0878648 0.0861891 0.0110355
0.1016499 0.0875135 0.0109071
0.1178609 0.0891939 0.0107151
0.1368579 0.0913668 0.0104377
0.159061 0.0942062 0.0100432
0.184947 0.0979222 0.0094823
0.2150262 0.1027555 0.0086729
0.2497789 0.1089637 0.0074648
0.2895212 0.1167979 0.0055073
0.3341396 0.126463 0
0.3829108 0.1381672 0
0.4383418 0.1531633 0
0.5008509 0.1720511 0
0.5611231 0.1968039 0.0274129
0.6079124 0.2378662 0.0991829
0.6467902 0.2878936 0.1629814
0.6786635 0.3456356 0.2312491
0.7045423 0.4084759 0.3031309
0.7253956 0.473865 0.3775626
0.7421724 0.5365953 0.4520451
0.7557134 0.5871066 0.5231942
0.766722 0.6276717 0.5797775
0.7757617 0.6605794 0.6236809
0.7832709 0.6874558 0.6584823
0.7895832 0.7095268 0.6864414
0.7949502 0.7277453 0.7091262
0.7995609 0.7428628 0.7276843
0.803558 0.755476 0.7429814
0.8070503 0.7660594 0.7556813
0.8101221 0.774991 0.7662988
0.8128395 0.7825727 0.7752354
0.8152554 0.7890457 0.7828069
0.8154633 0.7947016 0.7893608
0.8148808 0.7989473 0.794497
0.8143767 0.8025887 0.7988885
0.8139346 0.8057588 0.8026887
0.8135454 0.8085318 0.8059949
0.8132015 0.8109686 0.8088858
0.8130011 0.8122907 0.81162
0.8129073 0.8129073 0.8129073
0.8129073 0.8129073 0.8129073
0.8129073 0.8129073 0.8129073
0.8129073 0.8129073 0.8129073
0.8129073 0.8129073 0.8129073
0.0453667 0.0977228 0.0338798
0.0453506 0.0977384 0.0331928
0.0453285 0.0977605 0.0322189
0.0452981 0.097792 0.0308144
0.0452563 0.0978377 0.0287329
0.0451987 0.0979058 0.0255
0.0451188 0.0980098 0.0199654
0.0462896 0.0981339 0.0134055
0.0503179 0.0982295 0.0133787
0.055351 0.0983607 0.0133421
0.0615642 0.0985418 0.0132922
0.0691473 0.0987932 0.0132245
0.0783067 0.099145 0.0131332
0.0892702 0.0996403 0.0130107
0.1023721 0.1004192 0.0128574
0.1183651 0.1019469 0.0127073
0.1372083 0.1038975 0.0124839
0.1593134 0.1064254 0.0121616
0.1851428 0.109726 0.0117032
0.2151886 0.1140319 0.0110523
0.2499121 0.1196003 0.0101196
0.2896123 0.1266899 0.0087531
0.3341594 0.1355189 0.0066423
0.3828567 0.146332 0.002441
0.4382341 0.1604627 0
0.5006561 0.1785066 0
0.5608848 0.2023774 0.0284075
0.6077153 0.2422269 0.0996214
0.6466321 0.2911727 0.1633376
0.6785404 0.3480312 0.2315313
0.7044502 0.4101767 0.3033512
