luts/AgX_Rec2100-HLG_p3_lim_5x.cube
TITLE "AgX_Formation Rec.2100 HLG P3 limited"
# AgX Rec.2100 HLG 1000 nits Formation P3 Limited LUT
# This LUT expects input to be E Gamut Log2 encoding from -10 stops to +15 stops
# But the end image formation will be from -10 to 10 encoded in Rec.2100-HLG
# Inset matrix can be generated in Rec.2020 with rotation [2.13976149, -1.22827335, -3.05174246],
# Inset: [0.32965205, 0.28051336, 0.12475368], outset = [0.32317438, 0.28325605, 0.0374326].
# HDR purity set to 0.5, HDR extra shoulder power multiplier is 1.6233454099638263
# calculated from power(500 / 100, log10(2.0))
# The image formed has 40% per-channel shifts
# HDR max nits is 500, Reference White nits is 100
LUT_3D_SIZE 57
0.0001755 0.0001565 0.0003256
0.0044218 0.0011136 0
0.0079303 0.0019839 0
0.0117046 0.0029376 0
0.0158477 0.004009 0
0.020434 0.0052261 0
0.0255394 0.0066184 0
0.0312489 0.0082173 0
0.0376358 0.0100853 0
0.0447865 0.0123602 0
0.053005 0.0149297 0
0.0624404 0.0178379 0
0.0732779 0.0211378 0
0.0857457 0.0248933 0
0.1001215 0.0291814 0
0.1167401 0.0340949 0
0.136 0.0397452 0
0.1583651 0.0462649 0
0.1843581 0.0538091 0
0.2145326 0.0625539 0
0.2494072 0.0726905 0
0.2893295 0.0844081 0
0.3342117 0.0978619 0
0.3833544 0.1132038 0
0.440998 0.1318402 0
0.5095523 0.1548246 0
0.5780165 0.1828446 0
0.6357601 0.2266607 0.0760274
0.6847826 0.2841208 0.1457609
0.7262682 0.352332 0.2212138
0.7605901 0.429228 0.3034257
0.7884086 0.5120277 0.3924215
0.8106394 0.584295 0.4854944
0.8282653 0.6419373 0.5699532
0.8422125 0.688599 0.6341671
0.8532847 0.7266052 0.6845574
0.8621422 0.7576433 0.7247503
0.8693058 0.783024 0.7570629
0.8751746 0.8038027 0.783156
0.8800475 0.8208428 0.8043008
0.8841455 0.8348529 0.8214996
0.8876316 0.8464123 0.83555
0.8906267 0.8559911 0.8470865
0.8932216 0.8639681 0.8566122
0.8954857 0.8706469 0.8645247
0.895654 0.8763614 0.8712291
0.8950891 0.8804557 0.8762504
0.8946104 0.8838967 0.8804568
0.8941984 0.8868391 0.8840304
0.8938423 0.889368 0.8870837
0.8935333 0.8915524 0.8897069
0.8933547 0.8927302 0.8921408
0.8932722 0.8932722 0.8932722
0.8932722 0.8932722 0.8932722
0.8932722 0.8932722 0.8932722
0.8932722 0.8932722 0.8932722
0.8932722 0.8932722 0.8932722
0.0019909 0.0042763 0.0016419
0.004551 0.0044411 0.0005681
0.0080447 0.0051406 0.0005743
0.0118042 0.0059198 0.0005374
0.0159309 0.0067868 0.0004284
0.0205015 0.0077772 0
0.0255925 0.0089309 0
0.0312897 0.0102886 0
0.0376629 0.0119406 0
0.0448365 0.0139907 0
0.0530565 0.0163496 0
0.0624849 0.0190661 0
0.0733133 0.0221948 0
0.0857727 0.0257997 0
0.1001417 0.0299567 0
0.1167554 0.034757 0
0.1360118 0.0403103 0
0.1583745 0.046747 0
0.1843659 0.0542203 0
0.214539 0.0629048 0
0.2494124 0.0729899 0
0.2893332 0.0846634 0
0.3342134 0.0980789 0
0.3833544 0.1133879 0
0.4409975 0.1319973 0
0.5095509 0.1549594 0
0.5780142 0.1829603 0
0.6357579 0.2267529 0.0760363
0.6847807 0.2841909 0.1457678
0.7262666 0.3523844 0.2212192
0.7605887 0.4292663 0.30343
0.7884076 0.5120539 0.3924249
0.8106386 0.5843092 0.485497
0.8282647 0.6419453 0.5699547
0.8422121 0.6886035 0.634168
0.8532845 0.7266078 0.6845579
0.862142 0.7576448 0.7247506
0.8693057 0.7830249 0.757063
0.8751745 0.8038032 0.7831561
0.8800474 0.8208431 0.8043009
0.8841454 0.8348531 0.8214996
0.8876316 0.8464124 0.83555
0.8906267 0.8559912 0.8470865
0.8932216 0.8639681 0.8566122
0.8954857 0.8706469 0.8645247
0.895654 0.8763614 0.8712291
0.8950891 0.8804557 0.8762504
0.8946104 0.8838968 0.8804568
0.8941984 0.8868391 0.8840304
0.8938423 0.889368 0.8870837
0.8935333 0.8915524 0.8897069
0.8933547 0.8927302 0.8921408
0.8932722 0.8932722 0.8932722
0.8932722 0.8932722 0.8932722
0.8932722 0.8932722 0.8932722
0.8932722 0.8932722 0.8932722
0.8932722 0.8932722 0.8932722
0.0035762 0.0076798 0.0029651
0.0052466 0.0077721 0.0010431
0.0081901 0.007998 0.0010232
0.0119076 0.0087561 0.0010414
0.0160124 0.0095679 0.0010262
0.0205678 0.0104599 0.000967
0.0256465 0.0114744 0.0008442
0.0313327 0.0126597 0.0006039
0.0377028 0.0141429 0
0.0448999 0.0159805 0
0.0531215 0.018124 0
0.0625416 0.0206311 0
0.073359 0.0235632 0
0.0858079 0.0269877 0
0.1001683 0.0309828 0
0.1167757 0.0356399 0
0.1360276 0.0410679 0
0.1583872 0.047396 0
0.1843764 0.0547758 0
0.2145478 0.06338 0
0.2494194 0.073396 0
0.2893382 0.0850099 0
0.3342157 0.0983739 0
0.3833543 0.1136381 0
0.4409969 0.1322111 0
0.509549 0.1551429 0
0.5780111 0.1831178 0
0.6357548 0.2268786 0.0760484
0.6847782 0.2842863 0.1457772
0.7262644 0.3524557 0.2212266
0.7605869 0.4293185 0.3034358
0.7884061 0.5120896 0.3924295
0.8106376 0.5843285 0.4855006
0.828264 0.6419561 0.5699568
0.8422116 0.6886097 0.6341692
0.8532842 0.7266114 0.6845586
0.8621418 0.7576469 0.7247511
0.8693056 0.7830261 0.7570633
0.8751745 0.8038039 0.7831563
0.8800474 0.8208435 0.804301
0.8841454 0.8348533 0.8214997
0.8876316 0.8464126 0.83555
0.8906267 0.8559913 0.8470865
0.8932216 0.8639682 0.8566122
0.8954857 0.8706469 0.8645247
0.895654 0.8763614 0.8712291
0.8950891 0.8804557 0.8762504
0.8946104 0.8838968 0.8804568
0.8941984 0.8868391 0.8840304
0.8938423 0.889368 0.8870837
0.8935333 0.8915524 0.8897069
0.8933547 0.8927302 0.8921408
0.8932722 0.8932722 0.8932722
0.8932722 0.8932722 0.8932722
0.8932722 0.8932722 0.8932722
0.8932722 0.8932722 0.8932722
0.8932722 0.8932722 0.8932722
0.0052872 0.0113544 0.0043832
0.0061344 0.0113924 0.0015484
0.0089154 0.0115433 0.0015324
0.0120673 0.0117936 0.001509
0.0161182 0.0125838 0.001527
0.0206436 0.0134219 0.0015133
0.025704 0.0143434 0.0014602
0.0313774 0.0153965 0.0013554
0.0377612 0.0167507 0.0012048
0.0449795 0.0183889 0.0009505
0.053202 0.0203168 0.0003182
0.0626126 0.0226022 0
0.0734168 0.025315 0
0.085853 0.02853 0
0.1002029 0.0323299 0
0.1168023 0.0368093 0
0.1360485 0.0420785 0
0.1584042 0.0482665 0
0.1843905 0.0555239 0
0.2145595 0.0640218 0
0.2494288 0.0739457 0
0.2893449 0.0854799 0
0.3342188 0.0987744 0
0.3833542 0.1139783 0
0.440996 0.1325019 0
0.5095464 0.1553926 0
0.5780068 0.1833321 0
0.6357506 0.2270496 0.0760649
0.6847746 0.2844162 0.1457899
0.7262614 0.3525529 0.2212366
0.7605845 0.4293896 0.3034438
0.7884042 0.5121382 0.3924358
0.8106361 0.5843548 0.4855054
0.828263 0.6419709 0.5699596
0.8422109 0.6886181 0.6341709
0.8532837 0.7266163 0.6845596
0.8621415 0.7576497 0.7247516
0.8693054 0.7830278 0.7570637
0.8751743 0.8038049 0.7831565
0.8800473 0.8208441 0.8043011
0.8841454 0.8348537 0.8214998
0.8876315 0.8464128 0.8355501
0.8906267 0.8559914 0.8470866
0.8932216 0.8639682 0.8566122
0.8954857 0.870647 0.8645247
0.895654 0.8763614 0.8712291
0.8950891 0.8804557 0.8762504
0.8946104 0.8838968 0.8804568
0.8941984 0.8868391 0.8840304
0.8938423 0.889368 0.8870837
0.8935333 0.8915524 0.8897069
0.8933547 0.8927302 0.8921408
0.8932722 0.8932722 0.8932722
0.8932722 0.8932722 0.8932722
0.8932722 0.8932722 0.8932722
0.8932722 0.8932722 0.8932722
0.8932722 0.8932722 0.8932722
0.00717 0.0153988 0.005929
0.0071715 0.0153892 0.0021031
0.0098111 0.0155072 0.0020901
0.0128115 0.0156607 0.002067
0.016291 0.015933 0.002039
0.0207541 0.0167443 0.0020517
0.0257776 0.0176056 0.0020325
0.031429 0.0185593 0.0019745
0.0378484 0.0198267 0.0018979
0.0450797 0.0212802 0.0017577
0.0533 0.0229973 0.0015201
0.0626994 0.0250548 0.001091
0.0734888 0.0275314 0
0.0859101 0.0305102 0
0.1002473 0.0340817 0
0.1168368 0.0383464 0
0.1360759 0.0434182 0
0.1584266 0.0494283 0
0.1844092 0.0565275 0
0.2145753 0.0648862 0
0.2494415 0.0746884 0
0.2893539 0.0861163 0
0.334223 0.0993177 0
0.383354 0.1144402 0
0.4409948 0.1328971 0
0.5095428 0.1557321 0
0.578001 0.1836238 0
0.635745 0.2272824 0.0760874
0.6847698 0.2845931 0.1458072
0.7262573 0.3526853 0.2212503
0.7605811 0.4294865 0.3034546
0.7884016 0.5122043 0.3924444
0.8106342 0.5843907 0.485512
0.8282616 0.641991 0.5699635
0.8422099 0.6886296 0.6341731
0.8532831 0.7266229 0.6845609
0.8621411 0.7576536 0.7247525
0.8693051 0.78303 0.7570641
0.8751742 0.8038063 0.7831568
0.8800472 0.8208449 0.8043013
0.8841453 0.8348542 0.8214999
0.8876315 0.8464131 0.8355502
0.8906267 0.8559916 0.8470866
0.8932216 0.8639683 0.8566122
0.8954857 0.8706471 0.8645247
0.8956539 0.8763615 0.8712291
0.895089 0.8804558 0.8762504
0.8946104 0.8838968 0.8804568
0.8941984 0.8868392 0.8840304
0.8938423 0.889368 0.8870837
0.8935333 0.8915524 0.8897069
0.8933547 0.8927302 0.8921408
0.8932722 0.8932722 0.8932722
0.8932722 0.8932722 0.8932722
0.8932722 0.8932722 0.8932722
0.8932722 0.8932722 0.8932722
0.8932722 0.8932722 0.8932722
0.0092567 0.0198831 0.0076228
0.0091628 0.019865 0.0048537
0.0108562 0.0199244 0.0027067
0.0137276 0.0200412 0.002687
0.0170498 0.0202006 0.002657
0.0209405 0.0204929 0.0026228
0.0258938 0.0213206 0.0026272
0.0315656 0.0222964 0.0026112
0.0379811 0.023436 0.002566
0.0452086 0.024723 0.0024719
0.0534195 0.0262401 0.0023137
0.0628042 0.0280706 0.0020597
0.0735762 0.0303008 0.0016354
0.0859807 0.0330227 0.0007097
0.1003031 0.0363354 0
0.1168809 0.0403477 0
0.1361114 0.0451802 0
0.158456 0.050969 0
0.1844341 0.0578672 0
0.2145963 0.0660461 0
0.2494586 0.0756889 0
0.289366 0.086976 0
0.3342285 0.1000532 0
0.3833537 0.1150667 0
0.4409931 0.1334337 0
0.5095378 0.1561937 0
0.5779931 0.1840205 0
0.6357372 0.2275993 0.076118
0.6847633 0.284834 0.1458309
0.7262517 0.3528657 0.2212689
0.7605765 0.4296185 0.3034694
0.788398 0.5122945 0.3924561
0.8106315 0.5844395 0.485521
0.8282597 0.6420184 0.5699687
0.8422087 0.6886453 0.6341762
0.8532822 0.726632 0.6845628
0.8621406 0.7576589 0.7247535
0.8693048 0.7830331 0.7570648
0.875174 0.8038081 0.7831572
0.8800471 0.820846 0.8043015
0.8841452 0.8348548 0.8215
0.8876314 0.8464135 0.8355502
0.8906266 0.8559918 0.8470866
0.8932216 0.8639685 0.8566123
0.8954857 0.8706471 0.8645248
0.8956539 0.8763615 0.8712291
0.895089 0.8804558 0.8762504
0.8946104 0.8838968 0.8804568
0.8941984 0.8868392 0.8840304
0.8938423 0.8893681 0.8870837
0.8935333 0.8915524 0.8897069
0.8933547 0.8927302 0.8921408
0.8932722 0.8932722 0.8932722
0.8932722 0.8932722 0.8932722
0.8932722 0.8932722 0.8932722
0.8932722 0.8932722 0.8932722
0.8932722 0.8932722 0.8932722
0.0115798 0.0248774 0.0094832
0.0114985 0.0248579 0.0073039
0.0120845 0.0248647 0.0033932
0.0147993 0.0249531 0.0033758
0.0179907 0.0250716 0.0033496
0.0217131 0.0252387 0.0033123
0.0261669 0.0256233 0.0032797
0.0318242 0.0266176 0.0032936
0.0381851 0.027648 0.0032695
0.0453805 0.0287898 0.0032036
0.0535676 0.0301238 0.003087
0.0629304 0.0317362 0.0029025
0.0736812 0.0337188 0.0026172
0.086066 0.0361708 0.0021592
0.1003718 0.0392005 0.001289
0.1169363 0.0429258 0
0.1361567 0.0474767 0
0.158494 0.0529967 0
0.1844667 0.0596447 0
0.2146241 0.0675949 0
0.2494812 0.0770315 0
0.2893822 0.0881343 0
0.3342359 0.1010469 0
0.3833532 0.115915 0
0.4409907 0.1341615 0
0.5095311 0.1568204 0
0.5779823 0.1845596 0
0.6357267 0.2280302 0.0761597
0.6847543 0.2851619 0.1458631
0.7262441 0.3531112 0.2212943
0.7605703 0.4297982 0.3034895
0.7883931 0.5124172 0.3924721
0.8106279 0.584506 0.4855333
0.8282572 0.6420557 0.5699759
0.8422069 0.6886666 0.6341804
0.853281 0.7266443 0.6845652
0.8621398 0.757666 0.724755
0.8693043 0.7830373 0.7570657
0.8751737 0.8038106 0.7831577
0.8800469 0.8208474 0.8043018
0.8841451 0.8348557 0.8215002
0.8876314 0.846414 0.8355504
0.8906266 0.8559921 0.8470867
0.8932216 0.8639687 0.8566123
0.8954857 0.8706473 0.8645248
0.8956539 0.8763616 0.8712291
0.895089 0.8804558 0.8762504
0.8946104 0.8838968 0.8804568
0.8941984 0.8868392 0.8840304
0.8938423 0.8893681 0.8870837
0.8935333 0.8915524 0.8897069
0.8933547 0.8927302 0.8921408
0.8932722 0.8932722 0.8932722
0.8932722 0.8932722 0.8932722
0.8932722 0.8932722 0.8932722
0.8932722 0.8932722 0.8932722
0.8932722 0.8932722 0.8932722
0.0141756 0.0304607 0.0115309
0.0141045 0.0304412 0.0097167
0.0139941 0.0304199 0.0056967
0.0160724 0.0304725 0.0041454
0.0191206 0.0305759 0.0041241
0.0228254 0.0308034 0.0041044
0.0271578 0.031117 0.0040767
0.0322521 0.0316042 0.0040458
0.0384981 0.0325403 0.0040373
0.0456198 0.0335585 0.0039918
0.0537579 0.0347315 0.003903
0.063085 0.0361429 0.00376
0.0738072 0.0378863 0.0035428
0.0861682 0.040066 0.0032153
0.1004546 0.0427973 0.0027021
0.1170042 0.0462079 0.0017789
0.1362136 0.0504381 0
0.1585426 0.0556413 0
0.1845089 0.0619852 0
0.2146605 0.0696504 0
0.2495111 0.0788246 0
0.2894036 0.0896888 0
0.3342456 0.1023857 0
0.3833523 0.117061 0
0.4409873 0.135147 0
0.5095219 0.1576703 0
0.5779676 0.1852916 0
0.6357123 0.228616 0.0762165
0.6847422 0.2856079 0.145907
0.7262337 0.3534453 0.2213288
0.7605618 0.430043 0.303517
0.7883865 0.5125843 0.3924938
0.810623 0.5845966 0.48555
0.8282537 0.6421066 0.5699856
0.8422045 0.6886957 0.634186
0.8532795 0.7266611 0.6845686
0.8621388 0.7576758 0.7247571
0.8693037 0.7830431 0.7570669
0.8751732 0.8038139 0.7831584
0.8800466 0.8208494 0.8043023
0.8841449 0.8348569 0.8215005
0.8876313 0.8464147 0.8355505
0.8906265 0.8559925 0.8470868
0.8932215 0.8639689 0.8566124
0.8954857 0.8706474 0.8645248
0.8956539 0.8763617 0.8712291
0.895089 0.8804559 0.8762504
0.8946103 0.8838969 0.8804568
0.8941984 0.8868392 0.8840304
0.8938423 0.8893681 0.8870837
0.8935333 0.8915524 0.8897069
0.8933547 0.8927302 0.8921408
0.8932722 0.8932722 0.8932722
0.8932722 0.8932722 0.8932722
0.8932722 0.8932722 0.8932722
0.8932722 0.8932722 0.8932722
0.8932722 0.8932722 0.8932722
0.0171144 0.0367903 0.0137398
0.0170612 0.0367955 0.0121363
0.0169807 0.0368068 0.0091369
0.0178525 0.0368617 0.005031
0.0207526 0.0369879 0.0050179
0.0242324 0.0371585 0.0049989
0.0283638 0.0373917 0.004972
0.0332275 0.0377122 0.0049349
0.0389689 0.0382025 0.0048908
0.0459642 0.0391164 0.0048614
0.0540152 0.0401529 0.0047941
0.063282 0.0413871 0.0046804
0.0739615 0.0429097 0.0045069
0.0862908 0.0448259 0.0042508
0.1005536 0.0472558 0.0038712
0.1170858 0.0503344 0.003285
0.1362829 0.0542122 0.0022597
0.1586034 0.0590542 0
0.1845626 0.0650394 0
0.2147076 0.0723579 0
0.2495501 0.0812049 0
0.2894317 0.0917651 0
0.3342581 0.1041826 0
0.3833507 0.118605 0
0.4409825 0.1364784 0
0.5095093 0.1588211 0
0.5779476 0.1862841 0
0.6356928 0.2294114 0.0762939
0.6847257 0.2862143 0.1459668
0.7262196 0.3538999 0.2213759
0.7605502 0.4303761 0.3035544
0.7883775 0.5128116 0.3925234
0.8106163 0.5847199 0.4855728
0.8282489 0.6421758 0.5699989
0.8422013 0.6887352 0.6341938
0.8532773 0.726684 0.6845732
0.8621374 0.7576891 0.7247598
0.8693028 0.7830509 0.7570686
0.8751727 0.8038185 0.7831594
0.8800463 0.8208522 0.8043029
0.8841447 0.8348585 0.8215008
0.8876311 0.8464157 0.8355507
0.8906264 0.8559931 0.8470869
0.8932215 0.8639693 0.8566125
0.8954856 0.8706476 0.8645249
0.8956539 0.8763618 0.8712292
0.895089 0.880456 0.8762505
0.8946103 0.8838969 0.8804568
0.8941983 0.8868392 0.8840304
0.8938423 0.8893681 0.8870837
0.8935333 0.8915525 0.8897069
0.8933547 0.8927302 0.8921408
0.8932722 0.8932722 0.8932722
0.8932722 0.8932722 0.8932722
0.8932722 0.8932722 0.8932722
0.8932722 0.8932722 0.8932722
0.8932722 0.8932722 0.8932722
0.0204824 0.0440608 0.0160657
0.0204348 0.0440644 0.0146288
0.020366 0.0440736 0.0121999
0.0202659 0.0440982 0.0070617
0.0226463 0.044189 0.0060184
0.025883 0.0443176 0.0060003
0.0297849 0.0444925 0.005975
0.0344405 0.0447323 0.00594
0.0399476 0.0450624 0.0058922
0.0464661 0.0455645 0.0058336
0.0543796 0.0464877 0.005784
0.0635483 0.0475727 0.0056939
0.0741595 0.0489014 0.005553
0.086442 0.0505749 0.0053451
0.1006728 0.0527134 0.0050436
0.1171834 0.0554566 0.0046016
0.1363663 0.0589626 0.0039253
0.1586773 0.0634077 0.002761
0.1846298 0.0689835 0
0.2147674 0.0758926 0
0.2496003 0.0843412 0
0.289468 0.0945217 0
0.3342739 0.1065827 0
0.383348 0.1206772 0
0.4409757 0.138272 0
0.5094919 0.1603756 0
0.5779203 0.1876276 0
0.6356662 0.2304902 0.0763992
0.6847032 0.2870381 0.1460482
0.7262004 0.3545181 0.22144
0.7605344 0.4308293 0.3036053
0.7883652 0.5131207 0.3925638
0.8106072 0.5848878 0.4856039
0.8282424 0.64227 0.570017
0.8421968 0.6887891 0.6342043
0.8532744 0.7267151 0.6845795
0.8621355 0.7577073 0.7247636
0.8693016 0.7830615 0.7570708
0.8751719 0.8038248 0.7831608
0.8800458 0.8208559 0.8043037
0.8841444 0.8348607 0.8215013
0.887631 0.846417 0.835551
0.8906263 0.8559939 0.8470871
0.8932214 0.8639698 0.8566126
0.8954856 0.870648 0.8645249
0.8956539 0.876362 0.8712292
0.895089 0.8804561 0.8762505
0.8946103 0.883897 0.8804568
0.8941983 0.8868393 0.8840304
0.8938423 0.8893681 0.8870838
0.8935333 0.8915525 0.8897069
0.8933547 0.8927302 0.8921408
0.8932722 0.8932722 0.8932722
0.8932722 0.8932722 0.8932722
0.8932722 0.8932722 0.8932722
0.8932722 0.8932722 0.8932722
0.8932722 0.8932722 0.8932722
0.0242697 0.0522338 0.0187073
0.0242287 0.0522384 0.0174429
0.0241709 0.052248 0.0154409
0.024089 0.0522692 0.0119045
0.0248715 0.0523232 0.0071457
0.0278507 0.0524207 0.007129
0.0314976 0.0525531 0.0071056
0.0359104 0.0527341 0.0070733
0.0411951 0.0529833 0.0070291
0.047468 0.053328 0.0069693
0.0549087 0.0538524 0.0068949
0.0639281 0.0548161 0.0068253
0.0744314 0.0559828 0.0067114
0.0866396 0.0574442 0.0065407
0.1008216 0.0593154 0.0062939
0.1173016 0.0617353 0.0059399
0.1364661 0.0648661 0.0054245
0.1587663 0.0688925 0.0046405
0.1847115 0.0740181 0.0033046
0.214842 0.0804598 0
0.2496638 0.0884369 0
0.2895141 0.0981545 0
0.3342934 0.1097693 0
0.3833433 0.1234452 0
0.4409657 0.1406793 0
0.5094679 0.1624695 0
0.5778831 0.1894421 0
0.63563 0.231951 0.0765424
0.6846726 0.2881559 0.146159
0.7261743 0.3553582 0.2215274
0.760513 0.4314457 0.3036747
0.7883485 0.5135408 0.3926189
0.8105947 0.5851161 0.4856462
0.8282336 0.6423983 0.5700417
0.8421908 0.6888625 0.6342187
0.8532703 0.7267575 0.6845881
0.8621329 0.757732 0.7247687
0.8692999 0.783076 0.7570739
0.8751709 0.8038333 0.7831626
0.8800452 0.8208609 0.8043048
0.884144 0.8348637 0.821502
0.8876307 0.8464188 0.8355514
0.8906262 0.855995 0.8470874
0.8932213 0.8639705 0.8566127
0.8954855 0.8706484 0.864525
0.8956538 0.8763623 0.8712293
0.895089 0.8804562 0.8762505
0.8946103 0.8838971 0.8804568
0.8941983 0.8868393 0.8840304
0.8938423 0.8893682 0.8870838
0.8935333 0.8915525 0.8897069
0.8933547 0.8927302 0.8921408
0.8932722 0.8932722 0.8932722
0.8932722 0.8932722 0.8932722
0.8932722 0.8932722 0.8932722
0.8932722 0.8932722 0.8932722
0.8932722 0.8932722 0.8932722
0.0285569 0.0614824 0.0217325
0.0285226 0.0614889 0.0206336
0.0284748 0.0615002 0.0189685
0.0284082 0.061521 0.0162816
0.0283146 0.0615609 0.0112379
0.0302179 0.061634 0.0084083
0.033589 0.0617354 0.0083871
0.0377272 0.0618738 0.0083579
0.0427489 0.062064 0.0083178
0.0487796 0.0623271 0.0082635
0.055957 0.062693 0.0081903
0.0644867 0.0632526 0.0080986
0.0748273 0.0642903 0.0080088
0.0869181 0.0655767 0.0078698
0.1010209 0.0672162 0.0076664
0.1174515 0.0693408 0.0073759
0.1365878 0.0721112 0.0069617
0.158873 0.0757155 0.0063609
0.1848096 0.0803661 0.005451
0.2149323 0.086293 0.0039158
0.2497424 0.093731 0
0.2895713 0.1028996 0
0.3343162 0.1139689 0
0.3833349 0.1271201 0
0.440951 0.1438945 0
0.5094347 0.1652792 0
0.5778324 0.1918853 0
0.6355809 0.2339246 0.0767373
0.6846309 0.2896706 0.14631
0.7261388 0.3564984 0.2216463
0.7604838 0.4322834 0.3037693
0.7883257 0.514111 0.3926939
0.8105778 0.5854264 0.4857039
0.8282216 0.6425728 0.5700754
0.8421826 0.6889624 0.6342383
0.8532649 0.7268153 0.6845998
0.8621293 0.7577656 0.7247757
0.8692977 0.7830957 0.7570781
0.8751695 0.803845 0.7831651
0.8800443 0.8208678 0.8043063
0.8841435 0.8348679 0.8215029
0.8876304 0.8464213 0.835552
0.890626 0.8559965 0.8470877
0.8932212 0.8639714 0.8566129
0.8954854 0.8706489 0.8645251
0.8956538 0.8763626 0.8712293
0.895089 0.8804564 0.8762506
0.8946103 0.8838972 0.8804569
0.8941983 0.8868394 0.8840304
0.8938423 0.8893682 0.8870838
0.8935333 0.8915525 0.889707
0.8933547 0.8927302 0.8921408
0.8932722 0.8932722 0.8932722
0.8932722 0.8932722 0.8932722
0.8932722 0.8932722 0.8932722
0.8932722 0.8932722 0.8932722
0.8932722 0.8932722 0.8932722
0.0334387 0.0720106 0.0252172
0.0334106 0.0720191 0.0242705
0.0333717 0.0720324 0.0228789
0.033318 0.0720541 0.0207517
0.0332432 0.0720908 0.0172475
0.0331388 0.072156 0.0101255
0.0361569 0.0722353 0.0098471
0.039994 0.0723429 0.0098211
0.0447149 0.0724904 0.0097855
0.0504565 0.0726941 0.009737
0.0573671 0.0729772 0.0096714
0.0656095 0.0733729 0.0095832
0.0754227 0.0739832 0.0094726
0.0873356 0.0751333 0.0093624
0.101311 0.0765841 0.0091968
0.1176579 0.0784549 0.0089575
0.1367447 0.0808977 0.0086176
0.1590039 0.0840974 0.0081345
0.1849273 0.0882695 0.0074355
0.2150403 0.0936527 0.0063824
0.2498361 0.1004956 0.0046314
0.2896401 0.1090343 0
0.3343413 0.1194542 0
0.3833205 0.131963 0
0.4409291 0.148163 0
0.5093887 0.169031 0
0.5777634 0.1951621 0
0.6355141 0.2365834 0.0770022
0.6845744 0.2917188 0.1465154
0.7260906 0.3580441 0.2218082
0.7604442 0.4334206 0.3038982
0.7882947 0.5148842 0.3927961
0.8105548 0.5858479 0.4857826
0.8282052 0.6428101 0.5701212
0.8421714 0.6890983 0.6342651
0.8532575 0.7268939 0.6846157
0.8621245 0.7578114 0.7247853
0.8692946 0.7831226 0.7570839
0.8751676 0.8038608 0.7831686
0.8800431 0.8208772 0.8043084
0.8841428 0.8348735 0.8215041
0.8876299 0.8464247 0.8355527
0.8906257 0.8559986 0.8470881
0.893221 0.8639726 0.8566132
0.8954853 0.8706497 0.8645253
0.8956537 0.8763631 0.8712294
0.8950889 0.8804567 0.8762506
0.8946103 0.8838974 0.8804569
0.8941983 0.8868395 0.8840305
0.8938423 0.8893683 0.8870838
0.8935333 0.8915526 0.889707
0.8933547 0.8927302 0.8921408
0.8932722 0.8932722 0.8932722
0.8932722 0.8932722 0.8932722
0.8932722 0.8932722 0.8932722
0.8932722 0.8932722 0.8932722
0.8932722 0.8932722 0.8932722
0.0390276 0.0840601 0.0292499
0.0390049 0.0840704 0.0284396
0.0389737 0.0840855 0.0272736
0.0389308 0.0841085 0.0255525
0.0388715 0.0841442 0.0228992
0.0387894 0.084202 0.0184394
0.0393098 0.0842898 0.0115186
0.042827 0.0843751 0.0114958
0.047215 0.0844918 0.0114646
0.0526233 0.0846525 0.011422
0.0592131 0.0848752 0.0113642
0.0671595 0.085186 0.0112861
0.0766549 0.0856227 0.0111814
0.0879802 0.0863026 0.01105
0.1017601 0.0876096 0.0109191
0.1179684 0.0892766 0.0107251
0.1369663 0.09144 0.0104461
0.1591748 0.0942735 0.0100504
0.185072 0.0979872 0.0094885
0.2151692 0.1028217 0.0086782
0.2499466 0.1090341 0.007469
0.2897188 0.1168745 0.0055097
0.3343657 0.1265455 0
0.3832959 0.1382881 0
0.4408961 0.1537873 0
0.5093246 0.1740096 0
0.5776694 0.1995346 0
0.6354238 0.2401512 0.0773622
0.6844978 0.2944814 0.146795
0.7260251 0.3601354 0.2220286
0.7603904 0.4349624 0.3040737
0.7882527 0.5159304 0.3929354
0.8105236 0.5864198 0.4858897
0.828183 0.6431325 0.5701837
0.8421561 0.6892831 0.6343015
0.8532473 0.7270009 0.6846374
0.862118 0.7578738 0.7247983
0.8692904 0.7831591 0.7570917
0.8751649 0.8038824 0.7831733
0.8800415 0.82089 0.8043112
0.8841417 0.8348811 0.8215058
0.8876293 0.8464293 0.8355537
0.8906253 0.8560014 0.8470887
0.8932208 0.8639743 0.8566135
0.8954852 0.8706507 0.8645255
0.8956537 0.8763637 0.8712296
0.8950889 0.8804571 0.8762507
0.8946103 0.8838976 0.880457
0.8941983 0.8868396 0.8840305
0.8938423 0.8893683 0.8870838
0.8935333 0.8915526 0.889707
0.8933547 0.8927302 0.8921409
0.8932722 0.8932722 0.8932722
0.8932722 0.8932722 0.8932722
0.8932722 0.8932722 0.8932722
0.8932722 0.8932722 0.8932722
0.8932722 0.8932722 0.8932722
0.0454572 0.0979185 0.0339357
0.0454391 0.0979302 0.0332454
0.0454144 0.0979468 0.032267
0.0453806 0.097971 0.0308563
0.045334 0.0980066 0.0287661
0.0452697 0.0980608 0.0255207
0.0451808 0.0981457 0.019966
0.0463553 0.0982533 0.0134217
0.0503869 0.0983477 0.0133947
0.055424 0.0984774 0.0133578
0.0616417 0.0986564 0.0133075
0.0692298 0.0989052 0.0132394
0.0783949 0.0992535 0.0131475
0.0893645 0.0997445 0.0130243
0.1024714 0.1005167 0.0128699
0.1184631 0.1020318 0.0127179
0.1373085 0.1039736 0.0124931
0.1594204 0.1064964 0.0121697
0.1852623 0.1097954 0.0117105
0.215327 0.114103 0.0110589
0.2500762 0.1196759 0.0101256
0.2898068 0.1267718 0.0087581
0.3343827 0.1356065 0.0066456
0.3832546 0.1464634 0.0024196
0.4408463 0.1611312 0
0.5092352 0.1805657 0
0.5775416 0.2053314 0
0.6353016 0.2449148 0.0778509
0.6843941 0.2981946 0.147175
0.7259364 0.3629582 0.2223283
0.7603175 0.4370492 0.3043129
0.7881956 0.5173429 0.3931253
0.8104812 0.5871944 0.4860358
0.8281528 0.6435701 0.5702688
0.8421355 0.6895342 0.6343511
