luts/AgX_Rec2100-HLG_p3_lim_4x.cube
TITLE "AgX_Formation Rec.2100 HLG P3 limited"
# AgX Rec.2100 HLG 1000 nits Formation P3 Limited LUT
# This LUT expects input to be E Gamut Log2 encoding from -10 stops to +15 stops
# But the end image formation will be from -10 to 10 encoded in Rec.2100-HLG
# Inset matrix can be generated in Rec.2020 with rotation [2.13976149, -1.22827335, -3.05174246],
# Inset: [0.32965205, 0.28051336, 0.12475368], outset = [0.32317438, 0.28325605, 0.0374326].
# HDR purity set to 0.5, HDR extra shoulder power multiplier is 1.517882369490865
# calculated from power(400 / 100, log10(2.0))
# The image formed has 40% per-channel shifts
# HDR max nits is 400, Reference White nits is 100
LUT_3D_SIZE 9
0.0001166 0.000102 0.0002287
0.0310834 0.0081563 0
0.1000379 0.0291524 0
0.2892404 0.0843834 0
0.6686675 0.2816812 0.1533586
0.819225 0.6973546 0.6577325
0.8556083 0.8205971 0.8117572
0.8590009 0.8542622 0.8518528
0.8583974 0.8583974 0.8583974
0.0141016 0.0303003 0.0114862
0.0321162 0.0314703 0.0040286
0.1003806 0.0427617 0.0026988
0.2893153 0.0896627 0
0.6686176 0.2830896 0.1535001
0.8192198 0.6974076 0.6577433
0.8556081 0.8205986 0.8117575
0.8590009 0.8542622 0.8518528
0.8583974 0.8583974 0.8583974
0.0454176 0.0978329 0.0339114
0.0463261 0.0982003 0.0134145
0.1024276 0.1004737 0.0128644
0.2897237 0.1267369 0.008756
0.6681887 0.2950143 0.1547298
0.819175 0.6978679 0.6578376
0.8556064 0.8206111 0.8117601
0.8590009 0.8542626 0.8518529
0.8583974 0.8583974 0.8583974
0.1300009 0.2800443 0.0968974
0.12996 0.2803076 0.0920776
0.1362595 0.2824658 0.0385567
0.2930848 0.2876043 0.0368267
0.6649066 0.3793281 0.165214
0.8187965 0.701742 0.6586619
0.8555916 0.8207203 0.8117834
0.8590004 0.8542661 0.8518538
0.8583974 0.8583974 0.8583974
0.3223137 0.6502647 0.2047535
0.3223186 0.6503502 0.2026903
0.322361 0.6511059 0.1833353
0.3808473 0.6520245 0.133807
0.6559055 0.6501185 0.2478633
0.8161875 0.7278058 0.6657984
0.8554669 0.8216448 0.8119869
0.8589965 0.8542965 0.8518615
0.8583974 0.8583974 0.8583974
0.6883233 0.8147317 0.6289567
0.6883842 0.8147278 0.628977
0.6889133 0.8146939 0.6291543
0.6933589 0.8144066 0.6306953
0.7229709 0.8123992 0.6434687
0.80893 0.8068148 0.7092956
0.8546142 0.8281397 0.8137414
0.858963 0.8545528 0.8519289
0.8583974 0.8583974 0.8583974
0.8174735 0.8546044 0.8044313
0.8174752 0.8546042 0.8044319
0.81749 0.8546026 0.8044369
0.8176186 0.8545884 0.8044812
0.8187065 0.8544684 0.8048656
0.8263001 0.8536477 0.8080269
0.852187 0.8514787 0.8243364
0.8587674 0.8560229 0.8525906
0.8583974 0.8583974 0.8583974
0.8534332 0.8587123 0.8498421
0.8534333 0.8587123 0.8498421
0.8534337 0.8587123 0.8498423
0.8534379 0.8587121 0.8498439
0.8534741 0.8587103 0.8498578
0.8537797 0.8586952 0.8499788
0.8554476 0.8586083 0.8510674
0.8584104 0.8584015 0.8571991
0.8583974 0.8583974 0.8583974
0.8583974 0.8583974 0.8583974
0.8583974 0.8583974 0.8583974
0.8583974 0.8583974 0.8583974
0.8583974 0.8583974 0.8583974
0.8583974 0.8583974 0.8583974
0.8583974 0.8583974 0.8583974
0.8583974 0.8583974 0.8583974
0.8583974 0.8583974 0.8583974
0.8583974 0.8583974 0.8583974
0.0078009 0.00899 0.0309893
0.0296892 0.0079531 0.0316262
0.099442 0.0246541 0.0279554
0.2901353 0.078957 0
0.6688181 0.2804106 0.1533875
0.8192327 0.6973107 0.6577336
0.8556085 0.820596 0.8117572
0.8590009 0.8542622 0.8518528
0.8583974 0.8583974 0.8583974
0.0155024 0.0304245 0.0317
0.0290557 0.0290554 0.0290587
0.1032305 0.0302089 0
0.2901456 0.0846506 0
0.6687671 0.2818285 0.1535279
0.8192275 0.6973637 0.6577444
0.8556084 0.8205974 0.8117575
0.8590009 0.8542622 0.8518528
0.8583974 0.8583974 0.8583974
0.0452717 0.0965006 0.0452822
0.0447715 0.09645 0.0333101
0.0995977 0.0976979 0.012509
0.2900967 0.1236162 0.0078106
0.6683286 0.2938311 0.1547476
0.8191827 0.6978243 0.6578385
0.8556067 0.82061 0.8117601
0.8590009 0.8542626 0.8518529
0.8583974 0.8583974 0.8583974
0.129788 0.2792414 0.1012044
0.1297452 0.2794933 0.0967098
0.1330165 0.2818147 0.0384963
0.2922322 0.2867654 0.0367192
0.6649798 0.3785578 0.1651625
0.8188036 0.7017013 0.658662
0.8555919 0.8207192 0.8117834
0.8590004 0.8542661 0.8518538
0.8583974 0.8583974 0.8583974
0.3222563 0.6501105 0.206776
0.3222612 0.6501958 0.2047391
0.3223034 0.6509498 0.1856562
0.3799148 0.6519673 0.1335295
0.6558129 0.6500242 0.2476794
0.8161914 0.7277807 0.6657936
0.8554672 0.8216437 0.8119869
0.8589965 0.8542964 0.8518615
0.8583974 0.8583974 0.8583974
0.6882563 0.8147338 0.6289277
0.6883173 0.8147299 0.6289481
0.688847 0.814696 0.6291254
0.6932973 0.8144084 0.6306668
0.7229343 0.8123994 0.6434439
0.8089272 0.8068118 0.7092872
0.8546143 0.828139 0.8137412
0.858963 0.8545527 0.8519289
0.8583974 0.8583974 0.8583974
0.8174716 0.8546046 0.8044305
0.8174733 0.8546044 0.804431
0.8174881 0.8546027 0.8044361
0.8176168 0.8545885 0.8044804
0.8187047 0.8544685 0.8048648
0.8262989 0.8536478 0.8080262
0.8521869 0.8514786 0.8243362
0.8587674 0.8560228 0.8525906
0.8583974 0.8583974 0.8583974
0.8534331 0.8587123 0.8498421
0.8534332 0.8587123 0.8498421
0.8534337 0.8587123 0.8498423
0.8534378 0.8587121 0.8498439
0.853474 0.8587103 0.8498578
0.8537797 0.8586952 0.8499788
0.8554476 0.8586083 0.8510674
0.8584104 0.8584015 0.8571991
0.8583974 0.8583974 0.8583974
0.8583974 0.8583974 0.8583974
0.8583974 0.8583974 0.8583974
0.8583974 0.8583974 0.8583974
0.8583974 0.8583974 0.8583974
0.8583974 0.8583974 0.8583974
0.8583974 0.8583974 0.8583974
0.8583974 0.8583974 0.8583974
0.8583974 0.8583974 0.8583974
0.8583974 0.8583974 0.8583974
0.0224525 0.0271401 0.0874487
0.0289776 0.0203917 0.0991849
0.0965647 0.0258544 0.1025197
0.2865914 0.0711153 0.0860255
0.6702197 0.2688595 0.1537467
0.8193006 0.6969257 0.6577439
0.8556111 0.8205858 0.8117574
0.859001 0.8542618 0.8518528
0.8583974 0.8583974 0.8583974
0.0271666 0.0399404 0.0939133
0.0267237 0.0323947 0.103953
0.0981469 0.026278 0.1042003
0.2878172 0.0713571 0.0809287
0.6701582 0.2703691 0.1538759
0.8192954 0.696979 0.6577545
0.8556109 0.8205872 0.8117577
0.859001 0.8542619 0.8518528
0.8583974 0.8583974 0.8583974
0.0498234 0.0978417 0.1016158
0.0488909 0.0960102 0.0997143
0.0927821 0.0927816 0.0927897
0.2994947 0.0876748 0
0.6696309 0.2831114 0.1550012
0.81925 0.6974428 0.6578478
0.8556092 0.8205998 0.8117603
0.8590009 0.8542623 0.8518529
0.8583974 0.8583974 0.8583974
0.1290729 0.2748438 0.131878
0.128847 0.2746487 0.1288771
0.1280888 0.2759438 0.0952261
0.2846246 0.2792821 0.0357606
0.6656687 0.371682 0.1647699
0.8188663 0.7013454 0.6586636
0.8555944 0.8207091 0.8117836
0.8590005 0.8542658 0.8518538
0.8583974 0.8583974 0.8583974
0.3217582 0.64877 0.2234872
0.3217629 0.6488536 0.2216514
0.3218027 0.6495926 0.2046128
0.3715787 0.6514729 0.1311002
0.6550013 0.6491972 0.2460706
0.8162258 0.7275603 0.6657521
0.8554695 0.8216342 0.8119869
0.8589965 0.8542961 0.8518615
0.8583974 0.8583974 0.8583974
0.687669 0.8147523 0.6286747
0.6877306 0.8147484 0.6286951
0.6882654 0.8147141 0.6288728
0.6927571 0.8144243 0.6304173
0.7226139 0.8124014 0.6432271
0.8089024 0.8067863 0.7092143
0.8546156 0.8281325 0.81374
0.858963 0.8545524 0.8519289
0.8583974 0.8583974 0.8583974
0.8174552 0.8546056 0.8044233
0.8174569 0.8546055 0.8044239
0.8174717 0.8546038 0.804429
0.8176005 0.8545896 0.8044733
0.8186894 0.8544694 0.8048578
0.826289 0.8536481 0.8080202
0.852186 0.8514776 0.8243341
0.8587674 0.8560228 0.8525905
0.8583974 0.8583974 0.8583974
0.8534326 0.8587123 0.8498418
0.8534327 0.8587123 0.8498419
0.8534331 0.8587123 0.849842
0.8534373 0.8587121 0.8498436
0.8534735 0.8587103 0.8498575
0.8537792 0.8586952 0.8499785
0.8554474 0.8586083 0.8510671
0.8584104 0.8584015 0.857199
0.8583974 0.8583974 0.8583974
0.8583974 0.8583974 0.8583974
0.8583974 0.8583974 0.8583974
0.8583974 0.8583974 0.8583974
0.8583974 0.8583974 0.8583974
0.8583974 0.8583974 0.8583974
0.8583974 0.8583974 0.8583974
0.8583974 0.8583974 0.8583974
0.8583974 0.8583974 0.8583974
0.8583974 0.8583974 0.8583974
0.0649859 0.0789753 0.2525048
0.0653574 0.0765349 0.2579976
0.0950946 0.0716839 0.2785086
0.2777402 0.0809497 0.2945061
0.6731072 0.2356422 0.2747494
0.8199271 0.6934372 0.6579067
0.8556331 0.8204967 0.8117593
0.8590013 0.854259 0.8518528
0.8583974 0.8583974 0.8583974
0.0661572 0.0830067 0.2532166
0.0664919 0.0808029 0.25836
0.0930414 0.0726144 0.282242
0.2782404 0.081111 0.2950339
0.6732912 0.2356661 0.2733181
0.8199213 0.693494 0.6579164
0.8556329 0.8204982 0.8117596
0.8590013 0.8542591 0.8518528
0.8583974 0.8583974 0.8583974
0.0793217 0.1185916 0.2702931
0.0790744 0.1167346 0.2724145
0.0782545 0.0950929 0.3040706
0.2825547 0.082511 0.2995844
0.6749072 0.2358573 0.260095
0.8198708 0.6939872 0.6580008
0.8556312 0.8205108 0.8117622
0.8590013 0.8542595 0.8518529
0.8583974 0.8583974 0.8583974
0.1418263 0.2785345 0.2891664
0.141539 0.2779699 0.2885824
0.1389973 0.2729747 0.2834155
0.2669166 0.2669151 0.2669373
0.6721706 0.3200506 0.2189932
0.8194446 0.6981289 0.658744
0.8556162 0.8206207 0.8117852
0.8590008 0.854263 0.8518537
0.8583974 0.8583974 0.8583974
0.3204867 0.6413058 0.3305826
0.3203887 0.6412418 0.3294828
0.3199545 0.6412457 0.3200527
0.3194493 0.6464627 0.204346
0.6475562 0.6416118 0.2317191
0.8165422 0.7255942 0.6654212
0.8554898 0.8215508 0.8119867
0.8589969 0.8542933 0.8518614
0.8583974 0.8583974 0.8583974
0.6822743 0.8149279 0.626441
0.6823415 0.8149237 0.6264617
0.6829249 0.8148869 0.6266422
0.6878104 0.8145759 0.6282133
0.7197253 0.8124256 0.6413086
0.8086855 0.8065624 0.7085744
0.8546267 0.828076 0.8137298
0.8589633 0.8545498 0.8519288
0.8583974 0.8583974 0.8583974
0.8173112 0.8546153 0.8043611
0.8173129 0.8546151 0.8043617
0.8173278 0.8546134 0.8043668
0.8174576 0.8545991 0.8044112
0.8185552 0.8544779 0.8047966
0.8262025 0.8536505 0.8079674
0.8521779 0.8514693 0.8243155
0.8587675 0.856022 0.8525898
0.8583974 0.8583974 0.8583974
0.853428 0.8587126 0.8498397
0.853428 0.8587126 0.8498397
0.8534285 0.8587125 0.8498399
0.8534327 0.8587123 0.8498415
0.8534689 0.8587106 0.8498554
0.8537749 0.8586955 0.8499764
0.855446 0.8586084 0.851065
0.8584104 0.8584015 0.8571983
0.8583974 0.8583974 0.8583974
0.8583974 0.8583974 0.8583974
0.8583974 0.8583974 0.8583974
0.8583974 0.8583974 0.8583974
0.8583974 0.8583974 0.8583974
0.8583974 0.8583974 0.8583974
0.8583974 0.8583974 0.8583974
0.8583974 0.8583974 0.8583974
0.8583974 0.8583974 0.8583974
0.8583974 0.8583974 0.8583974
0.176588 0.219231 0.6396124
0.1767692 0.2185571 0.640871
0.1862862 0.2175604 0.6463364
0.2918973 0.2369496 0.6555638
0.6441741 0.3346044 0.6616189
0.8200891 0.6900677 0.7020237
0.8558365 0.8196954 0.8117936
0.8590045 0.8542345 0.8518524
0.8583974 0.8583974 0.8583974
0.1768455 0.2204729 0.6393748
0.1770253 0.2198102 0.6406244
0.1852245 0.2179358 0.6470103
0.2914906 0.237341 0.6560504
0.644234 0.334699 0.6616758
0.8200953 0.690073 0.7019784
0.8558363 0.8196969 0.8117939
0.8590045 0.8542346 0.8518524
0.8583974 0.8583974 0.8583974
0.1791275 0.2310124 0.637487
0.1792952 0.2304362 0.6386594
0.1807736 0.2247878 0.6491541
0.2877096 0.2408063 0.6603119
0.6447553 0.3355231 0.6621702
0.8201498 0.6901185 0.7015801
0.8558343 0.8197102 0.8117963
0.8590044 0.854235 0.8518525
0.8583974 0.8583974 0.8583974
0.2112121 0.3274975 0.6493225
0.2111035 0.3269083 0.6496559
0.2101773 0.3216392 0.6527335
0.2191518 0.2695694 0.7008583
0.6491739 0.3426355 0.6663613
0.8206308 0.6905115 0.6978827
0.8558176 0.8198258 0.8118172
0.859004 0.8542385 0.8518534
0.8583974 0.8583974 0.8583974
0.3482906 0.6430135 0.6559364
0.3482336 0.6429443 0.6558687
0.3477348 0.6423383 0.6552762
0.34328 0.636874 0.6499343
0.6288614 0.6288602 0.6288787
0.8185382 0.7146032 0.6850638
0.8556771 0.8208021 0.8120013
0.859 0.854269 0.851861
0.8583974 0.8583974 0.8583974
0.6485698 0.8154338 0.6575359
0.6485571 0.8154336 0.6574285
0.6484461 0.8154318 0.6564833
0.654272 0.8150197 0.6543556
0.6991808 0.8122042 0.6529266
0.8066947 0.804508 0.7026787
0.8547291 0.8275742 0.8136477
0.8589663 0.854527 0.8519278
0.8583974 0.8583974 0.8583974
0.815998 0.8547061 0.8038111
0.8159999 0.8547059 0.8038117
0.816016 0.8547041 0.8038169
0.8161557 0.8546885 0.8038621
0.8173344 0.8545575 0.8042549
0.8254253 0.8536745 0.8075003
0.8521072 0.8513964 0.824153
0.8587684 0.8560157 0.8525838
0.8583974 0.8583974 0.8583974
0.8533873 0.8587146 0.8498205
0.8533874 0.8587146 0.8498205
0.8533878 0.8587146 0.8498207
0.853392 0.8587144 0.8498223
0.8534286 0.8587126 0.8498363
0.853737 0.8586974 0.8499575
0.8554334 0.8586092 0.8510464
0.8584104 0.8584015 0.857192
0.8583974 0.8583974 0.8583974
0.8583974 0.8583974 0.8583974
0.8583974 0.8583974 0.8583974
0.8583974 0.8583974 0.8583974
0.8583974 0.8583974 0.8583974
0.8583974 0.8583974 0.8583974
0.8583974 0.8583974 0.8583974
0.8583974 0.8583974 0.8583974
0.8583974 0.8583974 0.8583974
0.8583974 0.8583974 0.8583974
0.5782314 0.6155835 0.8303629
0.5785086 0.6156791 0.8303444
0.5808994 0.6165085 0.8301837
0.5998602 0.623377 0.828855
0.6809585 0.6523729 0.8242449
0.8070986 0.7254351 0.8134876
0.8557517 0.8194824 0.8222658
0.8590327 0.8540137 0.8518542
0.8583974 0.8583974 0.8583974
0.5780676 0.6155841 0.8304014
0.5783453 0.6156798 0.8303829
0.5807406 0.6165096 0.8302218
0.5997341 0.6233816 0.8288903
0.680944 0.6524079 0.8242607
0.8071003 0.7254394 0.8134892
0.8557519 0.8194826 0.8222646
0.8590327 0.8540138 0.8518542
0.8583974 0.8583974 0.8583974
0.5766167 0.6155853 0.8307389
0.5768991 0.6156815 0.8307199
0.5793342 0.6165155 0.8305558
0.598619 0.623419 0.829199
0.6808163 0.6527138 0.8243986
0.8071156 0.7254776 0.813503
0.855754 0.819484 0.8222541
0.8590326 0.8540142 0.8518543
0.8583974 0.8583974 0.8583974
0.5620721 0.6152886 0.8338018
0.562404 0.6153899 0.8337795
0.5652604 0.6162677 0.8335857
0.5875913 0.6235034 0.8319903
0.6795988 0.6553874 0.8256103
0.8072484 0.7258098 0.8136233
0.8557719 0.819496 0.8221621
0.8590321 0.8540179 0.8518551
0.8583974 0.8583974 0.8583974
0.5492032 0.6721579 0.8395659
0.5492075 0.6721163 0.8395807
0.5492467 0.6717524 0.8397101
0.5497248 0.6684874 0.8408849
0.6399245 0.6681238 0.8406429
0.808374 0.7286208 0.814643
0.8559305 0.8196004 0.8213108
0.8590279 0.8540501 0.8518621
0.8583974 0.8583974 0.8583974
0.6838072 0.8093016 0.8157286
0.6838006 0.8092996 0.8157267
0.6837428 0.8092823 0.8157109
0.6832368 0.8091308 0.8155725
0.678658 0.8077613 0.8143208
0.8009296 0.8009293 0.8009339
0.8552871 0.8251948 0.8183005
0.8589926 0.8543214 0.8519238
0.8583974 0.8583974 0.8583974
0.8088357 0.854952 0.810836
0.8088354 0.854952 0.8108332
0.8088323 0.8549522 0.8108089
0.8088054 0.8549533 0.8105953
0.8102124 0.854766 0.8102311
0.8205543 0.8536242 0.8100372
0.8514606 0.8507302 0.8226627
0.858776 0.8559603 0.852533
0.8583974 0.8583974 0.8583974
0.8530161 0.8587331 0.8496519
0.8530161 0.8587331 0.8496519
0.8530166 0.8587331 0.8496521
0.8530212 0.8587328 0.8496537
0.8530606 0.8587309 0.8496678
0.8533926 0.8587147 0.8497908
0.8553212 0.8586159 0.8508816
0.858411 0.8584017 0.857137
0.8583974 0.8583974 0.8583974
0.8583974 0.8583974 0.8583974
0.8583974 0.8583974 0.8583974
0.8583974 0.8583974 0.8583974
0.8583974 0.8583974 0.8583974
0.8583974 0.8583974 0.8583974
0.8583974 0.8583974 0.8583974
0.8583974 0.8583974 0.8583974
0.8583974 0.8583974 0.8583974
0.8583974 0.8583974 0.8583974
0.7893472 0.7978718 0.8613516
0.7893553 0.7978753 0.8613502
0.7894259 0.7979059 0.8613379
0.7900348 0.7981702 0.8612315
0.7948895 0.8003219 0.8603824
0.8154612 0.808686 0.857684
0.8514199 0.8283696 0.8535371
0.8589641 0.8542747 0.8550242
0.8583974 0.8583974 0.8583974
0.7893425 0.7978713 0.8613535
0.7893506 0.7978748 0.8613521
0.7894212 0.7979054 0.8613398
0.7900302 0.7981697 0.8612334
0.7948858 0.8003217 0.860384
0.8154609 0.808687 0.8576845
0.85142 0.8283697 0.8535371
0.8589641 0.8542747 0.8550241
0.8583974 0.8583974 0.8583974
0.7893011 0.7978666 0.8613698
0.7893092 0.7978701 0.8613684
0.7893799 0.7979007 0.861356
0.78999 0.7981653 0.8612494
0.7948536 0.8003193 0.8603982
0.8154582 0.8086958 0.8576895
0.8514206 0.8283709 0.8535376
0.8589641 0.8542747 0.8550238
0.8583974 0.8583974 0.8583974
0.7889345 0.7978238 0.8615131
0.7889428 0.7978274 0.8615117
0.7890146 0.7978582 0.8614991
0.7896343 0.7981253 0.8613904
0.7945688 0.8002972 0.8605231
0.8154344 0.8087731 0.8577329
0.8514255 0.8283811 0.8535421
0.8589641 0.854275 0.855021
0.8583974 0.8583974 0.8583974
0.7852815 0.7973127 0.8628526
0.7852911 0.7973165 0.8628509
0.7853746 0.7973504 0.8628359
0.7860943 0.7976433 0.8627061
0.7917625 0.8000045 0.8616787
0.8152013 0.8094495 0.8581155
0.8514685 0.8284694 0.8535813
0.858964 0.8542778 0.854996
0.8583974 0.8583974 0.8583974
0.7831046 0.8105451 0.864956
0.7831046 0.8105439 0.8649566
0.7831045 0.8105335 0.8649617
0.7831047 0.8104426 0.865006
0.7831366 0.8096354 0.8654064
0.8053888 0.8120728 0.8635861
0.8518336 0.8292185 0.8539141
0.8589636 0.8543016 0.8547638
0.8583974 0.8583974 0.8583974
0.817569 0.8524623 0.8547198
0.8175688 0.8524623 0.8547197
0.8175671 0.8524616 0.8547192
0.8175525 0.8524562 0.8547143
0.8174243 0.8524086 0.8546714
0.8162673 0.8519803 0.8542853
0.84958 0.8495799 0.8495813
0.8587883 0.8557456 0.8539133
0.8583974 0.8583974 0.8583974
0.8512286 0.8587921 0.8517858
0.8512285 0.8587921 0.8517857
0.8512284 0.8587921 0.8517849
0.8512275 0.8587922 0.8517781
0.8512194 0.8587932 0.851718
0.8516623 0.8587738 0.8516676
0.8544853 0.8586466 0.8516218
0.8584164 0.8584034 0.8566345
0.8583974 0.8583974 0.8583974
0.8583974 0.8583974 0.8583974
0.8583974 0.8583974 0.8583974
0.8583974 0.8583974 0.8583974
0.8583974 0.8583974 0.8583974
0.8583974 0.8583974 0.8583974
0.8583974 0.8583974 0.8583974
0.8583974 0.8583974 0.8583974
0.8583974 0.8583974 0.8583974
0.8583974 0.8583974 0.8583974
0.8448274 0.8472054 0.8605909
0.8448277 0.8472056 0.8605909
0.84483 0.8472066 0.8605906
0.8448505 0.8472161 0.8605883
0.8450271 0.8472982 0.8605684
0.8464432 0.847968 0.8604069
0.8524093 0.8504931 0.8597633
0.8585364 0.8573053 0.8585364
0.8583974 0.8583974 0.8583974
0.8448272 0.8472054 0.860591
0.8448275 0.8472055 0.8605909
0.8448299 0.8472066 0.8605907
0.8448503 0.8472161 0.8605884
0.8450269 0.8472982 0.8605684
0.8464431 0.847968 0.8604069
0.8524093 0.8504931 0.8597633
0.8585364 0.8573053 0.8585364
0.8583974 0.8583974 0.8583974
0.8448258 0.8472051 0.8605911
0.844826 0.8472052 0.860591
0.8448284 0.8472063 0.8605908
0.8448488 0.8472158 0.8605885
0.8450255 0.8472979 0.8605685
0.8464419 0.8479678 0.860407
0.8524091 0.8504934 0.8597632
0.8585364 0.8573053 0.8585364
0.8583974 0.8583974 0.8583974
0.8448128 0.8472022 0.8605921
0.8448131 0.8472024 0.8605921
0.8448154 0.8472035 0.8605918
0.8448359 0.847213 0.8605895
0.8450129 0.8472952 0.8605695
0.8464316 0.8479658 0.8604078
0.8524081 0.8504956 0.859763
0.8585363 0.8573057 0.8585363
0.8583974 0.8583974 0.8583974
0.8446985 0.8471771 0.8606013
0.8446987 0.8471772 0.8606012
0.8447011 0.8471783 0.860601
0.8447219 0.8471879 0.8605986
0.8449016 0.847271 0.8605784
0.8463404 0.8479479 0.8604148
0.8523987 0.8505148 0.8597609
0.8585359 0.8573088 0.8585359
0.8583974 0.8583974 0.8583974
0.8435713 0.8469114 0.860694
0.8435716 0.8469116 0.8606939
0.8435743 0.8469128 0.8606936
0.8435984 0.8469235 0.860691
0.8438061 0.8470155 0.8606682
0.8454522 0.847758 0.8604855
0.8523103 0.8506834 0.8597431
0.8585325 0.8573359 0.8585325
0.8583974 0.8583974 0.8583974
0.8425979 0.8502538 0.8602953
0.8425979 0.8502538 0.8602953
0.8425978 0.8502534 0.8602954
0.8425975 0.8502502 0.8602958
0.8425952 0.850222 0.8602997
0.8425822 0.8499712 0.8603341
0.8490502 0.8509483 0.859876
0.8585032 0.8575663 0.8585032
0.8583974 0.8583974 0.8583974
0.8539703 0.8585981 0.8585981
0.8539703 0.8585981 0.8585981
0.8539702 0.8585981 0.8585981
0.8539697 0.8585981 0.8585981
0.8539652 0.8585983 0.8585983
0.8539261 0.8586001 0.8586001
0.853574 0.8586159 0.8586159
0.8583974 0.8583974 0.8583974
0.8583974 0.8583974 0.8583974
0.8583974 0.8583974 0.8583974
0.8583974 0.8583974 0.8583974
0.8583974 0.8583974 0.8583974
0.8583974 0.8583974 0.8583974
0.8583974 0.8583974 0.8583974
0.8583974 0.8583974 0.8583974
0.8583974 0.8583974 0.8583974
0.8583974 0.8583974 0.8583974
0.8583974 0.8583974 0.8583974
0.8583974 0.8583974 0.8583974
0.8583974 0.8583974 0.8583974
0.8583974 0.8583974 0.8583974
0.8583974 0.8583974 0.8583974
0.8583974 0.8583974 0.8583974
0.8583974 0.8583974 0.8583974
0.8583974 0.8583974 0.8583974
0.8583974 0.8583974 0.8583974
0.8583974 0.8583974 0.8583974
0.8583974 0.8583974 0.8583974
0.8583974 0.8583974 0.8583974
0.8583974 0.8583974 0.8583974
0.8583974 0.8583974 0.8583974
0.8583974 0.8583974 0.8583974
0.8583974 0.8583974 0.8583974
0.8583974 0.8583974 0.8583974
0.8583974 0.8583974 0.8583974
0.8583974 0.8583974 0.8583974
0.8583974 0.8583974 0.8583974
0.8583974 0.8583974 0.8583974
0.8583974 0.8583974 0.8583974
0.8583974 0.8583974 0.8583974
0.8583974 0.8583974 0.8583974
0.8583974 0.8583974 0.8583974
0.8583974 0.8583974 0.8583974
0.8583974 0.8583974 0.8583974
0.8583974 0.8583974 0.8583974
0.8583974 0.8583974 0.8583974
0.8583974 0.8583974 0.8583974
0.8583974 0.8583974 0.8583974
0.8583974 0.8583974 0.8583974
0.8583974 0.8583974 0.8583974
0.8583974 0.8583974 0.8583974
0.8583974 0.8583974 0.8583974
0.8583974 0.8583974 0.8583974
0.8583974 0.8583974 0.8583974
0.8583974 0.8583974 0.8583974
0.8583974 0.8583974 0.8583974
0.8583974 0.8583974 0.8583974
0.8583974 0.8583974 0.8583974
0.8583974 0.8583974 0.8583974
0.8583974 0.8583974 0.8583974
0.8583974 0.8583974 0.8583974
0.8583974 0.8583974 0.8583974
0.8583974 0.8583974 0.8583974
0.8583974 0.8583974 0.8583974
0.8583974 0.8583974 0.8583974
0.8583974 0.8583974 0.8583974
0.8583974 0.8583974 0.8583974
0.8583974 0.8583974 0.8583974
0.8583974 0.8583974 0.8583974
0.8583974 0.8583974 0.8583974
0.8583974 0.8583974 0.8583974
0.8583974 0.8583974 0.8583974
0.8583974 0.8583974 0.8583974
0.8583974 0.8583974 0.8583974
0.8583974 0.8583974 0.8583974
0.8583974 0.8583974 0.8583974
0.8583974 0.8583974 0.8583974
0.8583974 0.8583974 0.8583974
0.8583974 0.8583974 0.8583974
0.8583974 0.8583974 0.8583974
0.8583974 0.8583974 0.8583974
0.8583974 0.8583974 0.8583974
0.8583974 0.8583974 0.8583974
0.8583974 0.8583974 0.8583974
0.8583974 0.8583974 0.8583974
0.8583974 0.8583974 0.8583974
0.8583974 0.8583974 0.8583974
0.8583974 0.8583974 0.8583974
0.8583974 0.8583974 0.8583974
0.8583974 0.8583974 0.8583974
0.8583974 0.8583974 0.8583974
0.8583974 0.8583974 0.8583974
0.8583974 0.8583974 0.8583974
0.8583974 0.8583974 0.8583974
0.8583974 0.8583974 0.8583974
0.8583974 0.8583974 0.8583974
0.8583974 0.8583974 0.8583974
0.8583974 0.8583974 0.8583974
0.8583974 0.8583974 0.8583974
