luts/AgX_Rec2100-HLG_p3_lim.cube
TITLE "AgX_Formation Rec.2100 HLG P3 limited"
# AgX Rec.2100 HLG 1000 nits Formation P3 Limited LUT
# This LUT expects input to be E Gamut Log2 encoding from -10 stops to +15 stops
# But the end image formation will be from -10 to 6.5 encoded in Rec.2100-HLG
# Inset matrix can be generated in Rec.2020 with rotation [2.13976149, -1.22827335, -3.05174246],
# Inset: [0.32965205, 0.28051336, 0.12475368], outset = [0.32317438, 0.28325605, 0.0374326].
# HDR purity set to 0.5, HDR extra shoulder power is 2.0
# calculated from power(1000 / 100, log10(2.0))
# The image formed has 40% per-channel shifts
# HDR max nits is 1000, Reference White nits is 100
LUT_3D_SIZE 57
0.0004711 0.0004327 0.0007854
0.0052418 0.001359 0
0.008752 0.002235 0
0.0124942 0.0031865 0
0.0165921 0.0042524 0
0.0211277 0.0054623 0
0.0261806 0.006846 0
0.0318383 0.0084351 0
0.0381776 0.0102915 0
0.0452887 0.0125493 0
0.0534629 0.0151004 0
0.0628517 0.0179896 0
0.0736425 0.0212706 0
0.0860656 0.0250079 0
0.1004009 0.0292794 0
0.1169854 0.0341784 0
0.1362196 0.0398171 0
0.1585695 0.0463286 0
0.1845593 0.0538686 0
0.2147437 0.0626138 0
0.2496407 0.072755 0
0.2895946 0.0844809 0
0.3345085 0.097944 0
0.3837642 0.1133123 0
0.4433847 0.1323566 0
0.5181222 0.1566909 0
0.595733 0.1878465 0
0.6701021 0.2281982 0.0031831
0.7365053 0.2926797 0.109832
0.7965018 0.3759125 0.1981168
0.8486629 0.4778232 0.3005841
0.8923129 0.5829358 0.4195702
0.9276737 0.6676661 0.547895
0.955611 0.7370591 0.6483226
0.9772992 0.7942718 0.7256733
0.9939534 0.8414954 0.7874973
1 0.8804499 0.8377234
1 0.9125182 0.8787436
1 0.9388223 0.9121923
1 0.9603009 0.9393334
1 0.9777667 0.9612434
1 0.9919325 0.9788699
1 1 0.9930367
1 1 1
1 1 1
1 1 1
1 1 1
1 1 1
1 1 1
1 1 1
1 1 1
1 1 1
1 1 1
1 1 1
1 1 1
1 1 1
1 1 1
0.0023552 0.0050616 0.001907
0.0052994 0.0051748 0.000662
0.0088233 0.0056863 0.0006382
0.0125651 0.0063627 0.000585
0.0166547 0.0071611 0.0004677
0.0211798 0.0081021 0.0001429
0.026222 0.0092184 0
0.0318698 0.0105466 0
0.038198 0.0121728 0
0.0453318 0.0141966 0
0.0535085 0.0165311 0
0.0628914 0.0192245 0
0.0736742 0.0223318 0
0.0860898 0.0259169 0
0.1004192 0.0300562 0
0.1169993 0.0348415 0
0.1362305 0.0403827 0
0.1585783 0.046811 0
0.1845667 0.0542802 0
0.2147499 0.0629649 0
0.2496457 0.0730546 0
0.2895981 0.0847363 0
0.3345101 0.0981612 0
0.3837643 0.1134965 0
0.4433853 0.1325145 0
0.5181229 0.1568279 0
0.5957333 0.1879663 0
0.6701019 0.2283024 0.0033244
0.7365051 0.2927637 0.1098398
0.7965014 0.3759793 0.198123
0.8486623 0.4778753 0.3005892
0.8923123 0.5829655 0.4195744
0.9276732 0.6676826 0.5478978
0.9556106 0.7370687 0.6483242
0.9772988 0.7942774 0.7256742
0.9939531 0.8414987 0.7874979
1 0.8804518 0.8377238
1 0.9125193 0.8787438
1 0.938823 0.9121924
1 0.9603013 0.9393335
1 0.9777669 0.9612434
1 0.9919327 0.97887
1 1 0.9930367
1 1 1
1 1 1
1 1 1
1 1 1
1 1 1
1 1 1
1 1 1
1 1 1
1 1 1
1 1 1
1 1 1
1 1 1
1 1 1
1 1 1
0.0039455 0.0084762 0.0032322
0.0058116 0.0085412 0.0011457
0.0089377 0.008732 0.0011172
0.0126422 0.009338 0.0011124
0.0167152 0.0100461 0.0010817
0.0212293 0.0108617 0.0010117
0.0262623 0.0118179 0.0008821
0.0319017 0.0129575 0.0006418
0.0382292 0.0144022 0
0.0453864 0.0162049 0
0.0535656 0.0183177 0
0.0629418 0.0207976 0
0.0737149 0.0237052 0
0.0861214 0.0271082 0
0.1004432 0.0310843 0
0.1170177 0.0357255 0
0.136245 0.0411411 0
0.1585901 0.0474606 0
0.1845766 0.054836 0
0.2147582 0.0634403 0
0.2496524 0.073461 0
0.2896029 0.0850831 0
0.3345122 0.0984564 0
0.3837644 0.113747 0
0.443386 0.1327295 0
0.5181238 0.1570143 0
0.5957338 0.1881293 0
0.6701016 0.2284443 0.0035078
0.7365048 0.2928781 0.1098505
0.7965008 0.3760704 0.1981314
0.8486616 0.4779462 0.300596
0.8923115 0.5830058 0.4195801
0.9276725 0.6677052 0.5479017
0.95561 0.7370817 0.6483264
0.9772983 0.794285 0.7256755
0.9939528 0.8415032 0.7874987
1 0.8804544 0.8377243
1 0.9125208 0.8787441
1 0.9388239 0.9121926
1 0.9603018 0.9393336
1 0.9777672 0.9612435
1 0.9919328 0.97887
1 1 0.9930367
1 1 1
1 1 1
1 1 1
1 1 1
1 1 1
1 1 1
1 1 1
1 1 1
1 1 1
1 1 1
1 1 1
1 1 1
1 1 1
1 1 1
0.0056434 0.0121229 0.0046358
0.006598 0.012139 0.0016492
0.0095171 0.0122739 0.0016287
0.0127789 0.0124932 0.0015986
0.0168005 0.0131528 0.0015974
0.0212874 0.0138936 0.0015696
0.0263049 0.0147398 0.0015059
0.031934 0.0157338 0.0013935
0.0382768 0.017038 0.0012368
0.0454552 0.018633 0.0009789
0.0536363 0.0205241 0.0003684
0.0630045 0.0227778 0
0.0737664 0.0254632 0
0.0861618 0.0286543 0
0.1004743 0.0324339 0
0.1170419 0.0368966 0
0.1362642 0.0421527 0
0.1586059 0.0483318 0
0.1845899 0.0555846 0
0.2147694 0.0640826 0
0.2496614 0.0740111 0
0.2896093 0.0855534 0
0.3345151 0.0988572 0
0.3837645 0.1140876 0
0.443387 0.1330218 0
0.5181251 0.1572679 0
0.5957343 0.1883511 0
0.6701013 0.2286376 0.0037434
0.7365044 0.2930339 0.1098651
0.7965001 0.3761944 0.1981428
0.8486606 0.4780429 0.3006054
0.8923105 0.5830608 0.4195878
0.9276715 0.667736 0.5479069
0.9556092 0.7370995 0.6483293
0.9772977 0.7942954 0.7256773
0.9939523 0.8415093 0.7874998
1 0.880458 0.837725
1 0.9125229 0.8787446
1 0.9388251 0.9121929
1 0.9603025 0.9393338
1 0.9777676 0.9612436
1 0.9919331 0.9788701
1 1 0.9930368
1 1 1
1 1 1
1 1 1
1 1 1
1 1 1
1 1 1
1 1 1
1 1 1
1 1 1
1 1 1
1 1 1
1 1 1
1 1 1
1 1 1
0.0075057 0.0161237 0.0061603
0.0075677 0.0160941 0.0021988
0.010307 0.016201 0.0021829
0.0133995 0.0163411 0.0021563
0.0169538 0.0165851 0.0021225
0.0213803 0.0172813 0.0021186
0.0263628 0.0180529 0.0020866
0.0319717 0.0189356 0.0020187
0.0383506 0.0201417 0.0019336
0.0455422 0.0215447 0.0017865
0.0537225 0.0232193 0.0015437
0.0630814 0.0252407 0.0011123
0.0738303 0.0276864 0
0.0862126 0.0306391 0
0.1005141 0.0341887 0
0.1170732 0.0384356 0
0.1362893 0.0434937 0
0.1586268 0.0494944 0
0.1846076 0.0565889 0
0.2147845 0.0649476 0
0.2496736 0.0747543 0
0.2896179 0.0861902 0
0.334519 0.0994008 0
0.3837646 0.11455 0
0.4433884 0.1334191 0
0.5181269 0.1576129 0
0.5957351 0.1886531 0
0.6701007 0.2289007 0.0040423
0.7365038 0.293246 0.1098849
0.7964991 0.3763633 0.1981584
0.8486593 0.4781745 0.3006181
0.892309 0.5831358 0.4195984
0.9276701 0.6677779 0.5479141
0.955608 0.7371237 0.6483333
0.9772968 0.7943095 0.7256797
0.9939516 0.8415176 0.7875013
1 0.8804629 0.8377259
1 0.9125258 0.8787451
1 0.9388268 0.9121932
1 0.9603035 0.939334
1 0.9777682 0.9612437
1 0.9919334 0.9788701
1 1 0.9930368
1 1 1
1 1 1
1 1 1
1 1 1
1 1 1
1 1 1
1 1 1
1 1 1
1 1 1
1 1 1
1 1 1
1 1 1
1 1 1
1 1 1
0.0095685 0.0205572 0.0078293
0.0094613 0.0205202 0.0048618
0.0112746 0.0205705 0.0027937
0.0142148 0.0206779 0.0027717
0.0176043 0.0208258 0.0027388
0.0215489 0.0210921 0.0026995
0.0264628 0.0218171 0.0026893
0.0320922 0.0227084 0.0026613
0.0384667 0.023778 0.0026063
0.0456552 0.0250078 0.0025042
0.0538278 0.0264772 0.0023394
0.0631741 0.0282674 0.0020801
0.073908 0.0304636 0.0016521
0.0862755 0.0331569 0.0007307
0.1005641 0.0364459 0
0.1171131 0.0404392 0
0.1363219 0.0452574 0
0.1586541 0.0510363 0
0.184631 0.0579296 0
0.2148045 0.0661082 0
0.2496899 0.0757554 0
0.2896295 0.0870506 0
0.3345241 0.1001368 0
0.3837648 0.1151772 0
0.4433902 0.1339586 0
0.5181292 0.1580818 0
0.5957362 0.1890637 0
0.6701001 0.2292587 0.0044173
0.7365031 0.2935348 0.1099119
0.7964977 0.3765933 0.1981797
0.8486574 0.4783538 0.3006355
0.892307 0.5832378 0.4196128
0.9276683 0.667835 0.5479239
0.9556065 0.7371566 0.6483388
0.9772956 0.7943288 0.7256829
0.9939508 0.841529 0.7875033
1 0.8804696 0.8377271
1 0.9125297 0.8787459
1 0.9388291 0.9121937
1 0.9603048 0.9393343
1 0.977769 0.9612439
1 0.9919339 0.9788702
1 1 0.9930369
1 1 1
1 1 1
1 1 1
1 1 1
1 1 1
1 1 1
1 1 1
1 1 1
1 1 1
1 1 1
1 1 1
1 1 1
1 1 1
1 1 1
0.0118664 0.0254977 0.0096637
0.0117752 0.0254631 0.0073685
0.0124436 0.0254575 0.0034734
0.0152089 0.0255394 0.0034543
0.0184511 0.02565 0.0034262
0.022225 0.025807 0.0033865
0.0267166 0.0261648 0.0033491
0.0323303 0.0270625 0.0033493
0.038651 0.0280155 0.0033143
0.0458085 0.0290941 0.0032394
0.0539591 0.0303757 0.0031155
0.0632859 0.0319442 0.002925
0.0740012 0.0338898 0.0026347
0.0863515 0.0363109 0.0021729
0.1006256 0.039315 0.0013013
0.1171631 0.0430201 0
0.1363634 0.0475558 0
0.1586894 0.0530655 0
0.1846617 0.0597082 0
0.2148309 0.067658 0
0.2497116 0.0770989 0
0.2896449 0.0882096 0
0.3345309 0.1011313 0
0.3837648 0.1160264 0
0.4433926 0.1346903 0
0.5181324 0.1587185 0
0.5957377 0.1896218 0
0.6700991 0.2297455 0.0048823
0.736502 0.2939278 0.1099487
0.7964958 0.3769065 0.1982086
0.8486549 0.478598 0.3006592
0.8923043 0.5833767 0.4196324
0.9276657 0.6679128 0.5479372
0.9556044 0.7372015 0.6483462
0.977294 0.7943551 0.7256874
0.9939496 0.8415444 0.787506
1 0.8804787 0.8377289
1 0.912535 0.878747
1 0.9388322 0.9121944
1 0.9603066 0.9393347
1 0.97777 0.9612442
1 0.9919345 0.9788704
1 1 0.993037
1 1 1
1 1 1
1 1 1
1 1 1
1 1 1
1 1 1
1 1 1
1 1 1
1 1 1
1 1 1
1 1 1
1 1 1
1 1 1
1 1 1
0.0144369 0.0310269 0.0116854
0.0143581 0.0309951 0.0097964
0.0142371 0.0309572 0.0055699
0.0164208 0.0310053 0.0042171
0.0195059 0.0311027 0.0041944
0.0232455 0.0313198 0.0041726
0.0276134 0.0316192 0.0041422
0.0327329 0.0320778 0.0041065
0.0389409 0.0329308 0.0040862
0.0460266 0.0338809 0.0040311
0.0541301 0.0349975 0.0039344
0.0634235 0.0363616 0.0037847
0.074113 0.0380655 0.003562
0.0864425 0.0402121 0.00323
0.1006998 0.0429164 0.0027131
0.1172243 0.0463055 0.0017875
0.1364152 0.0505194 0
0.1587344 0.0557118 0
0.1847014 0.0620501 0
0.2148655 0.0697148 0
0.2497402 0.0788932 0
0.2896653 0.0897651 0
0.3345397 0.1024709 0
0.3837648 0.1171737 0
0.4433958 0.1356811 0
0.5181366 0.159582 0
0.5957396 0.1903795 0
0.6700978 0.230407 0.0054526
0.7365006 0.2944624 0.1099988
0.7964933 0.3773328 0.1982481
0.8486515 0.4789305 0.3006915
0.8923006 0.5835657 0.4196591
0.9276623 0.6680187 0.5479554
0.9556015 0.7372626 0.6483564
0.9772918 0.7943908 0.7256935
0.993948 0.8415654 0.7875098
1 0.880491 0.8377312
1 0.9125423 0.8787485
1 0.9388364 0.9121953
1 0.9603091 0.9393352
1 0.9777715 0.9612445
1 0.9919353 0.9788706
1 1 0.9930371
1 1 1
1 1 1
1 1 1
1 1 1
1 1 1
1 1 1
1 1 1
1 1 1
1 1 1
1 1 1
1 1 1
1 1 1
1 1 1
1 1 1
0.0173502 0.037302 0.0138705
0.0172907 0.0372962 0.0122174
0.0172014 0.0372925 0.0091195
0.0181435 0.0373355 0.005095
0.0210684 0.0374559 0.0050808
0.0245742 0.0376189 0.0050602
0.028733 0.0378418 0.0050314
0.0336247 0.0381485 0.0049918
0.0393851 0.0386124 0.0049434
0.046347 0.0394546 0.0049038
0.0543657 0.0404313 0.0048281
0.0636015 0.0416157 0.0047074
0.0742509 0.0430966 0.0045281
0.0865518 0.0449781 0.0042671
0.1007884 0.0473795 0.0038834
0.1172981 0.0504355 0.0032939
0.1364786 0.0542963 0.0022659
0.1587906 0.0591269 0
0.1847518 0.0651061 0
0.2149102 0.0724239 0
0.2497774 0.081275 0
0.289692 0.0918429 0
0.3345512 0.104269 0
0.3837644 0.1187194 0
0.4434 0.1370197 0
0.5181423 0.1607511 0
0.5957422 0.1914071 0
0.6700961 0.2313052 0.0061455
0.7364987 0.2951891 0.1100671
0.7964898 0.3779128 0.1983018
0.8486469 0.4793831 0.3007355
0.8922956 0.583823 0.4196954
0.9276576 0.6681629 0.5479801
0.9555976 0.7373458 0.6483702
0.9772887 0.7944395 0.7257017
0.9939457 0.8415941 0.7875149
1 0.8805079 0.8377344
1 0.9125522 0.8787505
1 0.9388422 0.9121965
1 0.9603125 0.939336
1 0.9777735 0.9612449
1 0.9919365 0.9788709
1 1 0.9930373
1 1 1
1 1 1
1 1 1
1 1 1
1 1 1
1 1 1
1 1 1
1 1 1
1 1 1
1 1 1
1 1 1
1 1 1
1 1 1
1 1 1
0.0206921 0.044516 0.0161783
0.0206393 0.0445103 0.0147091
0.0205635 0.0445066 0.0122247
0.0204537 0.0445136 0.0069316
0.0229045 0.0445997 0.0060738
0.0261603 0.0447227 0.0060547
0.0300829 0.0448902 0.006028
0.0347602 0.0451201 0.0059911
0.0402894 0.0454371 0.005941
0.0468223 0.0459153 0.0058786
0.0547063 0.0467766 0.0058202
0.0638466 0.0478097 0.0057229
0.0744306 0.049095 0.0055759
0.0866876 0.0507325 0.0053628
0.1008952 0.0528416 0.0050571
0.1173863 0.0555614 0.0046116
0.136555 0.0590498 0.0039323
0.1588594 0.0634829 0.0027653
0.1848148 0.0690524 0
0.2149669 0.0759607 0
0.2498253 0.0844132 0
0.2897265 0.0946013 0
0.3345655 0.1066707 0
0.3837633 0.1207939 0
0.4434052 0.1388231 0
0.5181498 0.1623307 0
0.5957457 0.1927983 0
0.6700937 0.232523 0.0069803
0.736496 0.296176 0.11016
0.7964851 0.3787013 0.198375
0.8486406 0.4799988 0.3007954
0.8922888 0.5841728 0.419745
0.9276513 0.6683591 0.5480138
0.9555922 0.7374592 0.6483891
0.9772846 0.7945059 0.725713
0.9939427 0.8416331 0.7875219
1 0.8805308 0.8377388
1 0.9125656 0.8787532
1 0.9388501 0.9121982
1 0.9603171 0.939337
1 0.9777761 0.9612456
1 0.9919381 0.9788712
1 1 0.9930375
1 1 1
1 1 1
1 1 1
1 1 1
1 1 1
1 1 1
1 1 1
1 1 1
1 1 1
1 1 1
1 1 1
1 1 1
1 1 1
1 1 1
0.0244556 0.0526374 0.0188061
0.0244104 0.0526339 0.0175205
0.0243468 0.0526325 0.0154853
0.0242569 0.0526384 0.0118858
0.0250818 0.0526787 0.0071939
0.0280747 0.0527723 0.0071764
0.0317368 0.0528994 0.007152
0.036166 0.0530735 0.0071185
0.0414679 0.0533134 0.0070726
0.0477583 0.0536459 0.0070107
0.0552098 0.0541489 0.0069329
0.0642036 0.0550595 0.0068558
0.0746824 0.0561818 0.0067356
0.086868 0.0576064 0.0065597
0.1010298 0.0594476 0.0063086
0.1174933 0.0618436 0.0059511
0.1366464 0.0649566 0.0054328
0.1589422 0.0689708 0.0046462
0.1848919 0.0740898 0.0033075
0.2150376 0.0805303 0
0.2498858 0.0885114 0
0.2897703 0.0982364 0
0.334583 0.1098595 0
0.3837607 0.123565 0
0.4434117 0.1412437 0
0.5181597 0.1644586 0
0.5957504 0.1946774 0
0.6700904 0.2341712 0.0079795
0.7364924 0.2975149 0.1102866
0.7964787 0.3797726 0.1984746
0.848632 0.4808362 0.300877
0.8922795 0.5846482 0.4198126
0.9276426 0.668626 0.5480597
0.955585 0.7376134 0.6484148
0.977279 0.7945962 0.7257284
0.9939386 0.8416862 0.7875313
1 0.880562 0.8377447
1 0.9125839 0.8787569
1 0.9388608 0.9122005
1 0.9603233 0.9393384
1 0.9777798 0.9612464
1 0.9919402 0.9788717
1 1 0.9930378
1 1 1
1 1 1
1 1 1
1 1 1
1 1 1
1 1 1
1 1 1
1 1 1
1 1 1
1 1 1
1 1 1
1 1 1
1 1 1
1 1 1
0.0287218 0.0618404 0.0218206
0.0286839 0.0618399 0.0207077
0.0286313 0.0618415 0.0190219
0.0285579 0.061849 0.0163013
0.028455 0.0618706 0.0111847
0.0303979 0.061935 0.008449
0.0337798 0.0620327 0.0084271
0.03793 0.0621662 0.008397
0.0429646 0.0623499 0.0083559
0.049009 0.0626045 0.0083001
0.0562002 0.0629593 0.008225
0.0647381 0.0635 0.0081303
0.0750571 0.0644929 0.0080342
0.087128 0.0657423 0.0078899
0.1012135 0.0673516 0.0076822
0.1176306 0.0694523 0.0073882
0.1367582 0.0722049 0.0069711
0.1590415 0.0757971 0.0063679
0.1849846 0.0804412 0.0054558
0.2151238 0.0863669 0.003918
0.2499605 0.0938085 0
0.2898243 0.1029845 0
0.3346033 0.1140617 0
0.3837556 0.1272443 0
0.4434195 0.1444771 0
0.5181726 0.1673143 0
0.5957565 0.1972082 0
0.6700859 0.236397 0.0091691
0.7364875 0.2993283 0.1104589
0.79647 0.3812265 0.1986102
0.8486202 0.4819742 0.3009881
0.8922668 0.5852934 0.4199046
0.9276308 0.6689889 0.5481223
0.9555751 0.7378233 0.6484498
0.9772713 0.7947191 0.7257493
0.993933 0.8417585 0.7875443
1 0.8806046 0.8377528
1 0.9126089 0.878762
1 0.9388754 0.9122037
1 0.9603319 0.9393403
1 0.9777848 0.9612476
1 0.9919431 0.9788724
1 1 0.9930382
1 1 1
1 1 1
1 1 1
1 1 1
1 1 1
1 1 1
1 1 1
1 1 1
1 1 1
1 1 1
1 1 1
1 1 1
1 1 1
1 1 1
0.0335861 0.0723302 0.0252975
0.0335548 0.0723325 0.0243414
0.0335118 0.0723373 0.0229365
0.0334522 0.0723473 0.0207894
0.0333696 0.0723679 0.0172519
0.0332543 0.0724109 0.0100434
0.0363081 0.0724872 0.0098811
0.0401537 0.0725914 0.0098545
0.0448841 0.0727345 0.0098182
0.050636 0.0729323 0.0097687
0.0575574 0.0732077 0.0097018
0.0658109 0.0735936 0.009612
0.0756304 0.0741875 0.0094988
0.0875262 0.0753008 0.0093834
0.101487 0.0767217 0.0092135
0.1178231 0.0785691 0.0089708
0.1369041 0.0809945 0.0086281
0.1591638 0.0841825 0.0081427
0.1850959 0.0883485 0.0074419
0.215227 0.0937307 0.006387
0.2500505 0.1005773 0.0046335
0.2898892 0.109123 0
0.334625 0.1195506 0
0.3837456 0.1320929 0
0.443428 0.1487701 0
0.5181889 0.1711283 0
0.5957645 0.2006036 0
0.6700798 0.2393932 0.0105796
0.7364808 0.3017795 0.1106934
0.7964581 0.383197 0.1987947
0.8486043 0.4835192 0.3011395
0.8922496 0.5861682 0.42003
0.9276148 0.6694817 0.5482075
0.9555617 0.7381086 0.6484975
0.9772609 0.7948864 0.7257778
0.9939254 0.841857 0.7875619
1 0.8806625 0.8377638
1 0.9126429 0.8787689
1 0.9388953 0.9122079
1 0.9603435 0.9393429
1 0.9777916 0.9612491
1 0.9919471 0.9788734
1 1 0.9930387
1 1 1
1 1 1
1 1 1
1 1 1
1 1 1
1 1 1
1 1 1
1 1 1
1 1 1
1 1 1
1 1 1
1 1 1
1 1 1
1 1 1
0.0391613 0.0843499 0.0293255
0.0391359 0.0843547 0.0285088
0.0391011 0.0843623 0.0273339
0.0390531 0.0843749 0.0256001
0.038987 0.0843965 0.0229279
0.0388954 0.0844348 0.0184364
0.0394291 0.0845012 0.0115473
0.0429521 0.0845842 0.0115241
0.0473468 0.0846979 0.0114924
0.0527627 0.0848546 0.0114491
0.0593608 0.0850722 0.0113904
0.067316 0.0853763 0.0113112
0.0768204 0.0858044 0.0112051
0.0881511 0.0864706 0.0110715
0.101919 0.0877486 0.0109365
0.118119 0.0893929 0.0107391
0.1371136 0.0915397 0.0104576
0.1593252 0.0943623 0.0100599
0.1852333 0.0980706 0.0094963
0.2153502 0.1029046 0.0086847
0.2501567 0.109121 0.007474
0.2899643 0.1169683 0.0055123
0.3346452 0.1266462 0
0.3837274 0.1384258 0
0.4434364 0.1544275 0
0.5182093 0.176191 0
0.5957747 0.205136 0
0.6700715 0.2434104 0.0122479
0.7364717 0.3050833 0.1110122
0.7964419 0.3858625 0.1990456
0.8485827 0.4856138 0.3013456
0.8922263 0.5873519 0.4202008
0.927593 0.6701502 0.5483237
0.9555434 0.7384962 0.6485626
0.9772467 0.7951138 0.7258167
0.9939151 0.841991 0.7875859
1 0.8807414 0.8377789
1 0.9126892 0.8787783
1 0.9389224 0.9122137
1 0.9603593 0.9393465
1 0.9778009 0.9612513
1 0.9919525 0.9788746
1 1 0.9930395
1 1 1
1 1 1
1 1 1
1 1 1
1 1 1
1 1 1
1 1 1
1 1 1
1 1 1
1 1 1
1 1 1
1 1 1
1 1 1
1 1 1
0.045582 0.0981888 0.03401
0.0455616 0.0981956 0.0333152
0.0455337 0.0982055 0.0323306
0.0454954 0.0982205 0.0309113
0.0454428 0.0982436 0.028809
0.0453703 0.0982805 0.0255459
0.0452701 0.0983416 0.0199618
0.0464532 0.0984288 0.0134456
0.0504895 0.0985213 0.0134182
0.055532 0.0986484 0.0133809
0.0617559 0.098824 0.01333
0.0693509 0.0990684 0.0132612
0.0785235 0.099411 0.0131683
0.0895009 0.0998949 0.0130439
0.1026133 0.1006561 0.0128878
0.1185991 0.1021498 0.0127326
0.1374435 0.1040762 0.0125054
0.1595606 0.1065892 0.0121803
0.1854154 0.1098838 0.0117197
0.2155017 0.1141917 0.0110671
0.2502811 0.1197692 0.0101328
0.2900481 0.1268721 0.0087639
0.3346585 0.1357133 0.0066491
0.3836957 0.1466117 0.0023986
0.4434428 0.1618163 0
0.5182341 0.1828604 0
0.5957875 0.2111483 0
0.6700602 0.2487682 0.0142181
0.7364593 0.3095204 0.1114455
0.79642 0.3894589 0.1993867
0.8485534 0.4884488 0.3016262
0.8921945 0.5889496 0.4204335
0.9275634 0.6710557 0.5484818
0.9555185 0.7390223 0.6486512
0.9772274 0.7954229 0.7258696
0.993901 0.8421732 0.7876186
1 0.8808487 0.8377993
1 0.9127522 0.8787911
1 0.9389593 0.9122217
1 0.9603809 0.9393513
1 0.9778135 0.9612542
1 0.9919599 0.9788764
1 1 0.9930405
1 1 1
1 1 1
1 1 1
1 1 1
1 1 1
1 1 1
1 1 1
1 1 1
1 1 1
1 1 1
1 1 1
1 1 1
1 1 1
1 1 1
0.0530075 0.1141899 0.0394753
0.0529913 0.1141982 0.0388859
0.0529692 0.1142098 0.0380596
0.052939 0.1142267 0.0368875
0.0528975 0.1142513 0.0351951
0.0528404 0.1142882 0.0326811
0.0527619 0.1143449 0.0287568
0.0526534 0.1144353 0.0219418
0.0544644 0.1145432 0.0156429
0.0591056 0.1146487 0.015611
0.0649112 0.1147938 0.0155675
0.0720867 0.1149945 0.0155083
0.0808557 0.1152743 0.0154281
0.0914619 0.1156671 0.01532
0.104174 0.1162229 0.0151751
0.1193857 0.1171056 0.0149939
0.1379891 0.1188712 0.0148175
0.1599369 0.1211407 0.0145571
0.1856832 0.1240847 0.014182
0.2157025 0.1279149 0.0136489
0.2504318 0.1328745 0.0128955
0.2901398 0.1392156 0.0118312
0.3346577 0.1471554 0.0103251
0.3836431 0.15707 0.008191
0.4434439 0.1713657 0.0045083
0.5182631 0.1915662 0
0.5958037 0.2190608 0
0.6700452 0.255866 0.0165454
0.7364425 0.3154515 0.1120337
0.7963903 0.3942954 0.1998497
0.8485136 0.4922767 0.3020081
0.8921515 0.5910991 0.4207505
0.9275233 0.6722796 0.5486972
0.9554848 0.7397353 0.6487719
0.9772012 0.7958424 0.7259418
0.9938818 0.8424207 0.7876632
1 0.8809946 0.8378273
1 0.912838 0.8788086
1 0.9390095 0.9122325
1 0.9604103 0.9393579
1 0.9778306 0.9612581
1 0.99197 0.9788787
1 1 0.9930419
1 1 1
1 1 1
